;FLAVOR:UltiGCode
;TIME:873
;MATERIAL:1032
;MATERIAL2:0
;NOZZLE_DIAMETER:0.400000
;NOZZLE_DIAMETER2:0.400000

;Layer count: 48
;LAYER:0
M107
G0 F9000 X90.763 Y23.024 Z0.300
;TYPE:SKIRT
G1 F1200 X91.025 Y22.214 E0.10216
G1 X91.369 Y21.440 E0.20380
G1 X91.791 Y20.707 E0.30529
G1 X92.295 Y20.012 E0.40832
G1 X92.885 Y19.363 E0.51357
G1 X93.515 Y18.799 E0.61504
G1 X94.203 Y18.303 E0.71681
G1 X94.930 Y17.887 E0.81733
G1 X95.681 Y17.551 E0.91606
G1 X96.509 Y17.284 E1.02045
G1 X97.394 Y17.094 E1.12907
G1 X108.573 Y16.456 E2.47274
G1 X109.196 Y16.187 E2.55417
G1 X110.007 Y15.919 E2.65666
G1 X110.841 Y15.724 E2.75944
G1 X111.698 Y15.604 E2.86329
G1 X112.347 Y15.573 E2.94126
G1 X112.533 Y15.559 E2.96364
G1 X113.410 Y15.596 E3.06897
G1 X114.260 Y15.708 E3.17185
G1 X115.091 Y15.895 E3.27407
G1 X115.907 Y16.155 E3.37684
G1 X116.617 Y16.454 E3.46928
G1 X126.477 Y16.995 E4.65426
G1 X127.134 Y17.032 E4.73323
G1 X127.879 Y17.113 E4.82316
G1 X128.707 Y17.290 E4.92476
G1 X129.513 Y17.555 E5.02657
G1 X130.283 Y17.899 E5.12778
G1 X131.016 Y18.323 E5.22939
G1 X131.702 Y18.823 E5.33126
G1 X132.330 Y19.390 E5.43279
G1 X132.897 Y20.020 E5.53450
G1 X133.395 Y20.707 E5.63632
G1 X133.817 Y21.440 E5.73781
G1 X134.161 Y22.214 E5.83946
G1 X134.423 Y23.024 E5.94161
G1 X134.598 Y23.851 E6.04305
G1 X134.686 Y24.691 E6.14440
G1 X134.686 Y25.538 E6.24604
G1 X134.598 Y26.378 E6.34739
G1 X134.423 Y27.205 E6.44883
G1 X134.161 Y28.015 E6.55099
G1 X133.817 Y28.789 E6.65263
G1 X133.395 Y29.522 E6.75413
G1 X132.891 Y30.217 E6.85715
G1 X132.307 Y30.859 E6.96129
G1 X131.695 Y31.413 E7.06035
G1 X130.980 Y31.927 E7.16602
G1 X130.255 Y32.342 E7.26627
G1 X129.504 Y32.678 E7.36500
G1 X128.676 Y32.945 E7.46940
G1 X127.791 Y33.135 E7.57801
G1 X116.612 Y33.773 E8.92168
G1 X115.989 Y34.042 E9.00311
G1 X115.178 Y34.310 E9.10561
G1 X114.344 Y34.505 E9.20838
G1 X113.487 Y34.625 E9.31223
G1 X112.839 Y34.656 E9.39008
G1 X112.651 Y34.670 E9.41270
G1 X111.775 Y34.633 E9.51791
G1 X110.925 Y34.521 E9.62079
G1 X110.094 Y34.334 E9.72301
G1 X109.278 Y34.074 E9.82578
G1 X108.568 Y33.775 E9.91823
G1 X98.708 Y33.234 E11.10321
G1 X98.051 Y33.197 E11.18217
G1 X97.306 Y33.116 E11.27210
G1 X96.478 Y32.939 E11.37370
G1 X95.672 Y32.674 E11.47552
G1 X94.902 Y32.330 E11.57672
G1 X94.167 Y31.905 E11.67860
G1 X93.483 Y31.405 E11.78027
G1 X92.856 Y30.839 E11.88163
G1 X92.289 Y30.209 E11.98334
G1 X91.791 Y29.522 E12.08516
G1 X91.369 Y28.789 E12.18666
G1 X91.025 Y28.015 E12.28830
G1 X90.763 Y27.205 E12.39046
G1 X90.588 Y26.378 E12.49190
G1 X90.500 Y25.538 E12.59325
G1 X90.500 Y24.691 E12.69489
G1 X90.588 Y23.851 E12.79624
G1 X90.763 Y23.024 E12.89768
G0 F9000 X91.150 Y23.127
G1 F1200 X91.399 Y22.357 E12.99479
G1 X91.726 Y21.622 E13.09132
G1 X92.127 Y20.925 E13.18782
G1 X92.606 Y20.265 E13.28568
G1 X93.167 Y19.647 E13.38584
G1 X93.766 Y19.111 E13.48229
G1 X94.420 Y18.640 E13.57901
G1 X95.111 Y18.244 E13.67458
G1 X95.825 Y17.925 E13.76842
G1 X96.612 Y17.671 E13.86766
G1 X97.448 Y17.491 E13.97028
G1 X108.667 Y16.851 E15.31875
G1 X109.338 Y16.561 E15.40646
G1 X110.115 Y16.305 E15.50463
G1 X110.915 Y16.117 E15.60325
G1 X111.735 Y16.002 E15.70261
G1 X112.365 Y15.973 E15.77829
G1 X112.540 Y15.960 E15.79935
G1 X113.376 Y15.995 E15.89976
G1 X114.190 Y16.102 E15.99828
G1 X114.986 Y16.281 E16.09618
G1 X115.769 Y16.530 E16.19478
G1 X116.526 Y16.851 E16.29345
G1 X126.455 Y17.395 E17.48672
G1 X127.101 Y17.431 E17.56436
G1 X127.816 Y17.508 E17.65065
G1 X128.602 Y17.676 E17.74710
G1 X129.368 Y17.928 E17.84387
G1 X130.101 Y18.255 E17.94019
G1 X130.798 Y18.659 E18.03686
G1 X131.449 Y19.134 E18.13356
G1 X132.047 Y19.673 E18.23017
G1 X132.585 Y20.272 E18.32679
G1 X133.059 Y20.925 E18.42362
G1 X133.460 Y21.622 E18.52011
G1 X133.787 Y22.357 E18.61665
G1 X134.036 Y23.127 E18.71376
G1 X134.202 Y23.914 E18.81027
G1 X134.286 Y24.712 E18.90656
G1 X134.286 Y25.517 E19.00316
G1 X134.202 Y26.315 E19.09945
G1 X134.036 Y27.102 E19.19597
G1 X133.787 Y27.872 E19.29308
G1 X133.460 Y28.607 E19.38962
G1 X133.059 Y29.304 E19.48611
G1 X132.580 Y29.964 E19.58397
G1 X132.024 Y30.576 E19.68319
G1 X131.443 Y31.101 E19.77716
G1 X130.764 Y31.590 E19.87757
G1 X130.074 Y31.985 E19.97298
G1 X129.360 Y32.304 E20.06682
G1 X128.573 Y32.558 E20.16606
G1 X127.737 Y32.738 E20.26868
G1 X116.518 Y33.378 E21.61715
G1 X115.847 Y33.668 E21.70486
G1 X115.070 Y33.924 E21.80304
G1 X114.270 Y34.112 E21.90165
G1 X113.450 Y34.227 E22.00101
G1 X112.819 Y34.256 E22.07681
G1 X112.644 Y34.269 E22.09787
G1 X111.809 Y34.234 E22.19816
G1 X110.995 Y34.127 E22.29668
G1 X110.199 Y33.948 E22.39458
G1 X109.416 Y33.699 E22.49318
G1 X108.659 Y33.378 E22.59185
G1 X98.730 Y32.834 E23.78512
G1 X98.084 Y32.798 E23.86276
G1 X97.369 Y32.721 E23.94905
G1 X96.583 Y32.553 E24.04550
G1 X95.817 Y32.301 E24.14227
G1 X95.084 Y31.974 E24.23859
G1 X94.385 Y31.569 E24.33553
G1 X93.735 Y31.094 E24.43214
G1 X93.139 Y30.556 E24.52849
G1 X92.601 Y29.957 E24.62510
G1 X92.127 Y29.304 E24.72193
G1 X91.726 Y28.607 E24.81842
G1 X91.399 Y27.872 E24.91496
G1 X91.150 Y27.102 E25.01207
G1 X90.984 Y26.315 E25.10859
G1 X90.900 Y25.517 E25.20488
G1 X90.900 Y24.712 E25.30148
G1 X90.984 Y23.914 E25.39777
G1 X91.150 Y23.127 E25.49428
G10
G0 F9000 X94.826 Y24.109
;TYPE:WALL-INNER
G11
G1 F1200 X94.953 Y23.716 E25.54385
G1 X95.117 Y23.347 E25.59230
G1 X95.320 Y22.996 E25.64096
G1 X95.558 Y22.667 E25.68969
G1 X95.850 Y22.346 E25.74176
G1 X96.148 Y22.079 E25.78977
G1 X96.482 Y21.838 E25.83920
G1 X96.835 Y21.636 E25.88800
G1 X97.190 Y21.477 E25.93468
G1 X97.592 Y21.348 E25.98534
G1 X97.961 Y21.268 E26.03065
G1 X109.014 Y20.637 E27.35917
G1 X109.707 Y20.599 E27.44246
G1 X110.241 Y20.311 E27.51526
G1 X110.689 Y20.117 E27.57385
G1 X111.150 Y19.965 E27.63210
G1 X111.614 Y19.856 E27.68929
G1 X112.089 Y19.790 E27.74684
G1 X112.601 Y19.766 E27.80835
G1 X113.039 Y19.784 E27.86095
G1 X113.531 Y19.849 E27.92050
G1 X113.984 Y19.950 E27.97620
G1 X114.447 Y20.098 E28.03453
G1 X114.901 Y20.290 E28.09368
G1 X115.480 Y20.599 E28.17244
G1 X126.797 Y21.220 E29.53252
G1 X127.206 Y21.264 E29.58188
G1 X127.612 Y21.351 E29.63171
G1 X127.993 Y21.476 E29.67983
G1 X128.372 Y21.645 E29.72962
G1 X128.722 Y21.848 E29.77818
G1 X129.052 Y22.088 E29.82714
G1 X129.352 Y22.359 E29.87565
G1 X129.624 Y22.661 E29.92443
G1 X129.866 Y22.996 E29.97402
G1 X130.069 Y23.347 E30.02267
G1 X130.233 Y23.716 E30.07113
G1 X130.360 Y24.109 E30.12069
G1 X130.443 Y24.502 E30.16889
G1 X130.486 Y24.913 E30.21848
G1 X130.486 Y25.316 E30.26684
G1 X130.443 Y25.727 E30.31643
G1 X130.360 Y26.120 E30.36463
G1 X130.233 Y26.513 E30.41419
G1 X130.069 Y26.882 E30.46265
G1 X129.866 Y27.233 E30.51131
G1 X129.628 Y27.562 E30.56003
G1 X129.334 Y27.886 E30.61253
G1 X129.056 Y28.137 E30.65748
G1 X128.703 Y28.391 E30.70967
G1 X128.350 Y28.593 E30.75847
G1 X127.995 Y28.752 E30.80515
G1 X127.593 Y28.881 E30.85581
G1 X127.224 Y28.961 E30.90112
G1 X116.171 Y29.592 E32.22964
G1 X115.478 Y29.630 E32.31293
G1 X114.944 Y29.918 E32.38573
G1 X114.496 Y30.112 E32.44431
G1 X114.035 Y30.264 E32.50256
G1 X113.571 Y30.373 E32.55976
G1 X113.096 Y30.439 E32.61731
G1 X112.583 Y30.463 E32.67893
G1 X112.146 Y30.445 E32.73142
G1 X111.654 Y30.380 E32.79097
G1 X111.201 Y30.279 E32.84667
G1 X110.738 Y30.131 E32.90500
G1 X110.284 Y29.939 E32.96415
G1 X109.705 Y29.630 E33.04290
G1 X98.388 Y29.009 E34.40299
G1 X97.979 Y28.965 E34.45235
G1 X97.573 Y28.878 E34.50218
G1 X97.192 Y28.753 E34.55029
G1 X96.813 Y28.584 E34.60009
G1 X96.462 Y28.380 E34.64881
G1 X96.136 Y28.142 E34.69724
G1 X95.833 Y27.868 E34.74627
G1 X95.562 Y27.568 E34.79478
G1 X95.320 Y27.233 E34.84437
G1 X95.117 Y26.882 E34.89303
G1 X94.953 Y26.513 E34.94148
G1 X94.826 Y26.120 E34.99105
G1 X94.743 Y25.727 E35.03925
G1 X94.700 Y25.316 E35.08883
G1 X94.700 Y24.913 E35.13719
G1 X94.743 Y24.502 E35.18678
G1 X94.826 Y24.109 E35.23498
G0 F9000 X96.590 Y24.776
G1 F1200 X96.546 Y25.115 E35.27601
G1 X96.592 Y25.461 E35.31789
G1 X96.739 Y25.793 E35.36146
G1 X96.947 Y26.051 E35.40123
G1 X97.198 Y26.245 E35.43930
G1 X97.515 Y26.376 E35.48046
G1 X97.851 Y26.419 E35.52111
G1 X98.195 Y26.375 E35.56272
G1 X98.531 Y26.226 E35.60683
G1 X98.796 Y26.012 E35.64770
G1 X98.853 Y25.934 E35.65930
G1 X98.947 Y26.051 E35.67731
G1 X99.198 Y26.245 E35.71537
G1 X99.515 Y26.376 E35.75653
G1 X99.851 Y26.419 E35.79718
G1 X100.195 Y26.375 E35.83880
G1 X100.531 Y26.226 E35.88291
G1 X100.796 Y26.012 E35.92378
G1 X100.991 Y25.744 E35.96355
G1 X101.111 Y25.453 E36.00133
G1 X101.156 Y25.115 E36.04224
G1 X101.110 Y24.768 E36.08425
G1 X100.963 Y24.436 E36.12782
G1 X100.755 Y24.178 E36.16759
G1 X100.504 Y23.984 E36.20565
G1 X100.187 Y23.853 E36.24681
G1 X99.851 Y23.810 E36.28746
G1 X99.507 Y23.854 E36.32908
G1 X99.171 Y24.003 E36.37319
G1 X98.906 Y24.217 E36.41406
G1 X98.849 Y24.295 E36.42565
G1 X98.755 Y24.178 E36.44366
G1 X98.504 Y23.984 E36.48173
G1 X98.187 Y23.853 E36.52289
G1 X97.851 Y23.810 E36.56354
G1 X97.507 Y23.854 E36.60516
G1 X97.171 Y24.003 E36.64926
G1 X96.906 Y24.217 E36.69014
G1 X96.711 Y24.485 E36.72991
G1 X96.590 Y24.776 E36.76773
G0 F9000 X97.509 Y23.857
G0 X98.754 Y24.179
G0 X98.847 Y24.474
G0 X99.509 Y23.857
G0 X100.754 Y24.179
G0 X109.691 Y25.119
G1 F1200 X109.730 Y25.572 E36.82229
G1 X109.814 Y25.950 E36.86876
G1 X109.967 Y26.350 E36.92015
G1 X110.195 Y26.746 E36.97498
G1 X110.433 Y27.051 E37.02141
G1 X110.738 Y27.347 E37.07241
G1 X111.117 Y27.611 E37.12783
G1 X111.497 Y27.798 E37.17866
G1 X111.895 Y27.929 E37.22894
G1 X112.275 Y27.999 E37.27530
G1 X112.703 Y28.014 E37.32670
G1 X113.160 Y27.958 E37.38195
G1 X113.567 Y27.844 E37.43267
G1 X113.954 Y27.674 E37.48339
G1 X114.309 Y27.450 E37.53376
G1 X114.607 Y27.203 E37.58021
G1 X114.889 Y26.888 E37.63094
G1 X115.122 Y26.535 E37.68170
G1 X115.303 Y26.151 E37.73264
G1 X115.424 Y25.745 E37.78348
G1 X115.486 Y25.323 E37.83466
G1 X115.481 Y24.862 E37.88998
G1 X115.414 Y24.447 E37.94043
G1 X115.302 Y24.074 E37.98716
G1 X115.101 Y23.659 E38.04250
G1 X114.862 Y23.309 E38.09336
G1 X114.575 Y22.999 E38.14405
G1 X114.246 Y22.733 E38.19482
G1 X113.881 Y22.517 E38.24571
G1 X113.493 Y22.359 E38.29599
G1 X113.120 Y22.262 E38.34224
G1 X112.696 Y22.214 E38.39344
G1 X112.235 Y22.237 E38.44883
G1 X111.819 Y22.319 E38.49971
G1 X111.425 Y22.461 E38.54997
G1 X111.081 Y22.637 E38.59634
G1 X110.732 Y22.887 E38.64785
G1 X110.410 Y23.207 E38.70233
G1 X110.173 Y23.512 E38.74868
G1 X109.963 Y23.887 E38.80025
G1 X109.806 Y24.315 E38.85496
G1 X109.722 Y24.693 E38.90143
G1 X109.691 Y25.119 E38.95268
G0 F9000 X110.434 Y27.050
G0 X112.276 Y27.998
G0 X114.309 Y27.449
G0 X115.424 Y25.745
G0 X124.029 Y25.115
G1 F1200 X124.075 Y25.461 E38.99457
G1 X124.222 Y25.793 E39.03814
G1 X124.430 Y26.051 E39.07791
G1 X124.681 Y26.245 E39.11597
G1 X124.998 Y26.376 E39.15713
G1 X125.334 Y26.419 E39.19778
G1 X125.678 Y26.375 E39.23940
G1 X126.014 Y26.226 E39.28351
G1 X126.279 Y26.012 E39.32438
G1 X126.336 Y25.934 E39.33597
G1 X126.430 Y26.051 E39.35398
G1 X126.681 Y26.245 E39.39205
G1 X126.998 Y26.376 E39.43321
G1 X127.334 Y26.419 E39.47386
G1 X127.678 Y26.375 E39.51548
G1 X128.014 Y26.226 E39.55958
G1 X128.279 Y26.012 E39.60046
G1 X128.474 Y25.744 E39.64023
G1 X128.594 Y25.453 E39.67800
G1 X128.639 Y25.115 E39.71892
G1 X128.593 Y24.768 E39.76092
G1 X128.446 Y24.436 E39.80450
G1 X128.238 Y24.178 E39.84426
G1 X127.987 Y23.984 E39.88233
G1 X127.670 Y23.853 E39.92349
G1 X127.334 Y23.810 E39.96414
G1 X126.990 Y23.854 E40.00576
G1 X126.654 Y24.003 E40.04986
G1 X126.389 Y24.217 E40.09074
G1 X126.332 Y24.295 E40.10233
G1 X126.238 Y24.178 E40.12034
G1 X125.987 Y23.984 E40.15841
G1 X125.670 Y23.853 E40.19957
G1 X125.334 Y23.810 E40.24022
G1 X124.990 Y23.854 E40.28183
G1 X124.654 Y24.003 E40.32594
G1 X124.389 Y24.217 E40.36682
G1 X124.194 Y24.485 E40.40659
G1 X124.073 Y24.776 E40.44441
G1 X124.029 Y25.115 E40.48543
G0 F9000 X124.432 Y25.115
;TYPE:WALL-OUTER
G1 F1200 X124.464 Y25.351 E40.51401
G1 X124.567 Y25.583 E40.54447
G1 X124.712 Y25.764 E40.57230
G1 X124.883 Y25.896 E40.59822
G1 X125.101 Y25.986 E40.62652
G1 X125.334 Y26.016 E40.65471
G1 X125.569 Y25.986 E40.68314
G1 X125.803 Y25.882 E40.71387
G1 X125.986 Y25.734 E40.74211
G1 X126.123 Y25.547 E40.76993
G1 X126.205 Y25.348 E40.79576
G1 X126.236 Y25.115 E40.82396
G1 X126.204 Y24.878 E40.85266
G1 X126.101 Y24.646 E40.88312
G1 X125.956 Y24.465 E40.91095
G1 X125.785 Y24.333 E40.93688
G1 X125.567 Y24.243 E40.96518
G1 X125.334 Y24.213 E40.99337
G1 X125.099 Y24.243 E41.02180
G1 X124.865 Y24.347 E41.05252
G1 X124.682 Y24.495 E41.08077
G1 X124.545 Y24.682 E41.10859
G1 X124.463 Y24.881 E41.13441
G1 X124.432 Y25.115 E41.16274
G10
G0 F9000 X126.432 Y25.115
G11
G1 F1200 X126.464 Y25.351 E41.19132
G1 X126.567 Y25.583 E41.22178
G1 X126.712 Y25.764 E41.24961
G1 X126.883 Y25.896 E41.27553
G1 X127.101 Y25.986 E41.30383
G1 X127.334 Y26.016 E41.33202
G1 X127.569 Y25.986 E41.36045
G1 X127.803 Y25.882 E41.39118
G1 X127.986 Y25.734 E41.41942
G1 X128.123 Y25.547 E41.44724
G1 X128.205 Y25.348 E41.47307
G1 X128.236 Y25.115 E41.50128
G1 X128.204 Y24.878 E41.52997
G1 X128.101 Y24.646 E41.56043
G1 X127.956 Y24.465 E41.58826
G1 X127.785 Y24.333 E41.61419
G1 X127.567 Y24.243 E41.64249
G1 X127.334 Y24.213 E41.67068
G1 X127.099 Y24.243 E41.69911
G1 X126.865 Y24.347 E41.72984
G1 X126.682 Y24.495 E41.75808
G1 X126.545 Y24.682 E41.78590
G1 X126.463 Y24.881 E41.81173
G1 X126.432 Y25.115 E41.84005
G10
G0 F9000 X126.824 Y20.821
G11
G1 F1200 X127.273 Y20.870 E41.89425
G1 X127.719 Y20.965 E41.94897
G1 X128.135 Y21.102 E42.00153
G1 X128.558 Y21.291 E42.05712
G1 X128.932 Y21.507 E42.10895
G1 X129.311 Y21.783 E42.16521
G1 X129.632 Y22.073 E42.21713
G1 X129.940 Y22.416 E42.27244
G1 X130.201 Y22.776 E42.32580
G1 X130.424 Y23.163 E42.37940
G1 X130.609 Y23.578 E42.43393
G1 X130.745 Y24.000 E42.48713
G1 X130.839 Y24.444 E42.54159
G1 X130.886 Y24.890 E42.59541
G1 X130.886 Y25.339 E42.64929
G1 X130.839 Y25.785 E42.70310
G1 X130.745 Y26.229 E42.75757
G1 X130.609 Y26.651 E42.81077
G1 X130.424 Y27.066 E42.86529
G1 X130.201 Y27.453 E42.91889
G1 X129.940 Y27.813 E42.97225
G1 X129.616 Y28.170 E43.03010
G1 X129.305 Y28.451 E43.08040
G1 X128.923 Y28.726 E43.13688
G1 X128.534 Y28.949 E43.19069
G1 X128.133 Y29.128 E43.24339
G1 X127.702 Y29.267 E43.29773
G1 X127.279 Y29.358 E43.34965
G1 X115.589 Y30.025 E44.75473
G1 X115.114 Y30.281 E44.81948
G1 X114.637 Y30.487 E44.88183
G1 X114.150 Y30.647 E44.94335
G1 X113.641 Y30.767 E45.00610
G1 X113.137 Y30.837 E45.06716
G1 X112.607 Y30.862 E45.13083
G1 X112.591 Y30.864 E45.13277
G1 X112.098 Y30.843 E45.19198
G1 X111.594 Y30.776 E45.25299
G1 X111.095 Y30.664 E45.31436
G1 X110.588 Y30.503 E45.37820
G1 X110.118 Y30.304 E45.43944
G1 X109.595 Y30.025 E45.51058
G1 X98.361 Y29.408 E46.86069
G1 X97.912 Y29.359 E46.91489
G1 X97.466 Y29.264 E46.96961
G1 X97.050 Y29.127 E47.02217
G1 X96.627 Y28.938 E47.07776
G1 X96.244 Y28.716 E47.13088
G1 X95.883 Y28.453 E47.18448
G1 X95.554 Y28.156 E47.23767
G1 X95.246 Y27.813 E47.29299
G1 X94.985 Y27.453 E47.34635
G1 X94.762 Y27.066 E47.39995
G1 X94.577 Y26.651 E47.45447
G1 X94.441 Y26.229 E47.50767
G1 X94.347 Y25.785 E47.56214
G1 X94.300 Y25.339 E47.61595
G1 X94.300 Y24.890 E47.66983
G1 X94.347 Y24.444 E47.72365
G1 X94.441 Y24.000 E47.77811
G1 X94.577 Y23.578 E47.83131
G1 X94.762 Y23.163 E47.88584
G1 X94.985 Y22.776 E47.93944
G1 X95.246 Y22.416 E47.99280
G1 X95.569 Y22.060 E48.05048
G1 X95.900 Y21.765 E48.10368
G1 X96.262 Y21.503 E48.15731
G1 X96.651 Y21.280 E48.21111
G1 X97.052 Y21.101 E48.26381
G1 X97.483 Y20.962 E48.31815
G1 X97.906 Y20.871 E48.37007
G1 X109.596 Y20.204 E49.77516
G1 X110.071 Y19.948 E49.83991
G1 X110.548 Y19.742 E49.90226
G1 X111.035 Y19.582 E49.96377
G1 X111.544 Y19.462 E50.02653
G1 X112.048 Y19.392 E50.08759
G1 X112.577 Y19.367 E50.15114
G1 X112.593 Y19.365 E50.15307
G1 X113.087 Y19.386 E50.21240
G1 X113.591 Y19.453 E50.27342
G1 X114.090 Y19.565 E50.33479
G1 X114.597 Y19.726 E50.39862
G1 X115.067 Y19.925 E50.45987
G1 X115.590 Y20.204 E50.53100
G1 X126.824 Y20.821 E51.88111
G0 F9000 X126.795 Y21.119
G0 X115.311 Y24.452
G0 X115.023 Y24.537
G1 F1200 X114.928 Y24.220 E51.92082
G1 X114.754 Y23.860 E51.96880
G1 X114.548 Y23.559 E52.01257
G1 X114.301 Y23.292 E52.05622
