;FLAVOR:UltiGCode
;TIME:8888
;MATERIAL:10876
;MATERIAL2:0
;NOZZLE_DIAMETER:0.400000
;NOZZLE_DIAMETER2:0.400000

;Layer count: 98
;LAYER:0
M107
G0 F9000 X28.409 Y22.653 Z0.300
;TYPE:SKIRT
G1 F1200 X44.809 Y22.653 E1.96800
G1 X44.809 Y32.653 E3.16800
G1 X70.909 Y32.653 E6.30000
G1 X70.909 Y22.653 E7.50000
G1 X87.309 Y22.653 E9.46800
G1 X87.309 Y37.991 E11.30856
G1 X87.243 Y38.755 E11.40058
G1 X87.007 Y39.637 E11.51014
G1 X86.622 Y40.460 E11.61918
G1 X86.095 Y41.213 E11.72947
G1 X85.425 Y41.873 E11.84233
G1 X84.689 Y42.379 E11.94950
G1 X83.894 Y42.751 E12.05483
G1 X83.013 Y42.987 E12.16428
G1 X82.247 Y43.053 E12.25654
G1 X70.383 Y43.053 E13.68022
G1 X70.491 Y43.481 E13.73319
G1 X70.669 Y44.574 E13.86608
G1 X70.743 Y45.548 E13.98330
G1 X70.756 Y45.731 E14.00531
G1 X70.745 Y46.673 E14.11836
G1 X70.740 Y46.855 E14.14021
G1 X70.636 Y47.892 E14.26527
G1 X70.438 Y48.973 E14.39715
G1 X70.146 Y50.039 E14.52978
G1 X69.745 Y51.129 E14.66915
G1 X69.358 Y51.886 E14.77117
G1 X68.812 Y52.605 E14.87951
G1 X68.160 Y53.206 E14.98592
G1 X67.455 Y53.674 E15.08746
G1 X66.658 Y54.026 E15.19202
G1 X65.820 Y54.241 E15.29583
G1 X65.085 Y54.303 E15.38435
G1 X60.003 Y54.303 E15.99419
G1 X58.391 Y50.286 E16.51359
G1 X60.332 Y48.430 E16.83586
G1 X60.545 Y48.177 E16.87555
G1 X60.757 Y47.868 E16.92051
G1 X60.927 Y47.553 E16.96347
G1 X61.061 Y47.229 E17.00554
G1 X61.163 Y46.877 E17.04952
G1 X61.226 Y46.527 E17.09219
G1 X61.254 Y46.142 E17.13852
G1 X61.241 Y45.796 E17.18006
G1 X61.193 Y45.466 E17.22008
G1 X61.104 Y45.108 E17.26435
G1 X60.980 Y44.770 E17.30755
G1 X60.824 Y44.451 E17.35016
G1 X60.633 Y44.148 E17.39315
G1 X60.410 Y43.865 E17.43638
G1 X60.160 Y43.608 E17.47941
G1 X59.887 Y43.382 E17.52194
G1 X59.566 Y43.169 E17.56816
G1 X59.274 Y43.018 E17.60761
G1 X58.931 Y42.883 E17.65185
G1 X58.593 Y42.790 E17.69391
G1 X58.229 Y42.730 E17.73818
G1 X57.858 Y42.708 E17.78278
G1 X57.495 Y42.727 E17.82640
G1 X57.174 Y42.778 E17.86540
G1 X56.819 Y42.872 E17.90947
G1 X56.483 Y43.001 E17.95266
G1 X56.165 Y43.162 E17.99543
G1 X55.843 Y43.372 E18.04156
G1 X55.589 Y43.580 E18.08096
G1 X55.334 Y43.836 E18.12432
G1 X55.107 Y44.117 E18.16767
G1 X54.916 Y44.414 E18.21004
G1 X54.750 Y44.743 E18.25426
G1 X54.626 Y45.073 E18.29657
G1 X54.529 Y45.445 E18.34270
G1 X54.482 Y45.767 E18.38175
G1 X54.465 Y46.163 E18.42931
G1 X54.486 Y46.487 E18.46827
G1 X54.546 Y46.838 E18.51100
G1 X54.646 Y47.196 E18.55561
G1 X54.777 Y47.525 E18.59810
G1 X54.943 Y47.840 E18.64083
G1 X55.137 Y48.130 E18.68270
G1 X55.388 Y48.431 E18.72973
G1 X57.327 Y50.289 E19.05199
G1 X55.714 Y54.303 E19.57111
G1 X50.634 Y54.303 E20.18071
G1 X49.900 Y54.241 E20.26910
G1 X49.046 Y54.022 E20.37490
G1 X48.238 Y53.657 E20.48129
G1 X47.537 Y53.191 E20.58230
G1 X46.903 Y52.599 E20.68639
G1 X46.372 Y51.903 E20.79144
G1 X45.998 Y51.188 E20.88827
G1 X45.606 Y50.138 E21.02277
G1 X45.308 Y49.084 E21.15420
G1 X45.098 Y47.996 E21.28717
G1 X44.983 Y46.896 E21.41989
G1 X44.965 Y45.929 E21.53595
G1 X44.960 Y45.747 E21.55780
G1 X45.028 Y44.807 E21.67090
G1 X45.041 Y44.632 E21.69195
G1 X45.206 Y43.587 E21.81891
G1 X45.336 Y43.053 E21.88486
G1 X33.471 Y43.053 E23.30866
G1 X32.707 Y42.987 E23.40068
G1 X31.825 Y42.751 E23.51024
G1 X30.999 Y42.365 E23.61965
G1 X30.261 Y41.846 E23.72792
G1 X29.609 Y41.197 E23.83831
G1 X29.081 Y40.430 E23.95005
G1 X28.711 Y39.633 E24.05550
G1 X28.477 Y38.759 E24.16407
G1 X28.409 Y37.996 E24.25599
G1 X28.409 Y22.653 E26.09715
G0 F9000 X27.381 Y64.061
G1 F1200 X43.781 Y64.061 E28.06515
G1 X43.781 Y74.061 E29.26515
G1 X69.881 Y74.061 E32.39715
G1 X69.881 Y64.061 E33.59715
G1 X86.281 Y64.061 E35.56515
G1 X86.281 Y79.399 E37.40571
G1 X86.215 Y80.163 E37.49774
G1 X85.979 Y81.045 E37.60730
G1 X85.594 Y81.868 E37.71633
G1 X85.074 Y82.611 E37.82516
G1 X84.431 Y83.254 E37.93428
G1 X83.685 Y83.776 E38.04354
G1 X82.865 Y84.158 E38.15209
G1 X81.987 Y84.395 E38.26122
G1 X81.381 Y84.447 E38.33421
G1 X81.381 Y91.899 E39.22845
G1 X81.315 Y92.663 E39.32047
G1 X81.079 Y93.545 E39.43003
G1 X80.694 Y94.368 E39.53907
G1 X80.174 Y95.111 E39.64789
G1 X79.531 Y95.754 E39.75701
G1 X78.785 Y96.276 E39.86627
G1 X77.965 Y96.658 E39.97483
G1 X77.087 Y96.895 E40.08396
G1 X76.319 Y96.961 E40.17646
G1 X70.581 Y96.961 E40.86502
G1 X70.581 Y84.461 E42.36502
G1 X53.381 Y84.461 E44.42902
G1 X53.381 Y96.961 E45.92902
G1 X47.643 Y96.961 E46.61758
G1 X46.875 Y96.895 E46.71008
G1 X45.997 Y96.658 E46.81921
G1 X45.175 Y96.275 E46.92803
G1 X44.433 Y95.754 E47.03683
G1 X43.789 Y95.114 E47.14578
G1 X43.266 Y94.365 E47.25540
G1 X42.883 Y93.541 E47.36444
G1 X42.649 Y92.667 E47.47301
G1 X42.581 Y91.904 E47.56494
G1 X42.581 Y84.461 E48.45810
G1 X32.443 Y84.461 E49.67466
G1 X31.675 Y84.395 E49.76716
G1 X30.797 Y84.158 E49.87629
G1 X29.975 Y83.775 E49.98511
G1 X29.233 Y83.254 E50.09391
G1 X28.589 Y82.614 E50.20286
G1 X28.066 Y81.865 E50.31248
G1 X27.683 Y81.041 E50.42152
G1 X27.449 Y80.167 E50.53010
G1 X27.381 Y79.404 E50.62202
G1 X27.381 Y64.061 E52.46318
G0 F9000 X94.831 Y87.236
G1 F1200 X105.516 Y87.236 E53.74538
G1 X105.516 Y13.636 E62.57738
G1 X121.915 Y13.636 E64.54526
G1 X121.915 Y87.236 E73.37726
G1 X132.604 Y87.236 E74.65994
G1 X132.607 Y92.391 E75.27854
G1 X132.600 Y96.136 E75.72794
G1 X94.824 Y96.136 E80.26106
G1 X94.824 Y90.980 E80.87978
G1 X94.831 Y87.236 E81.32906
G0 F9000 X146.888 Y103.529
G1 F1200 X146.888 Y8.929 E92.68106
G1 X163.288 Y8.929 E94.64906
G1 X163.288 Y103.529 E106.00106
G1 X146.888 Y103.529 E107.96906
G0 F9000 X184.329 Y105.043
G1 F1200 X184.329 Y10.443 E119.32106
G1 X200.729 Y10.443 E121.28906
G1 X200.729 Y105.043 E132.64106
G1 X184.329 Y105.043 E134.60906
G10
G0 F9000 X83.322 Y38.547
;TYPE:WALL-INNER
G11
G1 F1200 X83.181 Y38.750 E134.63872
G1 X82.998 Y38.929 E134.66944
G1 X82.792 Y39.071 E134.69946
G1 X82.589 Y39.166 E134.72636
G1 X82.352 Y39.230 E134.75582
G1 X68.734 Y39.253 E136.38998
G1 X68.303 Y39.291 E136.44190
G1 X67.860 Y39.412 E136.49701
G1 X67.444 Y39.607 E136.55214
G1 X67.069 Y39.876 E136.60752
G1 X66.739 Y40.217 E136.66446
G1 X66.491 Y40.580 E136.71722
G1 X66.302 Y40.998 E136.77227
G1 X66.190 Y41.443 E136.82733
G1 X66.158 Y41.901 E136.88243
G1 X66.207 Y42.358 E136.93758
G1 X66.574 Y43.493 E137.08072
G1 X66.768 Y44.260 E137.17566
G1 X66.893 Y45.028 E137.26904
G1 X66.954 Y45.826 E137.36508
G1 X66.955 Y45.837 E137.36640
G1 X66.945 Y46.601 E137.45809
G1 X66.945 Y46.615 E137.45977
G1 X66.870 Y47.361 E137.54974
G1 X66.730 Y48.123 E137.64271
G1 X66.524 Y48.878 E137.73662
G1 X66.256 Y49.606 E137.82971
G1 X66.130 Y49.853 E137.86299
G1 X65.989 Y50.039 E137.89100
G1 X65.807 Y50.207 E137.92072
G1 X65.623 Y50.329 E137.94721
G1 X65.409 Y50.424 E137.97531
G1 X65.185 Y50.481 E138.00304
G1 X63.555 Y50.503 E138.19866
G1 X64.004 Y49.853 E138.29346
G1 X64.365 Y49.184 E138.38468
G1 X64.654 Y48.482 E138.47578
G1 X64.867 Y47.751 E138.56715
G1 X65.002 Y47.003 E138.65836
G1 X65.053 Y46.283 E138.74498
G1 X65.060 Y46.211 E138.75366
G1 X65.033 Y45.508 E138.83808
G1 X65.030 Y45.441 E138.84613
G1 X64.926 Y44.730 E138.93236
G1 X64.742 Y43.993 E139.02351
G1 X64.482 Y43.279 E139.11470
G1 X64.147 Y42.597 E139.20588
G1 X63.742 Y41.954 E139.29707
G1 X63.271 Y41.356 E139.38841
G1 X62.740 Y40.811 E139.47972
G1 X62.154 Y40.327 E139.57092
G1 X61.491 Y39.885 E139.66654
G1 X60.846 Y39.553 E139.75360
G1 X60.140 Y39.275 E139.84465
G1 X59.407 Y39.073 E139.93589
G1 X58.657 Y38.949 E140.02711
G1 X57.929 Y38.906 E140.11462
G1 X57.860 Y38.902 E140.12291
G1 X57.165 Y38.939 E140.20643
G1 X57.099 Y38.943 E140.21437
G1 X56.386 Y39.056 E140.30099
G1 X55.652 Y39.250 E140.39210
G1 X54.941 Y39.522 E140.48345
G1 X54.263 Y39.867 E140.57474
G1 X53.650 Y40.265 E140.66244
G1 X53.034 Y40.760 E140.75727
G1 X52.498 Y41.298 E140.84840
G1 X52.022 Y41.891 E140.93965
G1 X51.610 Y42.530 E141.03089
G1 X51.268 Y43.209 E141.12212
G1 X51.000 Y43.920 E141.21330
G1 X50.816 Y44.623 E141.30050
G1 X50.798 Y44.691 E141.30894
G1 X50.694 Y45.410 E141.39612
G1 X50.663 Y46.128 E141.48236
G1 X50.659 Y46.200 E141.49101
G1 X50.707 Y46.929 E141.57868
G1 X50.835 Y47.675 E141.66951
G1 X51.039 Y48.408 E141.76081
G1 X51.319 Y49.114 E141.85195
G1 X51.674 Y49.788 E141.94337
G1 X52.097 Y50.419 E142.03453
G1 X52.167 Y50.503 E142.04765
G1 X50.794 Y50.503 E142.21241
G1 X50.534 Y50.481 E142.24372
G1 X50.315 Y50.425 E142.27085
G1 X50.083 Y50.320 E142.30140
G1 X49.900 Y50.199 E142.32773
G1 X49.731 Y50.040 E142.35557
G1 X49.588 Y49.853 E142.38382
G1 X49.474 Y49.635 E142.41335
G1 X49.219 Y48.951 E142.50094
G1 X49.009 Y48.208 E142.59360
G1 X48.861 Y47.441 E142.68733
G1 X48.779 Y46.657 E142.78193
G1 X48.764 Y45.854 E142.87830
G1 X48.764 Y45.833 E142.88082
G1 X48.819 Y45.073 E142.97226
G1 X48.935 Y44.332 E143.06227
G1 X49.119 Y43.577 E143.15552
G1 X49.380 Y42.801 E143.25376
G1 X49.512 Y42.359 E143.30912
G1 X49.560 Y41.901 E143.36438
G1 X49.529 Y41.444 E143.41935
G1 X49.416 Y40.996 E143.47479
G1 X49.218 Y40.564 E143.53181
G1 X48.969 Y40.200 E143.58474
G1 X48.648 Y39.874 E143.63964
G1 X48.273 Y39.607 E143.69488
G1 X47.858 Y39.412 E143.74990
G1 X47.416 Y39.291 E143.80489
G1 X46.985 Y39.253 E143.85682
G1 X33.638 Y39.253 E145.45846
G1 X33.367 Y39.230 E145.49109
G1 X33.127 Y39.165 E145.52093
G1 X32.914 Y39.066 E145.54912
G1 X32.709 Y38.922 E145.57918
G1 X32.540 Y38.754 E145.60777
G1 X32.393 Y38.541 E145.63883
G1 X32.297 Y38.334 E145.66621
G1 X32.233 Y38.095 E145.69590
G1 X32.209 Y37.822 E145.72879
G1 X32.209 Y26.453 E147.09307
G1 X41.009 Y26.453 E148.14907
G1 X41.009 Y33.880 E149.04031
G1 X41.047 Y34.305 E149.09151
G1 X41.164 Y34.743 E149.14591
G1 X41.355 Y35.154 E149.20030
G1 X41.616 Y35.527 E149.25493
G1 X41.937 Y35.847 E149.30932
G1 X42.307 Y36.106 E149.36352
G1 X42.719 Y36.299 E149.41811
G1 X43.158 Y36.416 E149.47263
G1 X43.583 Y36.453 E149.52382
G1 X72.135 Y36.453 E152.95006
G1 X72.561 Y36.416 E153.00138
G1 X72.999 Y36.299 E153.05578
G1 X73.410 Y36.106 E153.11027
G1 X73.782 Y35.847 E153.16466
G1 X74.103 Y35.526 E153.21914
G1 X74.362 Y35.154 E153.27353
G1 X74.555 Y34.743 E153.32802
G1 X74.672 Y34.304 E153.38254
G1 X74.709 Y33.879 E153.43373
G1 X74.709 Y26.453 E154.32485
G1 X83.509 Y26.453 E155.38085
G1 X83.509 Y37.824 E156.74537
G1 X83.486 Y38.095 E156.77801
G1 X83.421 Y38.335 E156.80784
G1 X83.322 Y38.547 E156.83592
G0 F9000 X80.355 Y33.306
G1 F1200 X80.770 Y33.048 E156.89456
G1 X81.158 Y32.689 E156.95799
G1 X81.460 Y32.280 E157.01900
G1 X81.681 Y31.827 E157.07949
G1 X81.815 Y31.359 E157.13790
G1 X81.862 Y30.851 E157.19912
G1 X81.809 Y30.323 E157.26280
G1 X81.666 Y29.837 E157.32359
G1 X81.437 Y29.386 E157.38429
G1 X81.142 Y28.997 E157.44288
G1 X80.748 Y28.643 E157.50644
G1 X80.316 Y28.382 E157.56700
G1 X79.863 Y28.206 E157.62532
G1 X79.362 Y28.112 E157.68649
G1 X78.831 Y28.115 E157.75021
G1 X78.332 Y28.214 E157.81126
G1 X77.864 Y28.401 E157.87174
G1 X77.449 Y28.657 E157.93025
G1 X77.060 Y29.018 E157.99393
G1 X76.757 Y29.426 E158.05492
G1 X76.537 Y29.881 E158.11557
G1 X76.404 Y30.346 E158.17360
G1 X76.356 Y30.855 E158.23495
G1 X76.410 Y31.383 E158.29864
G1 X76.553 Y31.869 E158.35944
G1 X76.781 Y32.319 E158.41997
G1 X77.076 Y32.710 E158.47875
G1 X77.471 Y33.063 E158.54232
G1 X77.903 Y33.325 E158.60295
G1 X78.356 Y33.501 E158.66127
G1 X78.857 Y33.594 E158.72241
G1 X79.388 Y33.591 E158.78613
G1 X79.886 Y33.492 E158.84706
G1 X80.355 Y33.306 E158.90761
G0 F9000 X78.357 Y33.499
G0 X72.560 Y36.415
G0 X42.719 Y36.297
G0 X41.356 Y35.153
G0 X41.010 Y33.880
G0 X39.362 Y30.851
G1 F1200 X39.309 Y30.323 E158.97129
G1 X39.166 Y29.837 E159.03208
G1 X38.937 Y29.386 E159.09278
G1 X38.642 Y28.997 E159.15136
G1 X38.248 Y28.643 E159.21492
G1 X37.816 Y28.382 E159.27549
G1 X37.363 Y28.206 E159.33381
G1 X36.862 Y28.112 E159.39498
G1 X36.331 Y28.115 E159.45870
G1 X35.832 Y28.214 E159.51974
G1 X35.364 Y28.401 E159.58022
G1 X34.949 Y28.657 E159.63873
G1 X34.560 Y29.018 E159.70242
G1 X34.257 Y29.426 E159.76340
G1 X34.037 Y29.881 E159.82405
G1 X33.904 Y30.346 E159.88209
G1 X33.856 Y30.855 E159.94344
G1 X33.910 Y31.383 E160.00713
G1 X34.053 Y31.869 E160.06792
G1 X34.281 Y32.319 E160.12846
G1 X34.576 Y32.710 E160.18723
G1 X34.971 Y33.063 E160.25080
G1 X35.403 Y33.325 E160.31143
G1 X35.856 Y33.501 E160.36975
G1 X36.357 Y33.594 E160.43090
G1 X36.888 Y33.591 E160.49462
G1 X37.386 Y33.492 E160.55555
G1 X37.855 Y33.306 E160.61609
G1 X38.270 Y33.048 E160.67473
G1 X38.658 Y32.689 E160.73816
G1 X38.960 Y32.280 E160.79917
G1 X39.181 Y31.827 E160.85966
G1 X39.315 Y31.359 E160.91807
G1 X39.362 Y30.851 E160.97930
G0 F9000 X38.960 Y30.852
;TYPE:WALL-OUTER
G1 F1200 X38.915 Y30.400 E161.03380
G1 X38.793 Y29.986 E161.08560
G1 X38.596 Y29.599 E161.13771
G1 X38.346 Y29.269 E161.18739
G1 X38.009 Y28.966 E161.24177
G1 X37.639 Y28.742 E161.29367
G1 X37.253 Y28.592 E161.34337
G1 X36.826 Y28.512 E161.39550
G1 X36.372 Y28.515 E161.44998
G1 X35.946 Y28.599 E161.50208
G1 X35.545 Y28.760 E161.55394
G1 X35.192 Y28.977 E161.60366
G1 X34.859 Y29.286 E161.65817
G1 X34.601 Y29.634 E161.71016
G1 X34.412 Y30.024 E161.76217
G1 X34.299 Y30.421 E161.81170
G1 X34.258 Y30.854 E161.86389
G1 X34.304 Y31.306 E161.91841
G1 X34.426 Y31.721 E161.97032
G1 X34.622 Y32.106 E162.02216
G1 X34.872 Y32.438 E162.07203
G1 X35.210 Y32.740 E162.12642
G1 X35.580 Y32.965 E162.17839
G1 X35.966 Y33.114 E162.22804
G1 X36.393 Y33.194 E162.28017
G1 X36.847 Y33.191 E162.33465
G1 X37.273 Y33.107 E162.38676
G1 X37.674 Y32.947 E162.43857
G1 X38.027 Y32.729 E162.48835
G1 X38.359 Y32.421 E162.54270
G1 X38.617 Y32.072 E162.59478
G1 X38.806 Y31.683 E162.64668
G1 X38.920 Y31.285 E162.69636
G1 X38.960 Y30.852 E162.74854
G0 F9000 X39.258 Y30.878
G0 X41.109 Y33.861
G0 X41.409 Y33.862
G1 F1200 X41.442 Y34.235 E162.79347
G1 X41.541 Y34.606 E162.83955
G1 X41.703 Y34.953 E162.88550
G1 X41.923 Y35.268 E162.93161
G1 X42.195 Y35.539 E162.97769
G1 X42.508 Y35.759 E163.02360
G1 X42.856 Y35.922 E163.06971
G1 X43.227 Y36.021 E163.11579
G1 X43.600 Y36.053 E163.16071
G1 X72.118 Y36.053 E166.58287
G1 X72.492 Y36.021 E166.62792
G1 X72.862 Y35.922 E166.67388
G1 X73.209 Y35.759 E166.71988
G1 X73.524 Y35.539 E166.76599
G1 X73.795 Y35.268 E166.81198
G1 X74.015 Y34.953 E166.85809
G1 X74.178 Y34.606 E166.90409
G1 X74.277 Y34.235 E166.95017
G1 X74.309 Y33.862 E166.99509
G1 X74.309 Y26.053 E167.93217
G1 X83.909 Y26.053 E169.08417
G1 X83.909 Y37.853 E170.50017
G1 X83.882 Y38.164 E170.53763
G1 X83.801 Y38.468 E170.57539
G1 X83.668 Y38.751 E170.61291
G1 X83.487 Y39.010 E170.65083
G1 X83.253 Y39.241 E170.69028
G1 X82.994 Y39.418 E170.72793
G1 X82.724 Y39.545 E170.76373
G1 X82.421 Y39.626 E170.80137
G1 X82.104 Y39.653 E170.83955
G1 X68.751 Y39.653 E172.44191
G1 X68.374 Y39.686 E172.48732
G1 X67.999 Y39.789 E172.53399
G1 X67.647 Y39.954 E172.58064
G1 X67.331 Y40.180 E172.62726
G1 X67.050 Y40.470 E172.67572
G1 X66.841 Y40.777 E172.72028
G1 X66.681 Y41.130 E172.76679
G1 X66.587 Y41.506 E172.81330
G1 X66.559 Y41.894 E172.85998
G1 X66.601 Y42.280 E172.90657
G1 X66.706 Y42.640 E172.95157
G1 X66.957 Y43.376 E173.04489
G1 X67.161 Y44.182 E173.14466
G1 X67.291 Y44.978 E173.24144
G1 X67.355 Y45.822 E173.34301
G1 X67.345 Y46.610 E173.43758
G1 X67.344 Y46.645 E173.44178
G1 X67.268 Y47.407 E173.53368
G1 X67.119 Y48.218 E173.63263
G1 X66.906 Y49.000 E173.72989
G1 X66.623 Y49.765 E173.82777
G1 X66.467 Y50.072 E173.86909
G1 X66.288 Y50.307 E173.90454
G1 X66.055 Y50.522 E173.94258
G1 X65.816 Y50.681 E173.97703
G1 X65.542 Y50.802 E174.01297
G1 X65.247 Y50.878 E174.04953
G1 X64.946 Y50.903 E174.08577
G1 X62.665 Y50.903 E174.35949
G1 X62.817 Y50.758 E174.38470
G1 X63.256 Y50.236 E174.46655
G1 X63.662 Y49.644 E174.55269
G1 X64.003 Y49.013 E174.63876
G1 X64.276 Y48.349 E174.72491
G1 X64.477 Y47.659 E174.81115
G1 X64.605 Y46.953 E174.89725
G1 X64.655 Y46.249 E174.98195
G1 X64.659 Y46.202 E174.98761
G1 X64.634 Y45.527 E175.06866
G1 X64.631 Y45.481 E175.07419
G1 X64.533 Y44.807 E175.15592
G1 X64.359 Y44.110 E175.24213
G1 X64.113 Y43.436 E175.32823
G1 X63.797 Y42.792 E175.41431
G1 X63.415 Y42.185 E175.50038
G1 X62.970 Y41.620 E175.58668
G1 X62.469 Y41.106 E175.67281
G1 X61.915 Y40.648 E175.75907
G1 X61.288 Y40.230 E175.84950
G1 X60.681 Y39.918 E175.93140
G1 X60.013 Y39.655 E176.01754
G1 X59.321 Y39.464 E176.10369
G1 X58.612 Y39.347 E176.18992
