;FLAVOR:UltiGCode
;TIME:1525
;MATERIAL:1708
;MATERIAL2:0
;NOZZLE_DIAMETER:0.400000
;NOZZLE_DIAMETER2:0.400000

;Layer count: 98
;LAYER:0
M107
G0 F9000 X95.536 Y95.292 Z0.300
;TYPE:SKIRT
G1 F1200 X96.223 Y94.678 E0.11057
G1 X96.988 Y94.146 E0.22238
G1 X97.813 Y93.707 E0.33453
G1 X98.607 Y93.404 E0.43651
G1 X98.868 Y93.324 E0.46927
G1 X99.650 Y93.135 E0.56581
G1 X100.481 Y93.038 E0.66621
G1 X111.069 Y92.458 E1.93867
G1 X111.872 Y92.121 E2.04317
G1 X112.730 Y91.856 E2.15093
G1 X113.606 Y91.678 E2.25820
G1 X114.493 Y91.584 E2.36524
G1 X115.243 Y91.579 E2.45524
G1 X115.447 Y91.579 E2.47972
G1 X116.289 Y91.661 E2.58124
G1 X117.163 Y91.828 E2.68801
G1 X118.024 Y92.084 E2.79580
G1 X118.853 Y92.420 E2.90314
G1 X118.924 Y92.457 E2.91275
G1 X128.725 Y92.994 E4.09064
G1 X129.520 Y93.038 E4.18618
G1 X130.305 Y93.129 E4.28101
G1 X131.200 Y93.339 E4.39133
G1 X131.907 Y93.597 E4.48164
G1 X132.135 Y93.682 E4.51084
G1 X132.919 Y94.091 E4.61695
G1 X133.535 Y94.505 E4.70602
G1 X133.735 Y94.643 E4.73518
G1 X134.397 Y95.226 E4.84103
G1 X135.017 Y95.911 E4.95190
G1 X135.553 Y96.672 E5.06360
G1 X135.996 Y97.496 E5.17586
G1 X136.334 Y98.369 E5.28820
G1 X136.503 Y99.032 E5.37030
G1 X136.574 Y99.292 E5.40265
G1 X136.684 Y100.209 E5.51348
G1 X136.691 Y100.944 E5.60168
G1 X136.691 Y101.184 E5.63048
G1 X136.585 Y102.066 E5.73708
G1 X136.370 Y102.965 E5.84800
G1 X136.044 Y103.842 E5.96028
G1 X135.614 Y104.669 E6.07213
G1 X135.090 Y105.439 E6.18390
G1 X134.472 Y106.143 E6.29631
G1 X133.777 Y106.764 E6.40815
G1 X133.012 Y107.296 E6.51997
G1 X132.187 Y107.735 E6.63211
G1 X131.312 Y108.069 E6.74450
G1 X130.362 Y108.306 E6.86200
G1 X129.519 Y108.404 E6.96384
G1 X123.200 Y108.750 E7.72325
G1 X123.200 Y133.420 E10.68365
G1 X106.801 Y133.421 E12.65153
G1 X106.801 Y108.750 E15.61205
G1 X101.157 Y108.441 E16.29035
G1 X100.481 Y108.404 E16.37159
G1 X99.874 Y108.333 E16.44493
G1 X99.650 Y108.307 E16.47199
G1 X98.789 Y108.100 E16.57825
G1 X98.091 Y107.844 E16.66747
G1 X97.865 Y107.760 E16.69640
G1 X97.081 Y107.351 E16.80251
G1 X96.465 Y106.937 E16.89157
G1 X96.265 Y106.799 E16.92073
G1 X95.603 Y106.216 E17.02659
G1 X94.985 Y105.532 E17.13721
G1 X94.447 Y104.771 E17.24904
G1 X94.003 Y103.945 E17.36158
G1 X93.666 Y103.074 E17.47365
G1 X93.484 Y102.363 E17.56172
G1 X93.424 Y102.138 E17.58966
G1 X93.316 Y101.233 E17.69903
G1 X93.309 Y100.499 E17.78712
G1 X93.309 Y100.258 E17.81604
G1 X93.415 Y99.375 E17.92276
G1 X93.594 Y98.629 E18.01482
G1 X93.655 Y98.399 E18.04337
G1 X93.961 Y97.591 E18.14705
G1 X94.387 Y96.772 E18.25783
G1 X94.806 Y96.157 E18.34713
G1 X94.943 Y95.958 E18.37612
G1 X95.536 Y95.292 E18.48313
G10
G0 F9000 X111.300 Y129.210
;TYPE:FILL
G11
G1 F1200 X111.570 Y129.479 E18.52887
G0 F9000 X113.185 Y129.209
G1 F1200 X113.455 Y129.479 E18.57469
G0 F9000 X115.069 Y129.208
G1 F1200 X115.339 Y129.479 E18.62059
G0 F9000 X116.954 Y129.208
G1 F1200 X117.224 Y129.479 E18.66650
G0 F9000 X118.839 Y129.208
G1 F1200 X119.110 Y129.479 E18.71249
G0 F9000 X119.400 Y129.620
;TYPE:WALL-INNER
G1 F1200 X110.601 Y129.621 E19.76837
G1 X110.601 Y105.153 E22.70453
G1 X100.806 Y104.616 E23.88170
G1 X100.314 Y104.559 E23.94113
G1 X99.889 Y104.457 E23.99358
G1 X99.418 Y104.284 E24.05379
G1 X99.028 Y104.081 E24.10655
G1 X98.601 Y103.794 E24.16829
G1 X98.277 Y103.509 E24.22007
G1 X97.958 Y103.156 E24.27716
G1 X97.684 Y102.767 E24.33426
G1 X97.466 Y102.361 E24.38956
G1 X97.290 Y101.907 E24.44799
G1 X97.166 Y101.422 E24.50806
G1 X97.114 Y100.986 E24.56075
G1 X97.109 Y100.484 E24.62100
G1 X97.163 Y100.041 E24.67455
G1 X97.281 Y99.552 E24.73492
G1 X97.435 Y99.146 E24.78702
G1 X97.652 Y98.729 E24.84343
G1 X97.941 Y98.305 E24.90501
G1 X98.231 Y97.980 E24.95728
G1 X98.579 Y97.669 E25.01328
G1 X98.976 Y97.392 E25.07137
G1 X99.392 Y97.172 E25.12784
G1 X99.868 Y96.991 E25.18895
G1 X100.316 Y96.883 E25.24425
G1 X100.806 Y96.826 E25.30345
G1 X112.113 Y96.206 E26.66233
G1 X112.693 Y95.898 E26.74113
G1 X113.172 Y95.696 E26.80352
G1 X113.670 Y95.542 E26.86607
G1 X114.181 Y95.438 E26.92864
G1 X114.709 Y95.383 E26.99235
G1 X115.258 Y95.379 E27.05823
G1 X115.750 Y95.427 E27.11755
G1 X116.261 Y95.524 E27.17996
G1 X116.766 Y95.674 E27.24318
G1 X117.251 Y95.871 E27.30600
G1 X117.889 Y96.206 E27.39247
G1 X129.194 Y96.826 E28.75111
G1 X129.652 Y96.879 E28.80644
G1 X130.110 Y96.986 E28.86288
G1 X130.587 Y97.160 E28.92381
G1 X130.972 Y97.361 E28.97592
G1 X131.399 Y97.648 E29.03766
G1 X131.723 Y97.933 E29.08944
G1 X132.040 Y98.285 E29.14629
G1 X132.315 Y98.675 E29.20355
G1 X132.536 Y99.085 E29.25944
G1 X132.709 Y99.532 E29.31696
G1 X132.834 Y100.018 E29.37718
G1 X132.886 Y100.456 E29.43011
G1 X132.891 Y100.955 E29.48999
G1 X132.837 Y101.401 E29.54390
G1 X132.730 Y101.851 E29.59941
G1 X132.566 Y102.294 E29.65609
G1 X132.348 Y102.714 E29.71288
G1 X132.079 Y103.108 E29.77013
G1 X131.766 Y103.465 E29.82710
G1 X131.421 Y103.773 E29.88260
G1 X131.024 Y104.050 E29.94069
G1 X130.608 Y104.270 E29.99716
G1 X130.172 Y104.437 E30.05319
G1 X129.682 Y104.559 E30.11378
G1 X129.194 Y104.616 E30.17274
G1 X119.400 Y105.153 E31.34979
G1 X119.400 Y129.620 E34.28583
G0 F9000 X119.350 Y129.068
G1 F1200 X119.350 Y124.370 E34.84959
G1 X110.651 Y124.371 E35.89347
G1 X110.651 Y129.071 E36.45747
G1 X118.423 Y129.071 E37.39011
G1 X119.350 Y129.068 E37.50135
G0 F9000 X119.291 Y124.429
G0 X115.397 Y103.289
G1 F1200 X115.804 Y103.196 E37.55145
G1 X116.238 Y103.010 E37.60811
G1 X116.658 Y102.721 E37.66929
G1 X116.960 Y102.432 E37.71945
G1 X117.233 Y102.055 E37.77530
G1 X117.436 Y101.635 E37.83128
G1 X117.560 Y101.186 E37.88718
G1 X117.603 Y100.721 E37.94321
G1 X117.560 Y100.256 E37.99925
G1 X117.436 Y99.807 E38.05515
G1 X117.230 Y99.382 E38.11182
G1 X116.923 Y98.976 E38.17291
G1 X116.622 Y98.687 E38.22298
G1 X116.228 Y98.426 E38.27969
G1 X115.755 Y98.236 E38.34086
G1 X115.349 Y98.143 E38.39084
G1 X114.879 Y98.122 E38.44730
G1 X114.374 Y98.199 E38.50860
G1 X113.971 Y98.330 E38.55945
G1 X113.522 Y98.584 E38.62135
G1 X113.163 Y98.883 E38.67742
G1 X112.869 Y99.236 E38.73255
G1 X112.653 Y99.598 E38.78313
G1 X112.483 Y100.079 E38.84435
G1 X112.408 Y100.494 E38.89496
G1 X112.418 Y101.010 E38.95689
G1 X112.511 Y101.467 E39.01285
G1 X112.684 Y101.899 E39.06869
G1 X112.931 Y102.294 E39.12460
G1 X113.242 Y102.634 E39.17989
G1 X113.572 Y102.897 E39.23053
G1 X114.025 Y103.129 E39.29160
G1 X114.421 Y103.257 E39.34155
G1 X114.889 Y103.321 E39.39823
G1 X115.397 Y103.289 E39.45931
G0 F9000 X126.481 Y101.060
G1 F1200 X126.611 Y101.373 E39.49998
G1 X126.817 Y101.642 E39.54064
G1 X127.088 Y101.851 E39.58171
G1 X127.405 Y101.982 E39.62287
G1 X127.741 Y102.025 E39.66351
G1 X128.077 Y101.982 E39.70416
G1 X128.394 Y101.851 E39.74532
G1 X128.665 Y101.642 E39.78639
G1 X128.741 Y101.543 E39.80137
G1 X128.817 Y101.642 E39.81635
G1 X129.088 Y101.851 E39.85741
G1 X129.405 Y101.982 E39.89857
G1 X129.741 Y102.025 E39.93922
G1 X130.077 Y101.982 E39.97987
G1 X130.394 Y101.851 E40.02103
G1 X130.665 Y101.642 E40.06210
G1 X130.871 Y101.373 E40.10276
G1 X131.001 Y101.060 E40.14343
G1 X131.046 Y100.721 E40.18446
G1 X131.001 Y100.382 E40.22550
G1 X130.871 Y100.069 E40.26617
G1 X130.665 Y99.800 E40.30683
G1 X130.394 Y99.591 E40.34790
G1 X130.077 Y99.460 E40.38906
G1 X129.741 Y99.417 E40.42971
G1 X129.405 Y99.460 E40.47036
G1 X129.088 Y99.591 E40.51152
G1 X128.817 Y99.800 E40.55258
G1 X128.741 Y99.899 E40.56756
G1 X128.665 Y99.800 E40.58254
G1 X128.394 Y99.591 E40.62361
G1 X128.077 Y99.460 E40.66477
G1 X127.741 Y99.417 E40.70541
G1 X127.405 Y99.460 E40.74606
G1 X127.088 Y99.591 E40.78722
G1 X126.817 Y99.800 E40.82829
G1 X126.611 Y100.069 E40.86895
G1 X126.481 Y100.382 E40.90962
G1 X126.436 Y100.721 E40.95066
G1 X126.481 Y101.060 E40.99169
G0 F9000 X114.890 Y103.319
G0 X113.243 Y102.633
G0 X103.564 Y100.721
G1 F1200 X103.519 Y100.382 E41.03273
G1 X103.386 Y100.061 E41.07443
G1 X103.158 Y99.781 E41.11776
G1 X102.912 Y99.591 E41.15506
G1 X102.595 Y99.460 E41.19622
G1 X102.259 Y99.417 E41.23686
G1 X101.914 Y99.461 E41.27860
G1 X101.581 Y99.611 E41.32243
G1 X101.335 Y99.800 E41.35965
G1 X101.257 Y99.902 E41.37506
G1 X101.158 Y99.781 E41.39382
G1 X100.912 Y99.591 E41.43112
G1 X100.595 Y99.460 E41.47228
G1 X100.259 Y99.417 E41.51293
G1 X99.914 Y99.461 E41.55467
G1 X99.581 Y99.611 E41.59849
G1 X99.335 Y99.800 E41.63572
G1 X99.129 Y100.069 E41.67638
G1 X98.999 Y100.382 E41.71705
G1 X98.954 Y100.721 E41.75809
G1 X98.999 Y101.060 E41.79912
G1 X99.132 Y101.381 E41.84082
G1 X99.360 Y101.661 E41.88415
G1 X99.606 Y101.851 E41.92145
G1 X99.923 Y101.982 E41.96261
G1 X100.259 Y102.025 E42.00326
G1 X100.604 Y101.981 E42.04499
G1 X100.937 Y101.831 E42.08882
G1 X101.183 Y101.642 E42.12605
G1 X101.261 Y101.540 E42.14146
G1 X101.360 Y101.661 E42.16022
G1 X101.606 Y101.851 E42.19752
G1 X101.923 Y101.982 E42.23868
G1 X102.259 Y102.025 E42.27932
G1 X102.604 Y101.981 E42.32106
G1 X102.937 Y101.831 E42.36489
G1 X103.183 Y101.642 E42.40211
G1 X103.389 Y101.373 E42.44277
G1 X103.519 Y101.060 E42.48344
G1 X103.564 Y100.721 E42.52448
G0 F9000 X103.161 Y100.721
;TYPE:WALL-OUTER
G1 F1200 X103.130 Y100.487 E42.55280
G1 X103.039 Y100.268 E42.58126
G1 X102.877 Y100.069 E42.61206
G1 X102.710 Y99.940 E42.63738
G1 X102.492 Y99.850 E42.66568
G1 X102.259 Y99.820 E42.69387
G1 X102.023 Y99.850 E42.72242
G1 X101.788 Y99.956 E42.75335
G1 X101.621 Y100.085 E42.77868
G1 X101.478 Y100.271 E42.80683
G1 X101.388 Y100.487 E42.83491
G1 X101.357 Y100.721 E42.86324
G1 X101.388 Y100.955 E42.89156
G1 X101.479 Y101.174 E42.92002
G1 X101.641 Y101.373 E42.95081
G1 X101.808 Y101.502 E42.97613
G1 X102.026 Y101.592 E43.00444
G1 X102.259 Y101.622 E43.03263
G1 X102.495 Y101.592 E43.06118
G1 X102.730 Y101.486 E43.09211
G1 X102.897 Y101.357 E43.11743
G1 X103.040 Y101.171 E43.14559
G1 X103.130 Y100.955 E43.17367
G1 X103.161 Y100.721 E43.20199
G10
G0 F9000 X101.161 Y100.721
G11
G1 F1200 X101.130 Y100.487 E43.23032
G1 X101.039 Y100.268 E43.25878
G1 X100.877 Y100.069 E43.28957
G1 X100.710 Y99.940 E43.31489
G1 X100.492 Y99.850 E43.34319
G1 X100.259 Y99.820 E43.37138
G1 X100.023 Y99.850 E43.39993
G1 X99.788 Y99.956 E43.43087
G1 X99.621 Y100.085 E43.45619
G1 X99.478 Y100.271 E43.48434
G1 X99.388 Y100.487 E43.51242
G1 X99.357 Y100.721 E43.54075
G1 X99.388 Y100.955 E43.56908
G1 X99.479 Y101.174 E43.59753
G1 X99.641 Y101.373 E43.62833
G1 X99.808 Y101.502 E43.65365
G1 X100.026 Y101.592 E43.68195
G1 X100.259 Y101.622 E43.71014
G1 X100.495 Y101.592 E43.73869
G1 X100.730 Y101.486 E43.76963
G1 X100.897 Y101.357 E43.79495
G1 X101.040 Y101.171 E43.82310
G1 X101.130 Y100.955 E43.85118
G1 X101.161 Y100.721 E43.87951
G10
G0 F9000 X100.771 Y96.428
G11
G1 F1200 X112.003 Y95.811 E45.22938
G1 X112.523 Y95.535 E45.30002
G1 X113.031 Y95.321 E45.36617
G1 X113.571 Y95.154 E45.43400
G1 X114.124 Y95.042 E45.50171
G1 X114.684 Y94.983 E45.56928
G1 X115.255 Y94.979 E45.63780
G1 X115.282 Y94.979 E45.64104
G1 X115.809 Y95.031 E45.70459
G1 X116.351 Y95.134 E45.77079
G1 X116.904 Y95.298 E45.84001
G1 X117.417 Y95.506 E45.90644
G1 X117.998 Y95.811 E45.98518
G1 X129.229 Y96.428 E47.33493
G1 X129.719 Y96.485 E47.39413
G1 X130.230 Y96.604 E47.45709
G1 X130.729 Y96.786 E47.52083
G1 X130.749 Y96.793 E47.52337
G1 X131.174 Y97.015 E47.58091
G1 X131.620 Y97.315 E47.64541
G1 X132.006 Y97.650 E47.70674
G1 X132.352 Y98.033 E47.76868
G1 X132.657 Y98.466 E47.83224
G1 X132.899 Y98.915 E47.89344
G1 X133.090 Y99.408 E47.95689
G1 X133.223 Y99.925 E48.02095
G1 X133.286 Y100.432 E48.08226
G1 X133.291 Y100.959 E48.14550
G1 X133.291 Y100.977 E48.14766
G1 X133.232 Y101.473 E48.20760
G1 X133.112 Y101.972 E48.26919
G1 X132.930 Y102.462 E48.33191
G1 X132.692 Y102.919 E48.39374
G1 X132.396 Y103.354 E48.45688
G1 X132.052 Y103.746 E48.51946
G1 X131.665 Y104.092 E48.58176
G1 X131.242 Y104.386 E48.64358
G1 X130.774 Y104.635 E48.70719
G1 X130.289 Y104.820 E48.76948
G1 X129.756 Y104.953 E48.83540
G1 X129.229 Y105.014 E48.89906
G1 X119.800 Y105.532 E50.03225
G1 X119.800 Y130.020 E52.97081
G1 X110.201 Y130.021 E54.12269
G1 X110.201 Y105.532 E57.06137
G1 X100.771 Y105.014 E58.19468
G1 X100.241 Y104.953 E58.25870
G1 X99.779 Y104.842 E58.31571
G1 X99.272 Y104.656 E58.38052
G1 X99.251 Y104.649 E58.38317
G1 X98.826 Y104.427 E58.44071
G1 X98.380 Y104.127 E58.50521
G1 X97.994 Y103.792 E58.56655
G1 X97.643 Y103.404 E58.62933
G1 X97.346 Y102.983 E58.69116
G1 X97.099 Y102.524 E58.75371
G1 X96.909 Y102.031 E58.81711
G1 X96.778 Y101.519 E58.88053
G1 X96.714 Y101.010 E58.94209
G1 X96.709 Y100.484 E59.00521
G1 X96.709 Y100.465 E59.00749
G1 X96.768 Y99.969 E59.06743
G1 X96.890 Y99.463 E59.12989
G1 X97.072 Y98.977 E59.19216
G1 X97.308 Y98.523 E59.25357
G1 X97.610 Y98.081 E59.31780
G1 X97.947 Y97.697 E59.37911
G1 X98.335 Y97.350 E59.44158
G1 X98.758 Y97.056 E59.50339
G1 X99.226 Y96.807 E59.56701
G1 X99.717 Y96.620 E59.63006
G1 X100.241 Y96.489 E59.69487
G1 X100.771 Y96.428 E59.75889
G0 F9000 X100.803 Y96.725
G0 X112.577 Y100.128
G0 X112.871 Y100.182
G1 F1200 X112.809 Y100.526 E59.80084
G1 X112.817 Y100.966 E59.85364
G1 X112.896 Y101.352 E59.90092
G1 X113.042 Y101.717 E59.94810
G1 X113.251 Y102.051 E59.99538
G1 X113.516 Y102.341 E60.04252
G1 X113.790 Y102.559 E60.08454
G1 X114.179 Y102.758 E60.13697
G1 X114.510 Y102.866 E60.17875
G1 X114.904 Y102.919 E60.22646
G1 X115.340 Y102.892 E60.27888
G1 X115.680 Y102.814 E60.32074
G1 X116.044 Y102.658 E60.36826
G1 X116.405 Y102.410 E60.42082
G1 X116.657 Y102.168 E60.46274
G1 X116.888 Y101.849 E60.51001
G1 X117.060 Y101.494 E60.55734
G1 X117.165 Y101.114 E60.60465
G1 X117.201 Y100.721 E60.65201
G1 X117.165 Y100.328 E60.69937
G1 X117.060 Y99.948 E60.74668
G1 X116.887 Y99.591 E60.79428
G1 X116.624 Y99.243 E60.84662
G1 X116.371 Y99.001 E60.88864
G1 X116.041 Y98.782 E60.93616
G1 X115.635 Y98.619 E60.98866
G1 X115.295 Y98.541 E61.03052
G1 X114.900 Y98.523 E61.07797
G1 X114.467 Y98.590 E61.13055
G1 X114.133 Y98.698 E61.17267
G1 X113.750 Y98.915 E61.22550
G1 X113.447 Y99.167 E61.27279
G1 X113.196 Y99.468 E61.31982
G1 X113.017 Y99.769 E61.36185
G1 X112.871 Y100.182 E61.41441
G0 F9000 X112.577 Y100.128
G0 X113.164 Y98.884
G0 X114.879 Y98.124
G0 X116.621 Y98.688
G0 X126.542 Y100.682
G0 X126.839 Y100.721
G1 F1200 X126.870 Y100.955 E61.44274
G1 X126.960 Y101.171 E61.47082
G1 X127.103 Y101.357 E61.49897
G1 X127.290 Y101.502 E61.52737
G1 X127.508 Y101.592 E61.55567
G1 X127.741 Y101.622 E61.58386
G1 X127.974 Y101.592 E61.61205
G1 X128.192 Y101.502 E61.64035
G1 X128.379 Y101.357 E61.66875
G1 X128.522 Y101.171 E61.69690
G1 X128.612 Y100.955 E61.72498
G1 X128.643 Y100.721 E61.75331
G1 X128.612 Y100.487 E61.78163
G1 X128.522 Y100.271 E61.80971
G1 X128.379 Y100.085 E61.83787
G1 X128.192 Y99.940 E61.86626
G1 X127.974 Y99.850 E61.89456
G1 X127.741 Y99.820 E61.92275
G1 X127.508 Y99.850 E61.95094
G1 X127.290 Y99.940 E61.97925
G1 X127.103 Y100.085 E62.00764
G1 X126.960 Y100.271 E62.03580
G1 X126.870 Y100.487 E62.06388
G1 X126.839 Y100.721 E62.09220
G10
G0 F9000 X128.839 Y100.721
G11
G1 F1200 X128.870 Y100.955 E62.12053
G1 X128.960 Y101.171 E62.14861
G1 X129.103 Y101.357 E62.17676
G1 X129.290 Y101.502 E62.20516
G1 X129.508 Y101.592 E62.23346
G1 X129.741 Y101.622 E62.26165
G1 X129.974 Y101.592 E62.28984
G1 X130.192 Y101.502 E62.31814
G1 X130.379 Y101.357 E62.34654
G1 X130.522 Y101.171 E62.37469
G1 X130.612 Y100.955 E62.40277
G1 X130.643 Y100.721 E62.43110
G1 X130.612 Y100.487 E62.45942
G1 X130.522 Y100.271 E62.48750
G1 X130.379 Y100.085 E62.51566
G1 X130.192 Y99.940 E62.54405
G1 X129.974 Y99.850 E62.57235
G1 X129.741 Y99.820 E62.60054
G1 X129.508 Y99.850 E62.62873
G1 X129.290 Y99.940 E62.65704
G1 X129.103 Y100.085 E62.68543
G1 X128.960 Y100.271 E62.71359
G1 X128.870 Y100.487 E62.74167
G1 X128.839 Y100.721 E62.76999
G10
G0 F9000 X118.950 Y124.770
G11
G1 F1200 X111.051 Y124.771 E63.71787
G1 X111.051 Y128.671 E64.18587
G1 X118.950 Y128.670 E65.13375
G1 X118.950 Y124.770 E65.60175
G0 F9000 X118.855 Y124.229
;TYPE:SKIN
G1 F1200 X110.740 Y116.114 E66.97891
G0 F9000 X110.740 Y115.549
G1 F1200 X119.259 Y124.068 E68.42463
G0 F9000 X119.259 Y123.502
G1 F1200 X110.740 Y114.983 E69.87036
G0 F9000 X110.739 Y114.416
G1 F1200 X119.259 Y122.936 E71.31625
G0 F9000 X119.259 Y122.371
