;FLAVOR:UltiGCode
;TIME:2080
;MATERIAL:2675
;MATERIAL2:0
;NOZZLE_DIAMETER:0.400000
;NOZZLE_DIAMETER2:0.400000

;Layer count: 98
;LAYER:0
M107
G0 F9000 X76.782 Y36.737 Z0.300
;TYPE:SKIRT
G1 F1200 X167.076 Y36.738 E10.83528
G1 X167.779 Y36.737 E10.91964
G1 X171.381 Y36.737 E11.35188
G1 X171.381 Y53.137 E13.31988
G1 X76.782 Y53.137 E24.67176
G1 X76.782 Y36.737 E26.63976
G10
G0 F9000 X80.582 Y40.537
;TYPE:WALL-INNER
G11
G1 F1200 X167.581 Y40.537 E37.07964
G1 X167.581 Y49.337 E38.13564
G1 X80.582 Y49.337 E48.57552
G1 X80.582 Y40.537 E49.63152
G0 F9000 X80.182 Y40.137
;TYPE:WALL-OUTER
G1 F1200 X167.981 Y40.137 E60.16740
G1 X167.981 Y49.737 E61.31940
G1 X80.182 Y49.737 E71.85528
G1 X80.182 Y40.137 E73.00728
G0 F9000 X80.721 Y40.840
;TYPE:SKIN
G1 F1200 X89.077 Y49.196 E74.42534
G0 F9000 X88.512 Y49.196
G1 F1200 X80.721 Y41.406 E75.74743
G0 F9000 X80.721 Y41.971
G1 F1200 X87.946 Y49.196 E76.97356
G0 F9000 X87.380 Y49.196
G1 F1200 X80.721 Y42.537 E78.10362
G0 F9000 X80.721 Y43.103
G1 F1200 X86.815 Y49.196 E79.13773
G0 F9000 X86.249 Y49.196
G1 F1200 X80.721 Y43.668 E80.07586
G0 F9000 X80.721 Y44.234
G1 F1200 X85.683 Y49.196 E80.91794
G0 F9000 X85.117 Y49.196
G1 F1200 X80.721 Y44.800 E81.66396
G0 F9000 X80.721 Y45.365
G1 F1200 X84.552 Y49.196 E82.31411
G0 F9000 X83.986 Y49.196
G1 F1200 X80.721 Y45.931 E82.86820
G0 F9000 X80.721 Y46.497
G1 F1200 X83.420 Y49.196 E83.32623
G0 F9000 X82.855 Y49.196
G1 F1200 X80.721 Y47.062 E83.68838
G0 F9000 X80.721 Y47.628
G1 F1200 X82.289 Y49.196 E83.95448
G0 F9000 X81.723 Y49.196
G1 F1200 X80.721 Y48.194 E84.12453
G0 F9000 X80.721 Y48.759
G1 F1200 X81.158 Y49.196 E84.19869
G0 F9000 X89.643 Y49.196
G1 F1200 X81.123 Y40.677 E85.64449
G0 F9000 X81.689 Y40.677
G1 F1200 X90.209 Y49.196 E87.09030
G0 F9000 X90.774 Y49.196
G1 F1200 X82.254 Y40.677 E88.53611
G0 F9000 X82.820 Y40.677
G1 F1200 X91.340 Y49.196 E89.98192
G0 F9000 X91.906 Y49.196
G1 F1200 X83.386 Y40.677 E91.42772
G0 F9000 X83.951 Y40.677
G1 F1200 X92.471 Y49.196 E92.87353
G0 F9000 X93.037 Y49.196
G1 F1200 X84.517 Y40.677 E94.31934
G0 F9000 X85.083 Y40.677
G1 F1200 X93.603 Y49.196 E95.76514
G0 F9000 X94.168 Y49.196
G1 F1200 X85.649 Y40.677 E97.21087
G0 F9000 X86.214 Y40.677
G1 F1200 X94.734 Y49.196 E98.65667
G0 F9000 X95.300 Y49.196
G1 F1200 X86.780 Y40.677 E100.10248
G0 F9000 X87.346 Y40.677
G1 F1200 X95.866 Y49.196 E101.54829
G0 F9000 X96.431 Y49.196
G1 F1200 X87.911 Y40.677 E102.99409
G0 F9000 X88.477 Y40.677
G1 F1200 X96.997 Y49.196 E104.43990
G0 F9000 X97.563 Y49.196
G1 F1200 X89.043 Y40.677 E105.88571
G0 F9000 X89.608 Y40.677
G1 F1200 X98.128 Y49.196 E107.33152
G0 F9000 X98.694 Y49.196
G1 F1200 X90.174 Y40.677 E108.77732
G0 F9000 X90.740 Y40.677
G1 F1200 X99.260 Y49.196 E110.22313
G0 F9000 X99.825 Y49.196
G1 F1200 X91.305 Y40.677 E111.66894
G0 F9000 X91.871 Y40.677
G1 F1200 X100.391 Y49.196 E113.11474
G0 F9000 X100.957 Y49.196
G1 F1200 X92.437 Y40.677 E114.56055
G0 F9000 X93.002 Y40.677
G1 F1200 X101.522 Y49.196 E116.00636
G0 F9000 X102.088 Y49.196
G1 F1200 X93.568 Y40.677 E117.45217
G0 F9000 X94.134 Y40.677
G1 F1200 X102.654 Y49.196 E118.89797
G0 F9000 X103.219 Y49.196
G1 F1200 X94.699 Y40.677 E120.34378
G0 F9000 X95.265 Y40.677
G1 F1200 X103.785 Y49.196 E121.78959
G0 F9000 X104.351 Y49.196
G1 F1200 X95.831 Y40.677 E123.23539
G0 F9000 X96.397 Y40.677
G1 F1200 X104.916 Y49.196 E124.68112
G0 F9000 X105.482 Y49.196
G1 F1200 X96.962 Y40.677 E126.12692
G0 F9000 X97.528 Y40.677
G1 F1200 X106.048 Y49.196 E127.57273
G0 F9000 X106.614 Y49.196
G1 F1200 X98.094 Y40.677 E129.01854
G0 F9000 X98.659 Y40.677
G1 F1200 X107.179 Y49.196 E130.46434
G0 F9000 X107.745 Y49.196
G1 F1200 X99.225 Y40.677 E131.91015
G0 F9000 X99.791 Y40.677
G1 F1200 X108.311 Y49.196 E133.35596
G0 F9000 X108.876 Y49.196
G1 F1200 X100.356 Y40.677 E134.80177
G0 F9000 X100.922 Y40.677
G1 F1200 X109.442 Y49.196 E136.24757
G0 F9000 X110.008 Y49.196
G1 F1200 X101.488 Y40.677 E137.69338
G0 F9000 X102.053 Y40.677
G1 F1200 X110.573 Y49.196 E139.13919
G0 F9000 X111.139 Y49.196
G1 F1200 X102.619 Y40.677 E140.58499
G0 F9000 X103.185 Y40.677
G1 F1200 X111.705 Y49.196 E142.03080
G0 F9000 X112.270 Y49.196
G1 F1200 X103.750 Y40.677 E143.47661
G0 F9000 X104.316 Y40.677
G1 F1200 X112.836 Y49.196 E144.92242
G0 F9000 X113.402 Y49.196
G1 F1200 X104.882 Y40.677 E146.36822
G0 F9000 X105.448 Y40.677
G1 F1200 X113.967 Y49.196 E147.81395
G0 F9000 X114.533 Y49.196
G1 F1200 X106.013 Y40.677 E149.25975
G0 F9000 X106.579 Y40.677
G1 F1200 X115.099 Y49.196 E150.70556
G0 F9000 X115.664 Y49.196
G1 F1200 X107.145 Y40.677 E152.15128
G0 F9000 X107.710 Y40.677
G1 F1200 X116.230 Y49.196 E153.59709
G0 F9000 X116.796 Y49.196
G1 F1200 X108.276 Y40.677 E155.04290
G0 F9000 X108.842 Y40.677
G1 F1200 X117.362 Y49.196 E156.48870
G0 F9000 X117.927 Y49.196
G1 F1200 X109.407 Y40.677 E157.93451
G0 F9000 X109.973 Y40.677
G1 F1200 X118.493 Y49.196 E159.38032
G0 F9000 X119.059 Y49.196
G1 F1200 X110.539 Y40.677 E160.82612
G0 F9000 X111.104 Y40.677
G1 F1200 X119.624 Y49.196 E162.27193
G0 F9000 X120.190 Y49.196
G1 F1200 X111.670 Y40.677 E163.71774
G0 F9000 X112.236 Y40.677
G1 F1200 X120.756 Y49.196 E165.16355
G0 F9000 X121.321 Y49.196
G1 F1200 X112.801 Y40.677 E166.60935
G0 F9000 X113.367 Y40.677
G1 F1200 X121.887 Y49.196 E168.05516
G0 F9000 X122.453 Y49.196
G1 F1200 X113.933 Y40.677 E169.50097
G0 F9000 X114.498 Y40.677
G1 F1200 X123.018 Y49.196 E170.94677
G0 F9000 X123.584 Y49.196
G1 F1200 X115.064 Y40.677 E172.39258
G0 F9000 X115.630 Y40.677
G1 F1200 X124.150 Y49.196 E173.83839
G0 F9000 X124.715 Y49.196
G1 F1200 X116.196 Y40.677 E175.28411
G0 F9000 X116.761 Y40.677
G1 F1200 X125.281 Y49.196 E176.72992
G0 F9000 X125.847 Y49.196
G1 F1200 X117.327 Y40.677 E178.17572
G0 F9000 X117.893 Y40.677
G1 F1200 X126.413 Y49.196 E179.62153
G0 F9000 X126.978 Y49.196
G1 F1200 X118.458 Y40.677 E181.06734
G0 F9000 X119.024 Y40.677
G1 F1200 X127.544 Y49.196 E182.51315
G0 F9000 X128.110 Y49.196
G1 F1200 X119.590 Y40.677 E183.95895
G0 F9000 X120.155 Y40.677
G1 F1200 X128.675 Y49.196 E185.40476
G0 F9000 X129.241 Y49.196
G1 F1200 X120.721 Y40.677 E186.85057
G0 F9000 X121.287 Y40.677
G1 F1200 X129.807 Y49.196 E188.29637
G0 F9000 X130.372 Y49.196
G1 F1200 X121.852 Y40.677 E189.74218
G0 F9000 X122.418 Y40.677
G1 F1200 X130.938 Y49.196 E191.18799
G0 F9000 X131.504 Y49.196
G1 F1200 X122.984 Y40.677 E192.63380
G0 F9000 X123.549 Y40.677
G1 F1200 X132.069 Y49.196 E194.07960
G0 F9000 X132.635 Y49.196
G1 F1200 X124.115 Y40.677 E195.52541
G0 F9000 X124.681 Y40.677
G1 F1200 X133.201 Y49.196 E196.97122
G0 F9000 X133.766 Y49.196
G1 F1200 X125.246 Y40.677 E198.41702
G0 F9000 X125.812 Y40.677
G1 F1200 X134.332 Y49.196 E199.86283
G0 F9000 X134.898 Y49.196
G1 F1200 X126.378 Y40.677 E201.30864
G0 F9000 X126.944 Y40.677
G1 F1200 X135.463 Y49.196 E202.75436
G0 F9000 X136.029 Y49.196
G1 F1200 X127.509 Y40.677 E204.20017
G0 F9000 X128.075 Y40.677
G1 F1200 X136.595 Y49.196 E205.64597
G0 F9000 X137.161 Y49.196
G1 F1200 X128.641 Y40.677 E207.09178
G0 F9000 X129.206 Y40.677
G1 F1200 X137.726 Y49.196 E208.53759
G0 F9000 X138.292 Y49.196
G1 F1200 X129.772 Y40.677 E209.98340
G0 F9000 X130.338 Y40.677
G1 F1200 X138.858 Y49.196 E211.42920
G0 F9000 X139.423 Y49.196
G1 F1200 X130.903 Y40.677 E212.87501
G0 F9000 X131.469 Y40.677
G1 F1200 X139.989 Y49.196 E214.32082
G0 F9000 X140.555 Y49.196
G1 F1200 X132.035 Y40.677 E215.76662
G0 F9000 X132.600 Y40.677
G1 F1200 X141.120 Y49.196 E217.21243
G0 F9000 X141.686 Y49.196
G1 F1200 X133.166 Y40.677 E218.65824
G0 F9000 X133.732 Y40.677
G1 F1200 X142.252 Y49.196 E220.10405
G0 F9000 X142.817 Y49.196
G1 F1200 X134.297 Y40.677 E221.54985
G0 F9000 X134.863 Y40.677
G1 F1200 X143.383 Y49.196 E222.99566
G0 F9000 X143.949 Y49.196
G1 F1200 X135.429 Y40.677 E224.44147
G0 F9000 X135.995 Y40.677
G1 F1200 X144.514 Y49.196 E225.88719
G0 F9000 X145.080 Y49.196
G1 F1200 X136.560 Y40.677 E227.33300
G0 F9000 X137.126 Y40.677
G1 F1200 X145.646 Y49.196 E228.77880
G0 F9000 X146.212 Y49.196
G1 F1200 X137.692 Y40.677 E230.22461
G0 F9000 X138.257 Y40.677
G1 F1200 X146.777 Y49.196 E231.67042
G0 F9000 X147.343 Y49.196
G1 F1200 X138.823 Y40.677 E233.11622
G0 F9000 X139.389 Y40.677
G1 F1200 X147.909 Y49.196 E234.56203
G0 F9000 X148.474 Y49.196
G1 F1200 X139.954 Y40.677 E236.00784
G0 F9000 X140.520 Y40.677
G1 F1200 X149.040 Y49.196 E237.45365
G0 F9000 X149.606 Y49.196
G1 F1200 X141.086 Y40.677 E238.89945
G0 F9000 X141.651 Y40.677
G1 F1200 X150.171 Y49.196 E240.34526
G0 F9000 X150.737 Y49.196
G1 F1200 X142.217 Y40.677 E241.79107
G0 F9000 X142.783 Y40.677
G1 F1200 X151.303 Y49.196 E243.23687
G0 F9000 X151.868 Y49.196
G1 F1200 X143.348 Y40.677 E244.68268
G0 F9000 X143.914 Y40.677
G1 F1200 X152.434 Y49.196 E246.12849
G0 F9000 X153.000 Y49.196
G1 F1200 X144.480 Y40.677 E247.57430
G0 F9000 X145.045 Y40.677
G1 F1200 X153.565 Y49.196 E249.02010
G0 F9000 X154.131 Y49.196
G1 F1200 X145.611 Y40.677 E250.46591
G0 F9000 X146.177 Y40.677
G1 F1200 X154.697 Y49.196 E251.91172
G0 F9000 X155.262 Y49.196
G1 F1200 X146.743 Y40.677 E253.35744
G0 F9000 X147.308 Y40.677
G1 F1200 X155.828 Y49.196 E254.80325
G0 F9000 X156.394 Y49.196
G1 F1200 X147.874 Y40.677 E256.24905
G0 F9000 X148.440 Y40.677
G1 F1200 X156.960 Y49.196 E257.69486
G0 F9000 X157.525 Y49.196
G1 F1200 X149.005 Y40.677 E259.14067
G0 F9000 X149.571 Y40.677
G1 F1200 X158.091 Y49.196 E260.58647
G0 F9000 X158.657 Y49.196
G1 F1200 X150.137 Y40.677 E262.03228
G0 F9000 X150.702 Y40.677
G1 F1200 X159.222 Y49.196 E263.47809
G0 F9000 X159.788 Y49.196
G1 F1200 X151.268 Y40.677 E264.92390
G0 F9000 X151.834 Y40.677
G1 F1200 X160.354 Y49.196 E266.36970
G0 F9000 X160.919 Y49.196
G1 F1200 X152.399 Y40.677 E267.81551
G0 F9000 X152.965 Y40.677
G1 F1200 X161.485 Y49.196 E269.26132
G0 F9000 X162.051 Y49.196
G1 F1200 X153.531 Y40.677 E270.70712
G0 F9000 X154.096 Y40.677
G1 F1200 X162.616 Y49.196 E272.15293
G0 F9000 X163.182 Y49.196
G1 F1200 X154.662 Y40.677 E273.59874
G0 F9000 X155.228 Y40.677
G1 F1200 X163.748 Y49.196 E275.04455
G0 F9000 X164.313 Y49.196
G1 F1200 X155.794 Y40.677 E276.49027
G0 F9000 X156.359 Y40.677
G1 F1200 X164.879 Y49.196 E277.93607
G0 F9000 X165.445 Y49.196
G1 F1200 X156.925 Y40.677 E279.38188
G0 F9000 X157.491 Y40.677
G1 F1200 X166.010 Y49.196 E280.82760
G0 F9000 X166.576 Y49.196
G1 F1200 X158.056 Y40.677 E282.27341
G0 F9000 X158.622 Y40.677
G1 F1200 X167.142 Y49.196 E283.71922
G0 F9000 X167.440 Y48.929
G1 F1200 X159.188 Y40.677 E285.11963
G0 F9000 X159.753 Y40.677
G1 F1200 X167.440 Y48.363 E286.42407
G0 F9000 X167.440 Y47.798
G1 F1200 X160.319 Y40.677 E287.63254
G0 F9000 X160.885 Y40.677
G1 F1200 X167.440 Y47.232 E288.74497
G0 F9000 X167.440 Y46.666
G1 F1200 X161.450 Y40.677 E289.76142
G0 F9000 X162.016 Y40.677
G1 F1200 X167.440 Y46.101 E290.68190
G0 F9000 X167.440 Y45.535
G1 F1200 X162.582 Y40.677 E291.50633
G0 F9000 X163.147 Y40.677
G1 F1200 X167.440 Y44.969 E292.23479
G0 F9000 X167.440 Y44.404
G1 F1200 X163.713 Y40.677 E292.86728
G0 F9000 X164.279 Y40.677
G1 F1200 X167.440 Y43.838 E293.40372
G0 F9000 X167.440 Y43.272
G1 F1200 X164.844 Y40.677 E293.84420
G0 F9000 X165.410 Y40.677
G1 F1200 X167.440 Y42.707 E294.18870
G0 F9000 X167.440 Y42.141
G1 F1200 X165.976 Y40.677 E294.43715
G0 F9000 X166.542 Y40.677
G1 F1200 X167.440 Y41.575 E294.58954
G0 F9000 X167.440 Y41.010
G1 F1200 X167.107 Y40.677 E294.64605
;LAYER:1
M106 S5
G0 F9000 X167.581 Y40.537 Z0.400
;TYPE:WALL-INNER
G1 F1500 X167.581 Y49.337 E294.99805
G1 X80.582 Y49.337 E298.47801
G1 X80.582 Y40.537 E298.83001
G1 X167.581 Y40.537 E302.30997
G0 F9000 X167.981 Y40.137
;TYPE:WALL-OUTER
G1 F1500 X167.981 Y49.737 E302.69397
G1 X80.182 Y49.737 E306.20593
G1 X80.182 Y40.137 E306.58993
G1 X167.981 Y40.137 E310.10189
G0 F9000 X167.212 Y40.677
;TYPE:SKIN
G1 F1500 X158.692 Y49.196 E310.58383
G0 F9000 X159.258 Y49.196
G1 F1500 X167.440 Y41.015 E311.04665
G0 F9000 X167.440 Y41.580
G1 F1500 X159.823 Y49.196 E311.47750
G0 F9000 X158.126 Y49.196
G1 F1500 X166.646 Y40.677 E311.95944
G0 F9000 X166.080 Y40.677
G1 F1500 X157.561 Y49.196 E312.44134
G0 F9000 X156.995 Y49.196
G1 F1500 X165.515 Y40.677 E312.92328
G0 F9000 X164.949 Y40.677
G1 F1500 X156.429 Y49.196 E313.40521
G0 F9000 X155.864 Y49.196
G1 F1500 X164.383 Y40.677 E313.88712
G0 F9000 X163.818 Y40.677
G1 F1500 X155.298 Y49.196 E314.36906
G0 F9000 X154.732 Y49.196
G1 F1500 X163.252 Y40.677 E314.85099
G0 F9000 X162.686 Y40.677
G1 F1500 X154.166 Y49.196 E315.33293
G0 F9000 X153.601 Y49.196
G1 F1500 X162.121 Y40.677 E315.81486
G0 F9000 X161.555 Y40.677
G1 F1500 X153.035 Y49.196 E316.29680
G0 F9000 X152.469 Y49.196
G1 F1500 X160.989 Y40.677 E316.77874
G0 F9000 X160.424 Y40.677
G1 F1500 X151.904 Y49.196 E317.26067
G0 F9000 X151.338 Y49.196
G1 F1500 X159.858 Y40.677 E317.74261
G0 F9000 X159.292 Y40.677
G1 F1500 X150.772 Y49.196 E318.22454
G0 F9000 X150.207 Y49.196
G1 F1500 X158.727 Y40.677 E318.70648
G0 F9000 X158.161 Y40.677
G1 F1500 X149.641 Y49.196 E319.18841
G0 F9000 X149.075 Y49.196
G1 F1500 X157.595 Y40.677 E319.67035
G0 F9000 X157.030 Y40.677
G1 F1500 X148.510 Y49.196 E320.15229
G0 F9000 X147.944 Y49.196
G1 F1500 X156.464 Y40.677 E320.63422
G0 F9000 X155.898 Y40.677
G1 F1500 X147.378 Y49.196 E321.11616
G0 F9000 X146.813 Y49.196
G1 F1500 X155.332 Y40.677 E321.59806
G0 F9000 X154.767 Y40.677
G1 F1500 X146.247 Y49.196 E322.08000
G0 F9000 X145.681 Y49.196
G1 F1500 X154.201 Y40.677 E322.56194
G0 F9000 X153.635 Y40.677
G1 F1500 X145.115 Y49.196 E323.04387
G0 F9000 X144.550 Y49.196
G1 F1500 X153.070 Y40.677 E323.52581
G0 F9000 X152.504 Y40.677
G1 F1500 X143.984 Y49.196 E324.00774
G0 F9000 X143.418 Y49.196
G1 F1500 X151.938 Y40.677 E324.48968
G0 F9000 X151.373 Y40.677
G1 F1500 X142.853 Y49.196 E324.97161
G0 F9000 X142.287 Y49.196
G1 F1500 X150.807 Y40.677 E325.45355
G0 F9000 X150.241 Y40.677
G1 F1500 X141.721 Y49.196 E325.93549
G0 F9000 X141.156 Y49.196
G1 F1500 X149.676 Y40.677 E326.41742
G0 F9000 X149.110 Y40.677
G1 F1500 X140.590 Y49.196 E326.89936
G0 F9000 X140.024 Y49.196
G1 F1500 X148.544 Y40.677 E327.38129
G0 F9000 X147.979 Y40.677
G1 F1500 X139.459 Y49.196 E327.86323
G0 F9000 X138.893 Y49.196
G1 F1500 X147.413 Y40.677 E328.34516
G0 F9000 X146.847 Y40.677
G1 F1500 X138.327 Y49.196 E328.82710
G0 F9000 X137.762 Y49.196
G1 F1500 X146.282 Y40.677 E329.30904
G0 F9000 X145.716 Y40.677
G1 F1500 X137.196 Y49.196 E329.79097
G0 F9000 X136.630 Y49.196
G1 F1500 X145.150 Y40.677 E330.27291
G0 F9000 X144.584 Y40.677
G1 F1500 X136.065 Y49.196 E330.75481
G0 F9000 X135.499 Y49.196
G1 F1500 X144.019 Y40.677 E331.23675
G0 F9000 X143.453 Y40.677
G1 F1500 X134.933 Y49.196 E331.71869
G0 F9000 X134.367 Y49.196
G1 F1500 X142.887 Y40.677 E332.20062
G0 F9000 X142.322 Y40.677
G1 F1500 X133.802 Y49.196 E332.68256
G0 F9000 X133.236 Y49.196
G1 F1500 X141.756 Y40.677 E333.16449
G0 F9000 X141.190 Y40.677
G1 F1500 X132.670 Y49.196 E333.64643
G0 F9000 X132.105 Y49.196
G1 F1500 X140.625 Y40.677 E334.12836
G0 F9000 X140.059 Y40.677
G1 F1500 X131.539 Y49.196 E334.61030
G0 F9000 X130.973 Y49.196
G1 F1500 X139.493 Y40.677 E335.09224
G0 F9000 X138.928 Y40.677
G1 F1500 X130.408 Y49.196 E335.57417
G0 F9000 X129.842 Y49.196
G1 F1500 X138.362 Y40.677 E336.05611
G0 F9000 X137.796 Y40.677
G1 F1500 X129.276 Y49.196 E336.53804
G0 F9000 X128.711 Y49.196
G1 F1500 X137.231 Y40.677 E337.01998
G0 F9000 X136.665 Y40.677
G1 F1500 X128.145 Y49.196 E337.50191
G0 F9000 X127.579 Y49.196
G1 F1500 X136.099 Y40.677 E337.98385
G0 F9000 X135.533 Y40.677
G1 F1500 X127.014 Y49.196 E338.46576
G0 F9000 X126.448 Y49.196
G1 F1500 X134.968 Y40.677 E338.94769
G0 F9000 X134.402 Y40.677
G1 F1500 X125.882 Y49.196 E339.42963
G0 F9000 X125.316 Y49.196
G1 F1500 X133.836 Y40.677 E339.91156
G0 F9000 X133.271 Y40.677
G1 F1500 X124.751 Y49.196 E340.39350
G0 F9000 X124.185 Y49.196
G1 F1500 X132.705 Y40.677 E340.87544
G0 F9000 X132.139 Y40.677
G1 F1500 X123.619 Y49.196 E341.35737
G0 F9000 X123.054 Y49.196
G1 F1500 X131.574 Y40.677 E341.83931
G0 F9000 X131.008 Y40.677
G1 F1500 X122.488 Y49.196 E342.32124
G0 F9000 X121.922 Y49.196
G1 F1500 X130.442 Y40.677 E342.80318
G0 F9000 X129.877 Y40.677
G1 F1500 X121.357 Y49.196 E343.28511
G0 F9000 X120.791 Y49.196
G1 F1500 X129.311 Y40.677 E343.76705
