;FLAVOR:UltiGCode
;TIME:1225
;MATERIAL:1408
;MATERIAL2:0
;NOZZLE_DIAMETER:0.400000
;NOZZLE_DIAMETER2:0.400000

;Layer count: 48
;LAYER:0
M107
G0 F9000 X88.266 Y8.189 Z0.300
;TYPE:SKIRT
G1 F1200 X104.666 Y8.189 E1.96800
G1 X104.666 Y14.189 E2.68800
G1 X130.765 Y14.189 E5.81988
G1 X130.765 Y8.189 E6.53988
G1 X147.164 Y8.189 E8.50776
G1 X147.164 Y19.527 E9.86832
G1 X147.098 Y20.291 E9.96034
G1 X146.863 Y21.172 E10.06976
G1 X146.479 Y21.995 E10.17874
G1 X145.958 Y22.739 E10.28773
G1 X145.307 Y23.391 E10.39830
G1 X144.545 Y23.916 E10.50934
G1 X143.746 Y24.288 E10.61510
G1 X142.869 Y24.523 E10.72405
G1 X142.103 Y24.589 E10.81631
G1 X130.239 Y24.589 E12.23999
G1 X130.348 Y25.019 E12.29323
G1 X130.525 Y26.110 E12.42586
G1 X130.600 Y27.083 E12.54296
G1 X130.614 Y27.270 E12.56547
G1 X130.600 Y28.211 E12.67840
G1 X130.596 Y28.389 E12.69976
G1 X130.493 Y29.428 E12.82506
G1 X130.293 Y30.510 E12.95710
G1 X130.002 Y31.577 E13.08981
G1 X129.601 Y32.663 E13.22873
G1 X129.214 Y33.423 E13.33108
G1 X128.666 Y34.142 E13.43956
G1 X128.016 Y34.741 E13.54563
G1 X127.317 Y35.206 E13.64637
G1 X126.520 Y35.561 E13.75107
G1 X125.675 Y35.777 E13.85573
G1 X124.941 Y35.839 E13.94413
G1 X120.031 Y35.839 E14.53333
G1 X118.400 Y31.872 E15.04803
G1 X120.275 Y30.017 E15.36453
G1 X120.517 Y29.726 E15.40995
G1 X120.717 Y29.428 E15.45302
G1 X120.883 Y29.114 E15.49564
G1 X121.017 Y28.784 E15.53838
G1 X121.115 Y28.444 E15.58084
G1 X121.160 Y28.195 E15.61121
G1 X121.164 Y27.093 E15.74345
G1 X121.129 Y26.891 E15.76805
G1 X121.033 Y26.540 E15.81171
G1 X120.903 Y26.206 E15.85472
G1 X120.743 Y25.895 E15.89669
G1 X120.547 Y25.591 E15.94010
G1 X120.333 Y25.325 E15.98107
G1 X120.074 Y25.063 E16.02527
G1 X119.801 Y24.836 E16.06788
G1 X119.514 Y24.643 E16.10938
G1 X119.194 Y24.474 E16.15281
G1 X118.862 Y24.338 E16.19586
G1 X118.527 Y24.240 E16.23775
G1 X118.187 Y24.177 E16.27924
G1 X117.792 Y24.145 E16.32680
G1 X117.453 Y24.154 E16.36749
G1 X117.122 Y24.196 E16.40753
G1 X116.771 Y24.275 E16.45070
G1 X116.437 Y24.388 E16.49302
G1 X116.107 Y24.538 E16.53651
G1 X115.805 Y24.714 E16.57846
G1 X115.499 Y24.936 E16.62383
G1 X115.260 Y25.153 E16.66256
G1 X115.014 Y25.423 E16.70639
G1 X114.790 Y25.727 E16.75171
G1 X114.627 Y26.006 E16.79048
G1 X114.472 Y26.341 E16.83478
G1 X114.358 Y26.672 E16.87679
G1 X114.277 Y27.018 E16.91943
G1 X114.233 Y27.363 E16.96117
G1 X114.222 Y27.751 E17.00774
G1 X114.248 Y28.071 E17.04627
G1 X114.312 Y28.432 E17.09027
G1 X114.407 Y28.766 E17.13194
G1 X114.540 Y29.099 E17.17497
G1 X114.704 Y29.411 E17.21726
G1 X114.900 Y29.708 E17.25996
G1 X115.121 Y29.978 E17.30183
G1 X117.031 Y31.885 E17.62572
G1 X115.395 Y35.839 E18.13921
G1 X110.490 Y35.839 E18.72781
G1 X109.756 Y35.777 E18.81620
G1 X108.898 Y35.557 E18.92249
G1 X108.090 Y35.189 E19.02903
G1 X107.393 Y34.726 E19.12945
G1 X106.759 Y34.134 E19.23354
G1 X106.230 Y33.440 E19.33825
G1 X105.855 Y32.727 E19.43492
G1 X105.462 Y31.675 E19.56969
G1 X105.164 Y30.619 E19.70135
G1 X104.954 Y29.532 E19.83421
G1 X104.839 Y28.432 E19.96693
G1 X104.821 Y27.466 E20.08287
G1 X104.816 Y27.284 E20.10471
G1 X104.884 Y26.343 E20.21793
G1 X104.897 Y26.168 E20.23899
G1 X105.062 Y25.123 E20.36594
G1 X105.192 Y24.589 E20.43189
G1 X93.328 Y24.589 E21.85557
G1 X92.564 Y24.523 E21.94759
G1 X91.683 Y24.288 E22.05701
G1 X90.860 Y23.904 E22.16599
G1 X90.116 Y23.383 E22.27498
G1 X89.463 Y22.730 E22.38580
G1 X88.939 Y21.968 E22.49678
G1 X88.567 Y21.172 E22.60221
G1 X88.332 Y20.291 E22.71163
G1 X88.266 Y19.527 E22.80365
G1 X88.266 Y8.189 E24.16421
G10
G0 F9000 X92.066 Y11.989
;TYPE:WALL-INNER
G11
G1 F1200 X100.866 Y11.989 E25.22021
G1 X100.866 Y15.415 E25.63133
G1 X100.903 Y15.841 E25.68264
G1 X101.020 Y16.280 E25.73716
G1 X101.211 Y16.690 E25.79144
G1 X101.471 Y17.062 E25.84590
G1 X101.793 Y17.384 E25.90055
G1 X102.165 Y17.644 E25.95501
G1 X102.575 Y17.835 E26.00929
G1 X103.014 Y17.952 E26.06380
G1 X103.440 Y17.989 E26.11512
G1 X131.991 Y17.989 E29.54124
G1 X132.417 Y17.952 E29.59255
G1 X132.856 Y17.835 E29.64707
G1 X133.266 Y17.644 E29.70134
G1 X133.638 Y17.384 E29.75581
G1 X133.960 Y17.062 E29.81045
G1 X134.220 Y16.690 E29.86492
G1 X134.411 Y16.280 E29.91919
G1 X134.528 Y15.841 E29.97371
G1 X134.565 Y15.415 E30.02502
G1 X134.565 Y11.989 E30.43614
G1 X143.364 Y11.989 E31.49202
G1 X143.364 Y19.360 E32.37654
G1 X143.341 Y19.632 E32.40930
G1 X143.278 Y19.868 E32.43861
G1 X143.175 Y20.088 E32.46776
G1 X143.033 Y20.291 E32.49749
G1 X142.867 Y20.457 E32.52566
G1 X142.649 Y20.607 E32.55742
G1 X142.445 Y20.702 E32.58442
G1 X142.208 Y20.766 E32.61388
G1 X128.589 Y20.789 E34.24816
G1 X128.159 Y20.828 E34.29997
G1 X127.717 Y20.948 E34.35493
G1 X127.302 Y21.144 E34.41001
G1 X126.925 Y21.411 E34.46544
G1 X126.595 Y21.754 E34.52256
G1 X126.347 Y22.116 E34.57522
G1 X126.158 Y22.535 E34.63038
G1 X126.046 Y22.981 E34.68556
G1 X126.015 Y23.438 E34.74052
G1 X126.063 Y23.894 E34.79555
G1 X126.432 Y25.033 E34.93922
G1 X126.625 Y25.797 E35.03378
G1 X126.749 Y26.561 E35.12666
G1 X126.811 Y27.363 E35.22319
G1 X126.812 Y27.373 E35.22439
G1 X126.801 Y28.137 E35.31608
G1 X126.801 Y28.151 E35.31776
G1 X126.728 Y28.894 E35.40735
G1 X126.586 Y29.661 E35.50096
G1 X126.380 Y30.415 E35.59475
G1 X126.113 Y31.138 E35.68724
G1 X125.983 Y31.393 E35.72159
G1 X125.846 Y31.573 E35.74873
G1 X125.663 Y31.742 E35.77862
G1 X125.477 Y31.865 E35.80538
G1 X125.266 Y31.960 E35.83315
G1 X125.041 Y32.017 E35.86100
G1 X123.537 Y32.039 E36.04150
G1 X123.562 Y32.009 E36.04619
G1 X123.980 Y31.385 E36.13631
G1 X124.332 Y30.723 E36.22629
G1 X124.613 Y30.026 E36.31647
G1 X124.821 Y29.306 E36.40640
G1 X124.959 Y28.546 E36.49909
G1 X124.965 Y26.905 E36.69601
G1 X124.965 Y26.770 E36.71221
G1 X124.840 Y26.055 E36.79932
G1 X124.644 Y25.341 E36.88816
G1 X124.375 Y24.650 E36.97715
G1 X124.037 Y23.990 E37.06613
G1 X123.634 Y23.367 E37.15517
G1 X123.170 Y22.788 E37.24420
G1 X122.649 Y22.261 E37.33313
G1 X122.079 Y21.789 E37.42194
G1 X121.462 Y21.375 E37.51110
G1 X120.808 Y21.028 E37.59994
G1 X120.121 Y20.748 E37.68897
G1 X119.409 Y20.540 E37.77798
G1 X118.680 Y20.404 E37.86697
G1 X117.975 Y20.347 E37.95184
G1 X117.907 Y20.341 E37.96004
G1 X117.226 Y20.358 E38.04178
G1 X117.161 Y20.360 E38.04959
G1 X116.463 Y20.448 E38.13401
G1 X115.741 Y20.613 E38.22288
G1 X115.039 Y20.849 E38.31175
G1 X114.363 Y21.155 E38.40080
G1 X113.723 Y21.529 E38.48975
G1 X113.146 Y21.949 E38.57539
G1 X112.571 Y22.463 E38.66794
G1 X112.073 Y23.009 E38.75662
G1 X111.653 Y23.578 E38.84149
G1 X111.611 Y23.634 E38.84989
G1 X111.254 Y24.245 E38.93481
G1 X110.944 Y24.918 E39.02372
G1 X110.702 Y25.617 E39.11249
G1 X110.533 Y26.341 E39.20170
G1 X110.439 Y27.076 E39.29062
G1 X110.417 Y27.853 E39.38390
G1 X110.474 Y28.558 E39.46877
G1 X110.604 Y29.285 E39.55740
G1 X110.808 Y29.999 E39.64651
G1 X111.083 Y30.688 E39.73553
G1 X111.427 Y31.344 E39.82441
G1 X111.835 Y31.962 E39.91328
G1 X111.898 Y32.039 E39.92522
G1 X110.650 Y32.039 E40.07498
G1 X110.390 Y32.017 E40.10629
G1 X110.169 Y31.961 E40.13365
G1 X109.942 Y31.857 E40.16361
G1 X109.756 Y31.734 E40.19037
G1 X109.587 Y31.575 E40.21821
G1 X109.444 Y31.388 E40.24646
G1 X109.330 Y31.171 E40.27588
G1 X109.075 Y30.488 E40.36336
G1 X108.865 Y29.744 E40.45613
G1 X108.717 Y28.977 E40.54987
G1 X108.635 Y28.193 E40.64446
G1 X108.620 Y27.391 E40.74072
G1 X108.620 Y27.370 E40.74324
G1 X108.675 Y26.609 E40.83480
G1 X108.791 Y25.868 E40.92480
G1 X108.975 Y25.113 E41.01805
G1 X109.236 Y24.337 E41.11630
G1 X109.368 Y23.895 E41.17165
G1 X109.416 Y23.438 E41.22679
G1 X109.385 Y22.981 E41.28176
G1 X109.272 Y22.533 E41.33720
G1 X109.074 Y22.100 E41.39434
G1 X108.825 Y21.737 E41.44716
G1 X108.504 Y21.410 E41.50215
G1 X108.129 Y21.144 E41.55732
G1 X107.714 Y20.948 E41.61240
G1 X107.272 Y20.828 E41.66736
G1 X106.842 Y20.789 E41.71917
G1 X93.495 Y20.789 E43.32081
G1 X93.223 Y20.766 E43.35356
G1 X92.987 Y20.703 E43.38288
G1 X92.767 Y20.600 E43.41203
G1 X92.564 Y20.458 E43.44175
G1 X92.396 Y20.290 E43.47026
G1 X92.251 Y20.079 E43.50099
G1 X92.152 Y19.868 E43.52896
G1 X92.089 Y19.632 E43.55827
G1 X92.066 Y11.989 E44.47543
G0 F9000 X94.548 Y14.417
G1 F1200 X94.226 Y14.792 E44.53474
G1 X93.978 Y15.216 E44.59369
G1 X93.812 Y15.657 E44.65023
G1 X93.724 Y16.145 E44.70974
G1 X93.727 Y16.659 E44.77142
G1 X93.820 Y17.144 E44.83068
G1 X93.997 Y17.604 E44.88982
G1 X94.253 Y18.023 E44.94875
G1 X94.565 Y18.381 E45.00573
G1 X94.970 Y18.699 E45.06752
G1 X95.404 Y18.927 E45.12635
G1 X95.853 Y19.073 E45.18301
G1 X96.345 Y19.139 E45.24258
G1 X96.858 Y19.112 E45.30422
G1 X97.338 Y18.998 E45.36343
G1 X97.791 Y18.801 E45.42270
G1 X98.199 Y18.525 E45.48181
G1 X98.553 Y18.182 E45.54096
G1 X98.839 Y17.779 E45.60026
G1 X99.048 Y17.336 E45.65904
G1 X99.174 Y16.880 E45.71581
G1 X99.218 Y16.386 E45.77533
G1 X99.168 Y15.876 E45.83682
G1 X99.032 Y15.400 E45.89623
G1 X98.815 Y14.959 E45.95521
G1 X98.522 Y14.561 E46.01451
G1 X98.161 Y14.225 E46.07369
G1 X97.748 Y13.956 E46.13284
G1 X97.296 Y13.768 E46.19158
G1 X96.835 Y13.662 E46.24835
G1 X96.340 Y13.640 E46.30781
G1 X95.830 Y13.713 E46.36963
G1 X95.365 Y13.869 E46.42849
G1 X94.947 Y14.093 E46.48540
G1 X94.548 Y14.417 E46.54707
G0 F9000 X96.340 Y13.642
G0 X98.160 Y14.226
G0 X102.576 Y17.833
G0 X132.855 Y17.833
G0 X134.219 Y16.689
G0 X136.224 Y16.145
G1 F1200 X136.227 Y16.659 E46.60875
G1 X136.320 Y17.144 E46.66801
G1 X136.497 Y17.604 E46.72716
G1 X136.753 Y18.023 E46.78608
G1 X137.065 Y18.381 E46.84307
G1 X137.470 Y18.699 E46.90486
G1 X137.904 Y18.927 E46.96369
G1 X138.353 Y19.073 E47.02034
G1 X138.845 Y19.139 E47.07991
G1 X139.358 Y19.112 E47.14156
G1 X139.838 Y18.998 E47.20076
G1 X140.291 Y18.801 E47.26004
G1 X140.699 Y18.525 E47.31915
G1 X141.053 Y18.182 E47.37830
G1 X141.339 Y17.779 E47.43760
G1 X141.548 Y17.336 E47.49638
G1 X141.674 Y16.880 E47.55315
G1 X141.718 Y16.386 E47.61266
G1 X141.668 Y15.876 E47.67416
G1 X141.532 Y15.400 E47.73356
G1 X141.315 Y14.959 E47.79254
G1 X141.022 Y14.561 E47.85185
G1 X140.661 Y14.225 E47.91103
G1 X140.248 Y13.956 E47.97017
G1 X139.796 Y13.768 E48.02892
G1 X139.335 Y13.662 E48.08568
G1 X138.840 Y13.640 E48.14514
G1 X138.330 Y13.713 E48.20696
G1 X137.865 Y13.869 E48.26582
G1 X137.447 Y14.093 E48.32273
G1 X137.048 Y14.417 E48.38441
G1 X136.726 Y14.792 E48.44372
G1 X136.478 Y15.216 E48.50266
G1 X136.312 Y15.657 E48.55921
G1 X136.224 Y16.145 E48.61871
G0 F9000 X136.624 Y16.180
;TYPE:WALL-OUTER
G1 F1200 X136.627 Y16.620 E48.67152
G1 X136.706 Y17.034 E48.72209
G1 X136.857 Y17.427 E48.77261
G1 X137.076 Y17.786 E48.82308
G1 X137.342 Y18.090 E48.87155
G1 X137.688 Y18.362 E48.92436
G1 X138.060 Y18.557 E48.97476
G1 X138.442 Y18.682 E49.02300
G1 X138.861 Y18.738 E49.07372
G1 X139.301 Y18.715 E49.12660
G1 X139.711 Y18.617 E49.17718
G1 X140.097 Y18.449 E49.22770
G1 X140.446 Y18.213 E49.27826
G1 X140.748 Y17.920 E49.32875
G1 X140.992 Y17.576 E49.37936
G1 X141.171 Y17.197 E49.42966
G1 X141.279 Y16.809 E49.47799
G1 X141.316 Y16.388 E49.52870
G1 X141.273 Y15.951 E49.58139
G1 X141.157 Y15.545 E49.63206
G1 X140.972 Y15.168 E49.68246
G1 X140.722 Y14.828 E49.73310
G1 X140.414 Y14.541 E49.78362
G1 X140.061 Y14.311 E49.83418
G1 X139.673 Y14.150 E49.88459
G1 X139.281 Y14.060 E49.93285
G1 X138.859 Y14.041 E49.98354
G1 X138.423 Y14.104 E50.03640
G1 X138.024 Y14.238 E50.08691
G1 X137.670 Y14.428 E50.13512
G1 X137.328 Y14.705 E50.18794
G1 X137.053 Y15.025 E50.23857
G1 X136.841 Y15.389 E50.28912
G1 X136.699 Y15.764 E50.33723
G1 X136.624 Y16.180 E50.38796
G0 F9000 X136.330 Y16.127
G0 X134.431 Y15.798
G0 X134.133 Y15.772
G1 F1200 X134.165 Y15.398 E50.43300
G1 X134.165 Y11.589 E50.89008
G1 X143.764 Y11.589 E52.04196
G1 X143.764 Y19.389 E52.97796
G1 X143.737 Y19.701 E53.01554
G1 X143.656 Y20.005 E53.05330
G1 X143.524 Y20.287 E53.09066
G1 X143.340 Y20.550 E53.12918
G1 X143.126 Y20.764 E53.16549
G1 X142.845 Y20.958 E53.20647
G1 X142.582 Y21.080 E53.24126
G1 X142.277 Y21.162 E53.27916
G1 X141.960 Y21.189 E53.31734
G1 X128.607 Y21.189 E54.91970
G1 X128.230 Y21.223 E54.96512
G1 X127.856 Y21.325 E55.01164
G1 X127.505 Y21.491 E55.05823
G1 X127.187 Y21.716 E55.10498
G1 X126.906 Y22.007 E55.15352
G1 X126.697 Y22.313 E55.19799
G1 X126.537 Y22.667 E55.24461
G1 X126.443 Y23.044 E55.29123
G1 X126.416 Y23.431 E55.33778
G1 X126.457 Y23.816 E55.38425
G1 X126.814 Y24.912 E55.52257
G1 X127.018 Y25.718 E55.62234
G1 X127.147 Y26.514 E55.71910
G1 X127.210 Y27.334 E55.81779
G1 X127.212 Y27.359 E55.82080
G1 X127.201 Y28.146 E55.91525
G1 X127.200 Y28.182 E55.91957
G1 X127.125 Y28.943 E56.01134
G1 X126.975 Y29.754 E56.11031
G1 X126.762 Y30.537 E56.20768
G1 X126.479 Y31.301 E56.30545
G1 X126.324 Y31.607 E56.34661
G1 X126.144 Y31.842 E56.38213
G1 X125.911 Y32.057 E56.42018
G1 X125.672 Y32.216 E56.45462
G1 X125.399 Y32.338 E56.49051
G1 X125.103 Y32.414 E56.52718
G1 X124.802 Y32.439 E56.56342
G1 X122.662 Y32.439 E56.82022
G1 X122.788 Y32.314 E56.84152
G1 X123.241 Y31.769 E56.92656
G1 X123.636 Y31.180 E57.01167
G1 X123.969 Y30.554 E57.09675
G1 X124.234 Y29.895 E57.18199
G1 X124.431 Y29.215 E57.26694
G1 X124.559 Y28.509 E57.35304
G1 X124.565 Y26.805 E57.55753
G1 X124.449 Y26.142 E57.63829
G1 X124.264 Y25.467 E57.72228
G1 X124.010 Y24.814 E57.80636
G1 X123.690 Y24.191 E57.89041
G1 X123.309 Y23.602 E57.97458
G1 X122.871 Y23.055 E58.05867
G1 X122.378 Y22.556 E58.14285
G1 X121.840 Y22.110 E58.22671
G1 X121.257 Y21.719 E58.31095
G1 X120.638 Y21.391 E58.39501
G1 X119.989 Y21.126 E58.47913
G1 X119.316 Y20.929 E58.56328
G1 X118.627 Y20.801 E58.64738
G1 X117.940 Y20.746 E58.73008
G1 X117.894 Y20.742 E58.73562
G1 X117.193 Y20.759 E58.81977
G1 X116.532 Y20.843 E58.89972
G1 X115.850 Y20.998 E58.98365
G1 X115.186 Y21.222 E59.06774
G1 X114.547 Y21.511 E59.15190
G1 X113.942 Y21.864 E59.23595
G1 X113.383 Y22.271 E59.31893
G1 X112.854 Y22.746 E59.40425
G1 X112.382 Y23.263 E59.48825
G1 X111.973 Y23.818 E59.57098
G1 X111.609 Y24.430 E59.65643
G1 X111.315 Y25.067 E59.74062
G1 X111.087 Y25.728 E59.82453
G1 X110.927 Y26.412 E59.90882
G1 X110.838 Y27.107 E59.99290
G1 X110.818 Y27.842 E60.08114
G1 X110.871 Y28.507 E60.16119
G1 X110.994 Y29.195 E60.24506
G1 X111.187 Y29.870 E60.32930
G1 X111.447 Y30.521 E60.41342
G1 X111.772 Y31.141 E60.49743
G1 X112.158 Y31.725 E60.58143
G1 X112.600 Y32.267 E60.66536
G1 X112.772 Y32.439 E60.69454
G1 X110.629 Y32.439 E60.95170
G1 X110.328 Y32.414 E60.98795
G1 X110.032 Y32.338 E61.02462
G1 X109.749 Y32.209 E61.06194
G1 X109.507 Y32.048 E61.09682
G1 X109.287 Y31.843 E61.13291
G1 X109.107 Y31.606 E61.16862
G1 X108.964 Y31.334 E61.20550
G1 X108.693 Y30.609 E61.29837
G1 X108.475 Y29.835 E61.39487
G1 X108.321 Y29.038 E61.49228
G1 X108.236 Y28.222 E61.59073
G1 X108.219 Y27.358 E61.69443
G1 X108.277 Y26.563 E61.79008
G1 X108.400 Y25.783 E61.88484
G1 X108.589 Y25.008 E61.98056
G1 X108.855 Y24.216 E62.08082
G1 X108.974 Y23.816 E62.13090
G1 X109.015 Y23.431 E62.17736
G1 X108.988 Y23.044 E62.22391
G1 X108.893 Y22.666 E62.27068
G1 X108.725 Y22.298 E62.31923
G1 X108.515 Y21.992 E62.36376
G1 X108.243 Y21.715 E62.41035
G1 X107.926 Y21.491 E62.45693
G1 X107.575 Y21.325 E62.50352
G1 X107.201 Y21.223 E62.55004
G1 X106.824 Y21.189 E62.59546
G1 X93.471 Y21.189 E64.19782
G1 X93.154 Y21.162 E64.23600
G1 X92.850 Y21.081 E64.27375
G1 X92.568 Y20.949 E64.31112
G1 X92.305 Y20.765 E64.34964
G1 X92.089 Y20.549 E64.38629
G1 X91.900 Y20.274 E64.42633
G1 X91.774 Y20.005 E64.46198
G1 X91.693 Y19.701 E64.49973
G1 X91.666 Y19.389 E64.53731
G1 X91.666 Y11.589 E65.47331
G1 X101.266 Y11.589 E66.62531
G1 X101.266 Y15.398 E67.08239
G1 X101.298 Y15.772 E67.12744
G1 X101.397 Y16.143 E67.17351
G1 X101.559 Y16.489 E67.21936
G1 X101.779 Y16.804 E67.26547
G1 X102.051 Y17.076 E67.31163
G1 X102.366 Y17.296 E67.35773
G1 X102.712 Y17.458 E67.40358
G1 X103.083 Y17.557 E67.44966
G1 X103.457 Y17.589 E67.49470
G1 X131.974 Y17.589 E70.91674
G1 X132.348 Y17.557 E70.96178
G1 X132.719 Y17.458 E71.00786
G1 X133.065 Y17.296 E71.05371
G1 X133.380 Y17.076 E71.09981
G1 X133.652 Y16.804 E71.14597
G1 X133.872 Y16.489 E71.19208
G1 X134.034 Y16.143 E71.23793
G1 X134.133 Y15.772 E71.28400
G0 F9000 X134.431 Y15.798
G0 X133.959 Y17.061
G0 X132.416 Y17.952
G0 X102.576 Y17.833
G0 X101.212 Y16.689
G0 X99.114 Y16.413
G0 X98.816 Y16.388
