;FLAVOR:UltiGCode
;TIME:1091
;MATERIAL:1245
;MATERIAL2:0
;NOZZLE_DIAMETER:0.400000
;NOZZLE_DIAMETER2:0.400000

;Layer count: 38
;LAYER:0
M107
G0 F9000 X83.402 Y16.881 Z0.300
;TYPE:SKIRT
G1 F1200 X99.802 Y16.881 E1.96800
G1 X99.802 Y22.881 E2.68800
G1 X125.901 Y22.881 E5.81988
G1 X125.901 Y16.881 E6.53988
G1 X142.301 Y16.881 E8.50788
G1 X142.301 Y28.219 E9.86844
G1 X142.235 Y28.983 E9.96046
G1 X141.999 Y29.865 E10.07002
G1 X141.613 Y30.691 E10.17943
G1 X141.094 Y31.429 E10.28770
G1 X140.454 Y32.073 E10.39665
G1 X139.705 Y32.596 E10.50628
G1 X138.886 Y32.977 E10.61467
G1 X138.009 Y33.215 E10.72372
G1 X137.401 Y33.267 E10.79694
G1 X137.401 Y40.719 E11.69118
G1 X137.335 Y41.483 E11.78320
G1 X137.099 Y42.365 E11.89277
G1 X136.713 Y43.191 E12.00218
G1 X136.194 Y43.929 E12.11044
G1 X135.554 Y44.573 E12.21939
G1 X134.805 Y45.096 E12.32902
G1 X133.986 Y45.477 E12.43741
G1 X133.109 Y45.715 E12.54646
G1 X132.339 Y45.781 E12.63920
G1 X126.601 Y45.781 E13.32776
G1 X126.601 Y33.281 E14.82776
G1 X109.402 Y33.281 E16.89164
G1 X109.402 Y45.781 E18.39164
G1 X103.664 Y45.781 E19.08020
G1 X102.896 Y45.715 E19.17270
G1 X102.018 Y45.478 E19.28183
G1 X101.196 Y45.095 E19.39065
G1 X100.451 Y44.573 E19.49981
G1 X99.810 Y43.932 E19.60859
G1 X99.288 Y43.187 E19.71775
G1 X98.904 Y42.361 E19.82706
G1 X98.670 Y41.487 E19.93563
G1 X98.602 Y40.724 E20.02756
G1 X98.602 Y33.281 E20.92072
G1 X88.464 Y33.281 E22.13728
G1 X87.696 Y33.215 E22.22978
G1 X86.818 Y32.978 E22.33891
G1 X85.996 Y32.595 E22.44773
G1 X85.251 Y32.073 E22.55689
G1 X84.610 Y31.432 E22.66567
G1 X84.088 Y30.687 E22.77483
G1 X83.704 Y29.861 E22.88414
G1 X83.470 Y28.987 E22.99271
G1 X83.402 Y28.224 E23.08464
G1 X83.402 Y16.881 E24.44580
G10
G0 F9000 X87.202 Y20.681
;TYPE:WALL-INNER
G11
G1 F1200 X96.002 Y20.681 E25.50180
G1 X96.002 Y24.108 E25.91304
G1 X96.040 Y24.533 E25.96424
G1 X96.157 Y24.971 E26.01864
G1 X96.348 Y25.382 E26.07303
G1 X96.609 Y25.753 E26.12746
G1 X96.930 Y26.074 E26.18194
G1 X97.301 Y26.335 E26.23637
G1 X97.712 Y26.526 E26.29076
G1 X98.150 Y26.644 E26.34519
G1 X98.576 Y26.681 E26.39650
G1 X127.127 Y26.681 E29.82262
G1 X127.554 Y26.644 E29.87405
G1 X127.991 Y26.526 E29.92837
G1 X128.402 Y26.335 E29.98276
G1 X128.775 Y26.074 E30.03739
G1 X129.095 Y25.753 E30.09178
G1 X129.354 Y25.383 E30.14598
G1 X129.547 Y24.971 E30.20057
G1 X129.664 Y24.532 E30.25509
G1 X129.701 Y24.107 E30.30628
G1 X129.701 Y20.681 E30.71740
G1 X138.501 Y20.681 E31.77340
G1 X138.501 Y28.052 E32.65792
G1 X138.478 Y28.323 E32.69056
G1 X138.413 Y28.563 E32.72040
G1 X138.314 Y28.776 E32.74858
G1 X138.170 Y28.981 E32.77865
G1 X138.003 Y29.149 E32.80707
G1 X137.798 Y29.292 E32.83707
G1 X137.578 Y29.394 E32.86617
G1 X137.346 Y29.457 E32.89501
G1 X137.072 Y29.481 E32.92802
G1 X136.175 Y29.481 E33.03566
G1 X135.749 Y29.518 E33.08697
G1 X135.311 Y29.636 E33.14141
G1 X134.900 Y29.827 E33.19579
G1 X134.529 Y30.087 E33.25016
G1 X134.208 Y30.407 E33.30455
G1 X133.947 Y30.780 E33.35918
G1 X133.756 Y31.191 E33.41356
G1 X133.639 Y31.629 E33.46796
G1 X133.601 Y32.054 E33.51917
G1 X133.601 Y35.025 E33.87569
G1 X133.409 Y34.843 E33.90743
G1 X133.036 Y34.628 E33.95910
G1 X132.623 Y34.505 E34.01081
G1 X132.194 Y34.480 E34.06238
G1 X131.770 Y34.554 E34.11403
G1 X131.373 Y34.725 E34.16590
G1 X131.029 Y34.983 E34.21750
G1 X130.753 Y35.312 E34.26903
G1 X130.559 Y35.697 E34.32076
G1 X130.460 Y36.116 E34.37243
G1 X130.460 Y36.546 E34.42403
G1 X130.559 Y36.964 E34.47558
G1 X130.752 Y37.350 E34.52736
G1 X131.030 Y37.680 E34.57914
G1 X131.374 Y37.936 E34.63060
G1 X131.769 Y38.107 E34.68225
G1 X132.193 Y38.182 E34.73392
G1 X132.623 Y38.157 E34.78561
G1 X133.036 Y38.034 E34.83732
G1 X133.409 Y37.818 E34.88904
G1 X133.601 Y37.636 E34.92079
G1 X133.601 Y40.552 E35.27071
G1 X133.578 Y40.823 E35.30334
G1 X133.513 Y41.063 E35.33318
G1 X133.414 Y41.276 E35.36137
G1 X133.270 Y41.481 E35.39143
G1 X133.103 Y41.649 E35.41986
G1 X132.898 Y41.792 E35.44985
G1 X132.678 Y41.894 E35.47895
G1 X132.446 Y41.957 E35.50780
G1 X132.172 Y41.981 E35.54080
G1 X130.401 Y41.981 E35.75332
G1 X130.401 Y29.481 E37.25332
G1 X105.602 Y29.481 E40.22920
G1 X105.602 Y41.981 E41.72920
G1 X103.831 Y41.981 E41.94172
G1 X103.556 Y41.957 E41.97485
G1 X103.326 Y41.895 E42.00343
G1 X103.104 Y41.792 E42.03280
G1 X102.902 Y41.650 E42.06243
G1 X102.733 Y41.481 E42.09111
G1 X102.591 Y41.279 E42.12074
G1 X102.490 Y41.062 E42.14946
G1 X102.426 Y40.823 E42.17915
G1 X102.402 Y40.550 E42.21204
G1 X102.402 Y37.646 E42.56052
G1 X102.431 Y37.680 E42.56588
G1 X102.775 Y37.936 E42.61734
G1 X103.170 Y38.107 E42.66899
G1 X103.594 Y38.182 E42.72066
G1 X104.024 Y38.157 E42.77235
G1 X104.437 Y38.034 E42.82406
G1 X104.810 Y37.818 E42.87578
G1 X105.123 Y37.522 E42.92748
G1 X105.359 Y37.163 E42.97903
G1 X105.507 Y36.758 E43.03078
G1 X105.556 Y36.331 E43.08235
G1 X105.507 Y35.904 E43.13393
G1 X105.359 Y35.499 E43.18567
G1 X105.123 Y35.139 E43.23733
G1 X104.810 Y34.843 E43.28902
G1 X104.437 Y34.628 E43.34069
G1 X104.024 Y34.505 E43.39240
G1 X103.595 Y34.480 E43.44396
G1 X103.171 Y34.554 E43.49561
G1 X102.774 Y34.725 E43.54748
G1 X102.430 Y34.983 E43.59908
G1 X102.402 Y35.016 E43.60428
G1 X102.402 Y32.055 E43.95960
G1 X102.365 Y31.630 E44.01079
G1 X102.248 Y31.191 E44.06531
G1 X102.055 Y30.780 E44.11980
G1 X101.796 Y30.408 E44.17419
G1 X101.475 Y30.087 E44.22867
G1 X101.103 Y29.827 E44.28313
G1 X100.692 Y29.636 E44.33751
G1 X100.255 Y29.518 E44.39183
G1 X99.828 Y29.481 E44.44326
G1 X88.631 Y29.481 E45.78690
G1 X88.356 Y29.457 E45.82003
G1 X88.126 Y29.395 E45.84862
G1 X87.904 Y29.292 E45.87798
G1 X87.702 Y29.150 E45.90761
G1 X87.533 Y28.981 E45.93629
G1 X87.391 Y28.779 E45.96592
G1 X87.290 Y28.562 E45.99465
G1 X87.226 Y28.323 E46.02434
G1 X87.202 Y28.050 E46.05722
G1 X87.202 Y20.681 E46.94150
G0 F9000 X89.513 Y23.291
G1 F1200 X89.238 Y23.672 E46.99789
G1 X89.019 Y24.139 E47.05978
G1 X88.894 Y24.589 E47.11583
G1 X88.849 Y25.084 E47.17547
G1 X88.901 Y25.599 E47.23759
G1 X89.027 Y26.051 E47.29390
G1 X89.255 Y26.514 E47.35583
G1 X89.531 Y26.894 E47.41219
G1 X89.912 Y27.250 E47.47476
G1 X90.326 Y27.516 E47.53381
G1 X90.778 Y27.705 E47.59260
G1 X91.233 Y27.808 E47.64858
G1 X91.726 Y27.831 E47.70781
G1 X92.218 Y27.764 E47.76739
G1 X92.708 Y27.599 E47.82943
G1 X93.122 Y27.376 E47.88586
G1 X93.521 Y27.050 E47.94769
G1 X93.831 Y26.697 E48.00407
G1 X94.091 Y26.250 E48.06612
G1 X94.256 Y25.814 E48.12206
G1 X94.345 Y25.325 E48.18171
G1 X94.339 Y24.805 E48.24411
G1 X94.246 Y24.323 E48.30302
G1 X94.081 Y23.884 E48.35930
G1 X93.811 Y23.440 E48.42165
G1 X93.481 Y23.071 E48.48106
G1 X93.095 Y22.772 E48.53965
G1 X92.684 Y22.550 E48.59570
G1 X92.215 Y22.398 E48.65487
G1 X91.724 Y22.331 E48.71433
G1 X91.204 Y22.359 E48.77682
G1 X90.723 Y22.474 E48.83617
G1 X90.273 Y22.674 E48.89526
G1 X89.865 Y22.949 E48.95431
G1 X89.513 Y23.291 E49.01320
G0 F9000 X91.205 Y22.361
G0 X93.094 Y22.773
G0 X97.712 Y26.524
G0 X127.991 Y26.524
G0 X129.353 Y25.382
G0 X131.348 Y25.084
G1 F1200 X131.400 Y25.599 E49.07531
G1 X131.525 Y26.051 E49.13159
G1 X131.755 Y26.515 E49.19374
G1 X132.030 Y26.894 E49.24993
G1 X132.411 Y27.250 E49.31250
G1 X132.825 Y27.516 E49.37155
G1 X133.277 Y27.705 E49.43034
G1 X133.732 Y27.808 E49.48632
G1 X134.225 Y27.831 E49.54555
G1 X134.717 Y27.764 E49.60513
G1 X135.207 Y27.599 E49.66718
G1 X135.621 Y27.376 E49.72360
G1 X136.020 Y27.050 E49.78543
G1 X136.330 Y26.697 E49.84181
G1 X136.590 Y26.250 E49.90386
G1 X136.755 Y25.814 E49.95980
G1 X136.844 Y25.325 E50.01945
G1 X136.838 Y24.805 E50.08185
G1 X136.745 Y24.323 E50.14076
G1 X136.580 Y23.884 E50.19704
G1 X136.310 Y23.440 E50.25940
G1 X135.980 Y23.071 E50.31880
G1 X135.594 Y22.772 E50.37739
G1 X135.183 Y22.550 E50.43345
G1 X134.714 Y22.398 E50.49261
G1 X134.223 Y22.331 E50.55207
G1 X133.703 Y22.359 E50.61456
G1 X133.222 Y22.474 E50.67391
G1 X132.772 Y22.674 E50.73300
G1 X132.364 Y22.949 E50.79205
G1 X132.012 Y23.291 E50.85094
G1 X131.737 Y23.672 E50.90733
G1 X131.517 Y24.139 E50.96927
G1 X131.393 Y24.589 E51.02529
G1 X131.348 Y25.084 E51.08493
G0 F9000 X131.750 Y25.082
;TYPE:WALL-OUTER
G1 F1200 X131.795 Y25.525 E51.13836
G1 X131.900 Y25.908 E51.18602
G1 X132.098 Y26.307 E51.23947
G1 X132.331 Y26.628 E51.28707
G1 X132.658 Y26.933 E51.34073
G1 X133.012 Y27.161 E51.39126
G1 X133.399 Y27.322 E51.44156
G1 X133.786 Y27.410 E51.48918
G1 X134.207 Y27.430 E51.53976
G1 X134.626 Y27.373 E51.59050
G1 X135.047 Y27.231 E51.64382
G1 X135.398 Y27.042 E51.69166
G1 X135.741 Y26.761 E51.74486
G1 X136.004 Y26.462 E51.79265
G1 X136.227 Y26.078 E51.84594
G1 X136.368 Y25.707 E51.89356
G1 X136.443 Y25.291 E51.94429
G1 X136.439 Y24.845 E51.99781
G1 X136.359 Y24.432 E52.04829
G1 X136.219 Y24.060 E52.09599
G1 X135.987 Y23.679 E52.14952
G1 X135.706 Y23.365 E52.20008
G1 X135.375 Y23.108 E52.25037
G1 X135.025 Y22.919 E52.29810
G1 X134.625 Y22.789 E52.34857
G1 X134.206 Y22.732 E52.39932
G1 X133.761 Y22.756 E52.45279
G1 X133.351 Y22.855 E52.50341
G1 X132.966 Y23.025 E52.55391
G1 X132.617 Y23.260 E52.60440
G1 X132.316 Y23.554 E52.65489
G1 X132.083 Y23.876 E52.70259
G1 X131.894 Y24.278 E52.75589
G1 X131.788 Y24.661 E52.80358
G1 X131.750 Y25.082 E52.85431
G0 F9000 X131.452 Y25.056
G0 X129.566 Y24.490
G0 X129.269 Y24.463
G1 F1200 X129.301 Y24.090 E52.89923
G1 X129.301 Y20.281 E53.35631
G1 X138.901 Y20.281 E54.50831
G1 X138.901 Y28.081 E55.44431
G1 X138.874 Y28.392 E55.48177
G1 X138.793 Y28.696 E55.51952
G1 X138.660 Y28.979 E55.55705
G1 X138.478 Y29.238 E55.59503
G1 X138.259 Y29.458 E55.63228
G1 X137.997 Y29.641 E55.67063
G1 X137.718 Y29.771 E55.70757
G1 X137.413 Y29.854 E55.74550
G1 X137.096 Y29.881 E55.78368
G1 X136.192 Y29.881 E55.89216
G1 X135.819 Y29.913 E55.93708
G1 X135.448 Y30.013 E55.98319
G1 X135.101 Y30.175 E56.02915
G1 X134.787 Y30.395 E56.07515
G1 X134.515 Y30.666 E56.12123
G1 X134.295 Y30.981 E56.16733
G1 X134.133 Y31.328 E56.21329
G1 X134.034 Y31.699 E56.25937
G1 X134.001 Y32.072 E56.30430
G1 X134.001 Y40.581 E57.32538
G1 X133.974 Y40.892 E57.36284
G1 X133.893 Y41.196 E57.40059
G1 X133.760 Y41.479 E57.43812
G1 X133.578 Y41.738 E57.47610
G1 X133.359 Y41.958 E57.51335
G1 X133.097 Y42.141 E57.55170
G1 X132.818 Y42.271 E57.58864
G1 X132.513 Y42.354 E57.62657
G1 X132.196 Y42.381 E57.66475
G1 X130.001 Y42.381 E57.92815
G1 X130.001 Y29.881 E59.42815
G1 X106.002 Y29.881 E62.30803
G1 X106.002 Y42.381 E63.80803
G1 X103.807 Y42.381 E64.07143
G1 X103.491 Y42.354 E64.10949
G1 X103.185 Y42.271 E64.14753
G1 X102.906 Y42.141 E64.18447
G1 X102.642 Y41.956 E64.22315
G1 X102.427 Y41.741 E64.25964
G1 X102.242 Y41.477 E64.29833
G1 X102.112 Y41.198 E64.33526
G1 X102.030 Y40.893 E64.37316
G1 X102.002 Y40.574 E64.41159
G1 X102.002 Y32.072 E65.43183
G1 X101.970 Y31.699 E65.47675
G1 X101.871 Y31.328 E65.52283
G1 X101.708 Y30.981 E65.56884
G1 X101.488 Y30.666 E65.61494
G1 X101.217 Y30.395 E65.66093
G1 X100.902 Y30.175 E65.70704
G1 X100.555 Y30.013 E65.75299
G1 X100.185 Y29.913 E65.79899
G1 X99.811 Y29.881 E65.84403
G1 X88.607 Y29.881 E67.18851
G1 X88.291 Y29.854 E67.22657
G1 X87.985 Y29.771 E67.26462
G1 X87.706 Y29.641 E67.30155
G1 X87.442 Y29.456 E67.34024
G1 X87.227 Y29.241 E67.37672
G1 X87.042 Y28.977 E67.41541
G1 X86.912 Y28.698 E67.45234
G1 X86.830 Y28.393 E67.49024
G1 X86.802 Y28.074 E67.52867
G1 X86.802 Y20.281 E68.46383
G1 X96.402 Y20.281 E69.61583
G1 X96.402 Y24.090 E70.07291
G1 X96.435 Y24.463 E70.11784
G1 X96.534 Y24.834 E70.16392
G1 X96.696 Y25.181 E70.20988
G1 X96.916 Y25.495 E70.25588
G1 X97.188 Y25.767 E70.30204
G1 X97.502 Y25.987 E70.34805
G1 X97.849 Y26.149 E70.39401
G1 X98.220 Y26.249 E70.44012
G1 X98.593 Y26.281 E70.48504
G1 X127.110 Y26.281 E73.90708
G1 X127.484 Y26.249 E73.95212
G1 X127.854 Y26.149 E73.99812
G1 X128.201 Y25.987 E74.04407
G1 X128.516 Y25.767 E74.09018
G1 X128.787 Y25.495 E74.13625
G1 X129.007 Y25.182 E74.18216
G1 X129.170 Y24.834 E74.22828
G1 X129.269 Y24.463 E74.27435
G0 F9000 X129.566 Y24.490
G0 X131.768 Y34.665
G0 X131.885 Y34.940
G1 F1200 X131.575 Y35.074 E74.31488
G1 X131.306 Y35.276 E74.35525
G1 X131.089 Y35.533 E74.39561
G1 X130.938 Y35.834 E74.43602
G1 X130.860 Y36.163 E74.47660
G1 X130.860 Y36.499 E74.51692
G1 X130.938 Y36.827 E74.55737
G1 X131.089 Y37.129 E74.59789
G1 X131.306 Y37.387 E74.63835
G1 X131.575 Y37.587 E74.67857
G1 X131.885 Y37.721 E74.71910
G1 X132.217 Y37.780 E74.75956
G1 X132.553 Y37.760 E74.79995
G1 X132.877 Y37.664 E74.84050
G1 X133.168 Y37.495 E74.88089
G1 X133.413 Y37.263 E74.92138
G1 X133.598 Y36.982 E74.96175
G1 X133.714 Y36.665 E75.00225
G1 X133.752 Y36.331 E75.04259
G1 X133.714 Y35.997 E75.08293
G1 X133.598 Y35.680 E75.12344
G1 X133.413 Y35.398 E75.16391
G1 X133.168 Y35.166 E75.20440
G1 X132.877 Y34.998 E75.24472
G1 X132.553 Y34.902 E75.28527
G1 X132.217 Y34.882 E75.32566
G1 X131.885 Y34.940 E75.36611
G0 F9000 X131.768 Y34.665
G0 X130.342 Y29.540
G0 X105.661 Y29.540
G0 X105.451 Y36.365
G0 X105.153 Y36.331
G1 F1200 X105.115 Y35.997 E75.40645
G1 X104.999 Y35.680 E75.44695
G1 X104.814 Y35.398 E75.48743
G1 X104.569 Y35.166 E75.52791
G1 X104.278 Y34.998 E75.56824
G1 X103.954 Y34.902 E75.60879
G1 X103.618 Y34.882 E75.64918
G1 X103.286 Y34.940 E75.68962
G1 X102.976 Y35.074 E75.73015
G1 X102.707 Y35.276 E75.77052
G1 X102.490 Y35.533 E75.81088
G1 X102.339 Y35.834 E75.85129
G1 X102.261 Y36.163 E75.89186
G1 X102.261 Y36.499 E75.93218
G1 X102.339 Y36.827 E75.97264
G1 X102.490 Y37.129 E76.01316
G1 X102.707 Y37.387 E76.05361
G1 X102.976 Y37.587 E76.09384
G1 X103.286 Y37.721 E76.13437
G1 X103.618 Y37.780 E76.17483
G1 X103.954 Y37.760 E76.21522
G1 X104.278 Y37.664 E76.25577
G1 X104.569 Y37.495 E76.29615
G1 X104.814 Y37.263 E76.33664
G1 X104.999 Y36.982 E76.37702
G1 X105.115 Y36.665 E76.41752
G1 X105.153 Y36.331 E76.45786
G0 F9000 X105.451 Y36.365
G0 X105.122 Y35.140
G0 X103.596 Y34.482
G0 X102.431 Y34.984
G0 X102.247 Y31.191
G0 X101.102 Y29.828
G0 X99.827 Y29.482
G0 X93.764 Y26.613
G0 X93.505 Y26.462
G1 F1200 X93.728 Y26.078 E76.51115
G1 X93.869 Y25.707 E76.55877
G1 X93.944 Y25.291 E76.60950
G1 X93.940 Y24.845 E76.66302
G1 X93.860 Y24.432 E76.71350
G1 X93.720 Y24.060 E76.76120
G1 X93.488 Y23.679 E76.81473
G1 X93.207 Y23.365 E76.86529
G1 X92.876 Y23.108 E76.91558
G1 X92.526 Y22.919 E76.96331
G1 X92.126 Y22.789 E77.01378
G1 X91.707 Y22.732 E77.06453
G1 X91.262 Y22.756 E77.11800
G1 X90.852 Y22.855 E77.16862
G1 X90.467 Y23.025 E77.21912
G1 X90.118 Y23.260 E77.26961
G1 X89.817 Y23.554 E77.32010
G1 X89.584 Y23.876 E77.36780
G1 X89.396 Y24.278 E77.42105
G1 X89.289 Y24.661 E77.46877
G1 X89.251 Y25.082 E77.51950
G1 X89.296 Y25.525 E77.57293
G1 X89.402 Y25.908 E77.62062
G1 X89.599 Y26.307 E77.67402
G1 X89.832 Y26.628 E77.72161
G1 X90.159 Y26.933 E77.77527
G1 X90.513 Y27.161 E77.82580
G1 X90.900 Y27.322 E77.87610
G1 X91.287 Y27.410 E77.92373
G1 X91.708 Y27.430 E77.97430
G1 X92.127 Y27.373 E78.02505
G1 X92.548 Y27.231 E78.07836
G1 X92.899 Y27.042 E78.12620
G1 X93.242 Y26.761 E78.17941
G1 X93.505 Y26.462 E78.22719
G0 F9000 X93.882 Y26.848
;TYPE:SKIN
G1 F1200 X96.374 Y29.340 E78.65010
G0 F9000 X95.808 Y29.340
G1 F1200 X93.617 Y27.149 E79.02193
G0 F9000 X93.307 Y27.405
G1 F1200 X95.243 Y29.340 E79.35039
G0 F9000 X94.677 Y29.340
G1 F1200 X92.959 Y27.622 E79.64195
G0 F9000 X92.565 Y27.794
G1 F1200 X94.111 Y29.340 E79.90431
G0 F9000 X93.545 Y29.340
G1 F1200 X92.124 Y27.919 E80.14546
G0 F9000 X91.605 Y27.966
G1 F1200 X92.980 Y29.340 E80.37872
G0 F9000 X92.414 Y29.340
G1 F1200 X90.964 Y27.890 E80.62480
G0 F9000 X89.947 Y27.439
G1 F1200 X91.848 Y29.340 E80.94741
G0 F9000 X91.283 Y29.340
G1 F1200 X87.341 Y25.398 E81.61639
G0 F9000 X87.341 Y25.964
G1 F1200 X90.717 Y29.340 E82.18931
G0 F9000 X90.151 Y29.340
G1 F1200 X87.341 Y26.529 E82.66627
G0 F9000 X87.341 Y27.095
G1 F1200 X89.586 Y29.340 E83.04726
G0 F9000 X89.020 Y29.340
G1 F1200 X87.341 Y27.661 E83.33219
G0 F9000 X87.358 Y28.243
G1 F1200 X88.437 Y29.323 E83.51539
G0 F9000 X89.238 Y26.730
G1 F1200 X87.341 Y24.832 E83.83741
G0 F9000 X87.341 Y24.267
G1 F1200 X88.787 Y25.713 E84.08280
G0 F9000 X88.709 Y25.069
G1 F1200 X87.341 Y23.701 E84.31496
G0 F9000 X87.341 Y23.135
G1 F1200 X88.758 Y24.552 E84.55543
G0 F9000 X88.881 Y24.110
G1 F1200 X87.341 Y22.570 E84.81678
G0 F9000 X87.341 Y22.004
