;FLAVOR:UltiGCode
;TIME:682
;MATERIAL:884
;MATERIAL2:0
;NOZZLE_DIAMETER:0.400000
;NOZZLE_DIAMETER2:0.400000

;Layer count: 53
;LAYER:0
M107
G0 F9000 X99.719 Y57.616 Z0.300
;TYPE:SKIRT
G1 F1200 X110.423 Y57.616 E1.28448
G1 X110.423 Y43.663 E2.95884
G1 X110.458 Y42.454 E3.10398
G1 X110.683 Y41.492 E3.22254
G1 X111.024 Y40.670 E3.32933
G1 X111.483 Y39.921 E3.43474
G1 X112.055 Y39.249 E3.54064
G1 X112.727 Y38.677 E3.64654
G1 X113.476 Y38.218 E3.75195
G1 X114.290 Y37.880 E3.85772
G1 X115.146 Y37.676 E3.96331
G1 X115.879 Y37.617 E4.05156
G1 X121.824 Y37.617 E4.76496
G1 X122.807 Y37.657 E4.88302
G1 X123.749 Y37.877 E4.99910
G1 X124.571 Y38.218 E5.10589
G1 X125.320 Y38.677 E5.21130
G1 X125.992 Y39.249 E5.31720
G1 X126.564 Y39.921 E5.42310
G1 X127.023 Y40.670 E5.52851
G1 X127.361 Y41.484 E5.63428
G1 X127.586 Y42.429 E5.75085
G1 X127.623 Y43.662 E5.89888
G1 X127.623 Y57.616 E7.57336
G1 X138.324 Y57.616 E8.85748
G1 X138.327 Y67.316 E10.02148
G1 X99.714 Y67.316 E14.65504
G1 X99.722 Y63.222 E15.14632
G1 X99.719 Y57.616 E15.81904
G0 F9000 X100.119 Y58.016
G1 F1200 X110.823 Y58.016 E17.10352
G1 X110.823 Y43.669 E18.82516
G1 X110.857 Y42.506 E18.96478
G1 X111.065 Y41.615 E19.07457
G1 X111.381 Y40.852 E19.17367
G1 X111.807 Y40.156 E19.27160
G1 X112.339 Y39.533 E19.36990
G1 X112.962 Y39.001 E19.46821
G1 X113.658 Y38.575 E19.56614
G1 X114.414 Y38.262 E19.66432
G1 X115.209 Y38.072 E19.76241
G1 X115.895 Y38.017 E19.84499
G1 X121.816 Y38.017 E20.55551
G1 X122.753 Y38.055 E20.66805
G1 X123.626 Y38.259 E20.77563
G1 X124.389 Y38.575 E20.87473
G1 X125.085 Y39.001 E20.97265
G1 X125.708 Y39.533 E21.07096
G1 X126.240 Y40.156 E21.16927
G1 X126.666 Y40.852 E21.26719
G1 X126.979 Y41.608 E21.36538
G1 X127.188 Y42.482 E21.47322
G1 X127.223 Y43.668 E21.61560
G1 X127.223 Y58.016 E23.33736
G1 X137.924 Y58.016 E24.62148
G1 X137.927 Y66.916 E25.68948
G1 X100.114 Y66.916 E30.22704
G1 X100.122 Y63.222 E30.67032
G1 X100.119 Y58.016 E31.29504
G10
G0 F9000 X103.921 Y61.816
;TYPE:WALL-INNER
G11
G1 F1200 X114.623 Y61.816 E32.57928
G1 X114.623 Y43.732 E34.74936
G1 X114.644 Y42.996 E34.83772
G1 X114.694 Y42.783 E34.86397
G1 X114.776 Y42.585 E34.88969
G1 X114.892 Y42.395 E34.91640
G1 X115.035 Y42.229 E34.94269
G1 X115.201 Y42.086 E34.96899
G1 X115.391 Y41.970 E34.99570
G1 X115.588 Y41.888 E35.02131
G1 X115.808 Y41.836 E35.04843
G1 X121.727 Y41.817 E35.75872
G1 X122.243 Y41.838 E35.82069
G1 X122.458 Y41.888 E35.84718
G1 X122.656 Y41.970 E35.87289
G1 X122.846 Y42.086 E35.89961
G1 X123.012 Y42.229 E35.92590
G1 X123.155 Y42.395 E35.95219
G1 X123.271 Y42.585 E35.97890
G1 X123.353 Y42.782 E36.00451
G1 X123.401 Y42.985 E36.02954
G1 X123.423 Y43.733 E36.11934
G1 X123.423 Y61.816 E38.28930
G1 X134.125 Y61.816 E39.57354
G1 X134.126 Y63.116 E39.72954
G1 X103.922 Y63.116 E43.35402
G1 X103.921 Y61.816 E43.51002
G0 F9000 X103.521 Y61.416
;TYPE:WALL-OUTER
G1 F1200 X114.223 Y61.416 E44.79426
G1 X114.223 Y43.721 E46.91766
G1 X114.245 Y42.947 E47.01058
G1 X114.312 Y42.661 E47.04583
G1 X114.421 Y42.400 E47.07977
G1 X114.568 Y42.159 E47.11365
G1 X114.751 Y41.945 E47.14743
G1 X114.965 Y41.762 E47.18122
G1 X115.206 Y41.615 E47.21510
G1 X115.467 Y41.506 E47.24904
G1 X115.747 Y41.439 E47.28359
G1 X121.743 Y41.417 E48.00311
G1 X122.293 Y41.439 E48.06917
G1 X122.580 Y41.506 E48.10453
G1 X122.841 Y41.615 E48.13847
G1 X123.082 Y41.762 E48.17235
G1 X123.296 Y41.945 E48.20614
G1 X123.479 Y42.159 E48.23993
G1 X123.626 Y42.400 E48.27380
G1 X123.735 Y42.661 E48.30774
G1 X123.800 Y42.933 E48.34130
G1 X123.823 Y43.715 E48.43518
G1 X123.823 Y61.416 E50.55930
G1 X134.525 Y61.416 E51.84354
G1 X134.526 Y63.516 E52.09554
G1 X103.521 Y63.516 E55.81614
G1 X103.521 Y61.416 E56.06814
G0 F9000 X104.099 Y61.955
;TYPE:SKIN
G1 F1200 X105.119 Y62.975 E56.24124
G0 F9000 X105.684 Y62.975
G1 F1200 X104.665 Y61.955 E56.41426
G0 F9000 X105.230 Y61.955
G1 F1200 X106.250 Y62.975 E56.58736
G0 F9000 X106.816 Y62.975
G1 F1200 X105.796 Y61.955 E56.76046
G0 F9000 X106.362 Y61.955
G1 F1200 X107.381 Y62.975 E56.93347
G0 F9000 X107.947 Y62.975
G1 F1200 X106.927 Y61.955 E57.10657
G0 F9000 X107.493 Y61.955
G1 F1200 X108.513 Y62.975 E57.27967
G0 F9000 X109.078 Y62.975
G1 F1200 X108.059 Y61.955 E57.45269
G0 F9000 X108.625 Y61.955
G1 F1200 X109.644 Y62.975 E57.62570
G0 F9000 X110.210 Y62.975
G1 F1200 X109.190 Y61.955 E57.79880
G0 F9000 X109.756 Y61.955
G1 F1200 X110.776 Y62.975 E57.97190
G0 F9000 X111.341 Y62.975
G1 F1200 X110.322 Y61.955 E58.14492
G0 F9000 X110.887 Y61.955
G1 F1200 X111.907 Y62.975 E58.31802
G0 F9000 X112.473 Y62.975
G1 F1200 X111.453 Y61.955 E58.49112
G0 F9000 X112.019 Y61.955
G1 F1200 X113.038 Y62.975 E58.66413
G0 F9000 X113.604 Y62.975
G1 F1200 X112.584 Y61.955 E58.83723
G0 F9000 X113.150 Y61.955
G1 F1200 X114.170 Y62.975 E59.01033
G0 F9000 X114.735 Y62.975
G1 F1200 X113.716 Y61.955 E59.18335
G0 F9000 X114.281 Y61.955
G1 F1200 X115.301 Y62.975 E59.35645
G0 F9000 X115.867 Y62.975
G1 F1200 X114.762 Y61.870 E59.54397
G0 F9000 X114.762 Y61.304
G1 F1200 X116.432 Y62.975 E59.82746
G0 F9000 X116.998 Y62.975
G1 F1200 X114.762 Y60.739 E60.20693
G0 F9000 X114.762 Y60.173
G1 F1200 X117.564 Y62.975 E60.68244
G0 F9000 X118.129 Y62.975
G1 F1200 X114.762 Y59.607 E61.25392
G0 F9000 X114.762 Y59.042
G1 F1200 X118.695 Y62.975 E61.92138
G0 F9000 X119.261 Y62.975
G1 F1200 X114.762 Y58.476 E62.68488
G0 F9000 X114.762 Y57.910
G1 F1200 X119.827 Y62.975 E63.54444
G0 F9000 X104.553 Y62.975
G1 F1200 X104.060 Y62.482 E63.62811
G0 F9000 X114.564 Y61.757
G0 X114.762 Y57.344
G1 F1200 X120.392 Y62.975 E64.58363
G0 F9000 X120.958 Y62.975
G1 F1200 X114.762 Y56.779 E65.63513
G0 F9000 X114.762 Y56.213
G1 F1200 X121.524 Y62.975 E66.78268
G0 F9000 X122.089 Y62.975
G1 F1200 X114.762 Y55.647 E68.02620
G0 F9000 X114.762 Y55.082
G1 F1200 X122.655 Y62.975 E69.36568
G0 F9000 X123.221 Y62.975
G1 F1200 X114.762 Y54.516 E70.80122
G0 F9000 X114.762 Y53.950
G1 F1200 X123.786 Y62.975 E72.33273
G0 F9000 X124.352 Y62.975
G1 F1200 X123.332 Y61.955 E72.50583
G0 F9000 X123.282 Y61.905
G1 F1200 X114.762 Y53.385 E73.95172
G0 F9000 X114.762 Y52.819
G1 F1200 X123.282 Y61.340 E75.39770
G0 F9000 X123.282 Y60.774
G1 F1200 X114.762 Y52.253 E76.84368
G0 F9000 X114.762 Y51.688
G1 F1200 X123.282 Y60.208 E78.28957
G0 F9000 X123.482 Y61.757
G0 X123.898 Y61.955
G1 F1200 X124.918 Y62.975 E78.46267
G0 F9000 X125.483 Y62.975
G1 F1200 X124.464 Y61.955 E78.63568
G0 F9000 X125.029 Y61.955
G1 F1200 X126.049 Y62.975 E78.80878
G0 F9000 X126.615 Y62.975
G1 F1200 X125.595 Y61.955 E78.98188
G0 F9000 X126.161 Y61.955
G1 F1200 X127.180 Y62.975 E79.15490
G0 F9000 X127.746 Y62.975
G1 F1200 X126.726 Y61.955 E79.32800
G0 F9000 X127.292 Y61.955
G1 F1200 X128.312 Y62.975 E79.50110
G0 F9000 X128.877 Y62.975
G1 F1200 X127.858 Y61.955 E79.67411
G0 F9000 X128.424 Y61.955
G1 F1200 X129.443 Y62.975 E79.84713
G0 F9000 X130.009 Y62.975
G1 F1200 X128.989 Y61.955 E80.02023
G0 F9000 X129.555 Y61.955
G1 F1200 X130.575 Y62.975 E80.19333
G0 F9000 X131.140 Y62.975
G1 F1200 X130.121 Y61.955 E80.36634
G0 F9000 X130.686 Y61.955
G1 F1200 X131.706 Y62.975 E80.53944
G0 F9000 X132.272 Y62.975
G1 F1200 X131.252 Y61.955 E80.71254
G0 F9000 X131.818 Y61.955
G1 F1200 X132.837 Y62.975 E80.88556
G0 F9000 X133.403 Y62.975
G1 F1200 X132.383 Y61.955 E81.05866
G0 F9000 X132.949 Y61.955
G1 F1200 X133.969 Y62.975 E81.23176
G0 F9000 X133.985 Y62.426
G1 F1200 X133.515 Y61.955 E81.31160
G0 F9000 X123.482 Y61.757
G0 X123.282 Y59.643
G1 F1200 X114.762 Y51.122 E82.75758
G0 F9000 X114.762 Y50.556
G1 F1200 X123.282 Y59.077 E84.20356
G0 F9000 X123.282 Y58.511
G1 F1200 X114.762 Y49.991 E85.64945
G0 F9000 X114.762 Y49.425
G1 F1200 X123.282 Y57.945 E87.09534
G0 F9000 X123.282 Y57.380
G1 F1200 X114.762 Y48.859 E88.54132
G0 F9000 X114.762 Y48.293
G1 F1200 X123.282 Y56.814 E89.98729
G0 F9000 X123.282 Y56.248
G1 F1200 X114.762 Y47.728 E91.43319
G0 F9000 X114.762 Y47.162
G1 F1200 X123.282 Y55.683 E92.87916
G0 F9000 X123.282 Y55.117
G1 F1200 X114.762 Y46.596 E94.32514
G0 F9000 X114.762 Y46.031
G1 F1200 X123.282 Y54.551 E95.77103
G0 F9000 X123.282 Y53.986
G1 F1200 X114.762 Y45.465 E97.21701
G0 F9000 X114.762 Y44.899
G1 F1200 X123.282 Y53.420 E98.66298
G0 F9000 X123.282 Y52.854
G1 F1200 X114.762 Y44.334 E100.10888
G0 F9000 X114.762 Y43.768
G1 F1200 X123.282 Y52.289 E101.55485
G0 F9000 X123.282 Y51.723
G1 F1200 X114.776 Y43.216 E102.99845
G0 F9000 X114.863 Y42.738
G1 F1200 X123.282 Y51.157 E104.42721
G0 F9000 X123.282 Y50.592
G1 F1200 X115.080 Y42.389 E105.81922
G0 F9000 X115.390 Y42.134
G1 F1200 X123.282 Y50.026 E107.15853
G0 F9000 X123.282 Y49.460
G1 F1200 X115.803 Y41.981 E108.42776
G0 F9000 X116.362 Y41.974
G1 F1200 X123.282 Y48.895 E109.60221
G0 F9000 X123.282 Y48.329
G1 F1200 X116.925 Y41.972 E110.68103
G0 F9000 X117.490 Y41.971
G1 F1200 X123.282 Y47.763 E111.66396
G0 F9000 X123.282 Y47.197
G1 F1200 X118.053 Y41.968 E112.55135
G0 F9000 X118.617 Y41.967
G1 F1200 X123.282 Y46.632 E113.34303
G0 F9000 X123.282 Y46.066
G1 F1200 X119.181 Y41.965 E114.03899
G0 F9000 X119.745 Y41.963
G1 F1200 X123.282 Y45.500 E114.63924
G0 F9000 X123.282 Y44.935
G1 F1200 X120.309 Y41.961 E115.14386
G0 F9000 X120.872 Y41.959
G1 F1200 X123.282 Y44.369 E115.55285
G0 F9000 X123.282 Y43.803
G1 F1200 X121.437 Y41.958 E115.86596
G0 F9000 X122.013 Y41.968
G1 F1200 X123.268 Y43.224 E116.07902
;LAYER:1
M106 S5
G0 F9000 X123.423 Y43.915 Z0.400
;TYPE:WALL-INNER
G1 F1500 X123.423 Y61.816 E116.79506
G1 X134.287 Y61.816 E117.22962
G1 X134.287 Y63.116 E117.28162
G1 X103.759 Y63.116 E118.50274
G1 X103.760 Y61.816 E118.55474
G1 X114.623 Y61.816 E118.98926
G1 X114.623 Y43.240 E119.73230
G1 X114.642 Y43.002 E119.74185
G1 X114.694 Y42.782 E119.75090
G1 X114.776 Y42.585 E119.75943
G1 X114.892 Y42.395 E119.76834
G1 X115.035 Y42.229 E119.77710
G1 X115.201 Y42.086 E119.78586
G1 X115.391 Y41.970 E119.79477
G1 X115.588 Y41.888 E119.80330
G1 X115.808 Y41.836 E119.81235
G1 X121.622 Y41.817 E120.04491
G1 X122.249 Y41.838 E120.07000
G1 X122.459 Y41.888 E120.07864
G1 X122.656 Y41.970 E120.08717
G1 X122.846 Y42.086 E120.09608
G1 X123.012 Y42.229 E120.10484
G1 X123.155 Y42.395 E120.11361
G1 X123.271 Y42.585 E120.12251
G1 X123.353 Y42.782 E120.13105
G1 X123.401 Y42.983 E120.13931
G1 X123.423 Y43.915 E120.17660
G0 F9000 X123.823 Y43.915
;TYPE:WALL-OUTER
G1 F1500 X123.823 Y61.416 E120.87664
G1 X134.687 Y61.416 E121.31120
G1 X134.688 Y63.516 E121.39520
G1 X103.359 Y63.516 E122.64836
G1 X103.359 Y61.416 E122.73236
G1 X114.223 Y61.416 E123.16692
G1 X114.223 Y43.217 E123.89488
G1 X114.245 Y42.941 E123.90596
G1 X114.312 Y42.661 E123.91747
G1 X114.421 Y42.400 E123.92879
G1 X114.568 Y42.159 E123.94008
G1 X114.751 Y41.945 E123.95134
G1 X114.965 Y41.762 E123.96260
G1 X115.206 Y41.615 E123.97390
G1 X115.467 Y41.506 E123.98521
G1 X115.747 Y41.439 E123.99673
G1 X121.635 Y41.417 E124.23225
G1 X122.302 Y41.440 E124.25894
G1 X122.580 Y41.506 E124.27037
G1 X122.841 Y41.615 E124.28169
G1 X123.082 Y41.762 E124.29298
G1 X123.296 Y41.945 E124.30424
G1 X123.479 Y42.159 E124.31550
G1 X123.626 Y42.400 E124.32680
G1 X123.735 Y42.661 E124.33811
G1 X123.800 Y42.932 E124.34926
G1 X123.823 Y43.915 E124.38859
G0 F9000 X123.281 Y43.878
;TYPE:SKIN
G1 F1500 X114.762 Y52.397 E124.87050
G0 F9000 X114.762 Y52.963
G1 F1500 X123.281 Y44.443 E125.35243
G0 F9000 X123.281 Y45.009
G1 F1500 X114.762 Y53.528 E125.83434
G0 F9000 X114.762 Y54.094
G1 F1500 X123.281 Y45.575 E126.31625
G0 F9000 X123.281 Y46.140
G1 F1500 X114.762 Y54.660 E126.79818
G0 F9000 X114.762 Y55.225
G1 F1500 X123.281 Y46.706 E127.28009
G0 F9000 X123.281 Y47.272
G1 F1500 X114.762 Y55.791 E127.76200
G0 F9000 X114.762 Y56.357
G1 F1500 X123.281 Y47.837 E128.24393
G0 F9000 X123.281 Y48.403
G1 F1500 X114.762 Y56.922 E128.72584
G0 F9000 X114.762 Y57.488
G1 F1500 X123.281 Y48.969 E129.20775
G0 F9000 X123.281 Y49.534
G1 F1500 X114.762 Y58.054 E129.68968
G0 F9000 X114.762 Y58.619
G1 F1500 X123.281 Y50.100 E130.17159
G0 F9000 X123.281 Y50.666
G1 F1500 X114.762 Y59.185 E130.65350
G0 F9000 X114.762 Y59.751
G1 F1500 X123.281 Y51.232 E131.13541
G0 F9000 X123.281 Y51.797
G1 F1500 X114.762 Y60.316 E131.61731
G0 F9000 X114.762 Y60.882
G1 F1500 X123.281 Y52.363 E132.09922
G0 F9000 X123.281 Y52.929
G1 F1500 X114.762 Y61.448 E132.58113
G0 F9000 X114.255 Y61.955
G1 F1500 X113.234 Y62.976 E132.63888
G0 F9000 X113.800 Y62.976
G1 F1500 X123.281 Y53.494 E133.17524
G0 F9000 X123.281 Y54.060
G1 F1500 X114.366 Y62.976 E133.67958
G0 F9000 X114.931 Y62.976
G1 F1500 X123.281 Y54.626 E134.15192
G0 F9000 X123.281 Y55.191
G1 F1500 X115.497 Y62.976 E134.59228
G0 F9000 X116.063 Y62.976
G1 F1500 X123.281 Y55.757 E135.00062
G0 F9000 X123.281 Y56.323
G1 F1500 X116.628 Y62.976 E135.37697
G0 F9000 X117.194 Y62.976
G1 F1500 X123.281 Y56.888 E135.72133
G0 F9000 X123.281 Y57.454
G1 F1500 X117.760 Y62.976 E136.03368
G0 F9000 X118.325 Y62.976
G1 F1500 X123.281 Y58.020 E136.31403
G0 F9000 X123.281 Y58.585
G1 F1500 X118.891 Y62.976 E136.56239
G0 F9000 X119.457 Y62.976
G1 F1500 X123.281 Y59.151 E136.77874
G0 F9000 X123.281 Y59.717
G1 F1500 X120.022 Y62.976 E136.96310
G0 F9000 X120.588 Y62.976
G1 F1500 X123.281 Y60.282 E137.11546
G0 F9000 X123.281 Y60.848
G1 F1500 X121.154 Y62.976 E137.23581
G0 F9000 X121.719 Y62.976
G1 F1500 X123.281 Y61.414 E137.32417
G0 F9000 X123.305 Y61.955
G1 F1500 X122.285 Y62.976 E137.38190
G0 F9000 X122.851 Y62.976
G1 F1500 X123.871 Y61.955 E137.43963
G0 F9000 X124.437 Y61.955
G1 F1500 X123.417 Y62.976 E137.49736
G0 F9000 X123.982 Y62.976
G1 F1500 X125.003 Y61.955 E137.55511
G0 F9000 X125.568 Y61.955
G1 F1500 X124.548 Y62.976 E137.61284
G0 F9000 X125.114 Y62.976
G1 F1500 X126.134 Y61.955 E137.67057
G0 F9000 X126.700 Y61.955
G1 F1500 X125.679 Y62.976 E137.72833
G0 F9000 X126.245 Y62.976
G1 F1500 X127.265 Y61.955 E137.78606
G0 F9000 X127.831 Y61.955
G1 F1500 X126.811 Y62.976 E137.84378
G0 F9000 X127.376 Y62.976
G1 F1500 X128.397 Y61.955 E137.90154
G0 F9000 X128.962 Y61.955
G1 F1500 X127.942 Y62.976 E137.95927
G0 F9000 X128.508 Y62.976
G1 F1500 X129.528 Y61.955 E138.01700
G0 F9000 X130.094 Y61.955
G1 F1500 X129.073 Y62.976 E138.07475
G0 F9000 X129.639 Y62.976
G1 F1500 X130.659 Y61.955 E138.13248
G0 F9000 X131.225 Y61.955
G1 F1500 X130.205 Y62.976 E138.19021
G0 F9000 X130.770 Y62.976
G1 F1500 X131.791 Y61.955 E138.24797
G0 F9000 X132.356 Y61.955
G1 F1500 X131.336 Y62.976 E138.30569
G0 F9000 X131.902 Y62.976
G1 F1500 X132.922 Y61.955 E138.36342
G0 F9000 X133.488 Y61.955
G1 F1500 X132.467 Y62.976 E138.42118
G0 F9000 X133.033 Y62.976
G1 F1500 X134.054 Y61.955 E138.47894
G0 F9000 X134.145 Y62.429
G1 F1500 X133.599 Y62.976 E138.50985
G0 F9000 X113.689 Y61.955
G1 F1500 X112.668 Y62.976 E138.56761
G0 F9000 X112.103 Y62.976
G1 F1500 X113.123 Y61.955 E138.62534
G0 F9000 X112.557 Y61.955
G1 F1500 X111.537 Y62.976 E138.68306
G0 F9000 X110.971 Y62.976
G1 F1500 X111.992 Y61.955 E138.74082
G0 F9000 X111.426 Y61.955
G1 F1500 X110.406 Y62.976 E138.79855
G0 F9000 X109.840 Y62.976
G1 F1500 X110.860 Y61.955 E138.85628
G0 F9000 X110.295 Y61.955
G1 F1500 X109.274 Y62.976 E138.91403
G0 F9000 X108.709 Y62.976
G1 F1500 X109.729 Y61.955 E138.97176
G0 F9000 X109.163 Y61.955
G1 F1500 X108.143 Y62.976 E139.02949
G0 F9000 X107.577 Y62.976
G1 F1500 X108.598 Y61.955 E139.08725
G0 F9000 X108.032 Y61.955
G1 F1500 X107.012 Y62.976 E139.14497
G0 F9000 X106.446 Y62.976
G1 F1500 X107.466 Y61.955 E139.20270
G0 F9000 X106.901 Y61.955
G1 F1500 X105.880 Y62.976 E139.26046
G0 F9000 X105.315 Y62.976
G1 F1500 X106.335 Y61.955 E139.31819
G0 F9000 X105.769 Y61.955
G1 F1500 X104.749 Y62.976 E139.37591
G0 F9000 X104.183 Y62.976
G1 F1500 X105.204 Y61.955 E139.43367
G0 F9000 X104.638 Y61.955
G1 F1500 X103.898 Y62.695 E139.47553
G0 F9000 X103.898 Y62.129
G1 F1500 X104.072 Y61.955 E139.48537
G0 F9000 X114.564 Y61.757
G0 X114.762 Y51.831
G1 F1500 X123.268 Y43.325 E139.96655
G0 F9000 X123.214 Y42.814
G1 F1500 X114.762 Y51.265 E140.44464
G0 F9000 X114.762 Y50.700
G1 F1500 X123.013 Y42.449 E140.91138
G0 F9000 X122.721 Y42.175
G1 F1500 X114.762 Y50.134 E141.36161
G0 F9000 X114.762 Y49.568
G1 F1500 X122.330 Y42.001 E141.78969
G0 F9000 X121.803 Y41.962
G1 F1500 X114.762 Y49.003 E142.18799
G0 F9000 X114.762 Y48.437
