;FLAVOR:UltiGCode
;TIME:1047
;MATERIAL:1269
;MATERIAL2:0
;NOZZLE_DIAMETER:0.400000
;NOZZLE_DIAMETER2:0.400000

;Layer count: 88
;LAYER:0
M107
G0 F9000 X107.936 Y29.647 Z0.300
;TYPE:SKIRT
G1 F1200 X129.136 Y29.647 E2.54400
G1 X129.136 Y46.847 E4.60800
G1 X127.136 Y46.847 E4.84800
G1 X127.136 Y63.873 E6.89112
G1 X127.089 Y64.544 E6.97184
G1 X126.918 Y65.324 E7.06766
G1 X126.641 Y66.072 E7.16338
G1 X126.255 Y66.779 E7.26004
G1 X125.774 Y67.420 E7.35621
G1 X125.211 Y67.983 E7.45175
G1 X124.570 Y68.464 E7.54792
G1 X123.863 Y68.850 E7.64458
G1 X123.115 Y69.127 E7.74030
G1 X122.216 Y69.324 E7.85074
G1 X115.723 Y69.346 E8.62990
G1 X115.045 Y69.320 E8.71132
G1 X114.716 Y69.293 E8.75093
G1 X113.958 Y69.127 E8.84405
G1 X113.210 Y68.850 E8.93977
G1 X112.503 Y68.464 E9.03643
G1 X111.862 Y67.983 E9.13260
G1 X111.299 Y67.420 E9.22814
G1 X110.818 Y66.779 E9.32431
G1 X110.432 Y66.072 E9.42097
G1 X110.155 Y65.324 E9.51669
G1 X109.966 Y64.458 E9.62305
G1 X109.936 Y63.120 E9.78365
G1 X109.936 Y46.847 E11.73641
G1 X107.936 Y46.847 E11.97641
G1 X107.936 Y29.647 E14.04041
G0 F9000 X108.336 Y30.047
G1 F1200 X128.736 Y30.047 E16.48841
G1 X128.736 Y46.447 E18.45641
G1 X126.736 Y46.447 E18.69641
G1 X126.736 Y63.859 E20.78585
G1 X126.692 Y64.487 E20.86140
G1 X126.533 Y65.211 E20.95035
G1 X126.276 Y65.906 E21.03927
G1 X125.917 Y66.563 E21.12911
G1 X125.472 Y67.157 E21.21817
G1 X124.948 Y67.681 E21.30710
G1 X124.354 Y68.126 E21.39616
G1 X123.697 Y68.485 E21.48601
G1 X123.002 Y68.742 E21.57492
G1 X122.172 Y68.924 E21.67689
G1 X115.730 Y68.946 E22.44994
G1 X115.070 Y68.921 E22.52919
G1 X114.775 Y68.896 E22.56472
G1 X114.071 Y68.742 E22.65120
G1 X113.376 Y68.485 E22.74012
G1 X112.719 Y68.126 E22.82996
G1 X112.125 Y67.681 E22.91902
G1 X111.601 Y67.157 E23.00795
G1 X111.156 Y66.563 E23.09701
G1 X110.797 Y65.906 E23.18685
G1 X110.540 Y65.211 E23.27577
G1 X110.365 Y64.411 E23.37404
G1 X110.336 Y63.115 E23.52960
G1 X110.336 Y46.447 E25.52976
G1 X108.336 Y46.447 E25.76976
G1 X108.336 Y30.047 E27.73776
G10
G0 F9000 X112.136 Y33.847
;TYPE:WALL-INNER
G11
G1 F1200 X124.936 Y33.847 E29.27376
G1 X124.936 Y42.647 E30.32976
G1 X122.936 Y42.647 E30.56976
G1 X122.936 Y63.718 E33.09828
G1 X122.920 Y63.949 E33.12607
G1 X122.879 Y64.135 E33.14893
G1 X122.807 Y64.329 E33.17376
G1 X122.713 Y64.502 E33.19738
G1 X122.592 Y64.663 E33.22155
G1 X122.454 Y64.801 E33.24497
G1 X122.293 Y64.922 E33.26914
G1 X122.120 Y65.016 E33.29277
G1 X121.756 Y65.125 E33.33836
G1 X115.807 Y65.146 E34.05225
G1 X115.328 Y65.128 E34.10977
G1 X115.147 Y65.088 E34.13201
G1 X114.953 Y65.016 E34.15684
G1 X114.780 Y64.922 E34.18047
G1 X114.619 Y64.801 E34.20464
G1 X114.481 Y64.663 E34.22806
G1 X114.360 Y64.502 E34.25222
G1 X114.266 Y64.329 E34.27585
G1 X114.194 Y64.135 E34.30068
G1 X114.156 Y63.960 E34.32217
G1 X114.136 Y63.080 E34.42780
G1 X114.136 Y42.647 E36.87976
G1 X112.136 Y42.647 E37.11976
G1 X112.136 Y33.847 E38.17576
G0 F9000 X116.289 Y36.662
G1 F1200 X116.081 Y37.006 E38.22400
G1 X115.928 Y37.375 E38.27193
G1 X115.830 Y37.747 E38.31810
G1 X115.787 Y38.147 E38.36637
G1 X115.803 Y38.567 E38.41681
G1 X115.880 Y38.962 E38.46510
G1 X116.012 Y39.338 E38.51292
G1 X116.188 Y39.682 E38.55929
G1 X116.433 Y40.020 E38.60939
G1 X116.702 Y40.298 E38.65581
G1 X117.035 Y40.551 E38.70599
G1 X117.387 Y40.745 E38.75422
G1 X117.760 Y40.884 E38.80199
G1 X118.134 Y40.969 E38.84801
G1 X118.538 Y40.999 E38.89663
G1 X118.957 Y40.966 E38.94706
G1 X119.348 Y40.875 E38.99524
G1 X119.719 Y40.730 E39.04304
G1 X120.057 Y40.541 E39.08951
G1 X120.384 Y40.283 E39.13949
G1 X120.652 Y40.006 E39.18574
G1 X120.895 Y39.663 E39.23618
G1 X121.074 Y39.306 E39.28411
G1 X121.199 Y38.943 E39.33018
G1 X121.272 Y38.547 E39.37850
G1 X121.286 Y38.144 E39.42689
G1 X121.238 Y37.727 E39.47726
G1 X121.133 Y37.340 E39.52538
G1 X120.974 Y36.971 E39.57359
G1 X120.761 Y36.630 E39.62184
G1 X120.503 Y36.323 E39.66996
G1 X120.202 Y36.058 E39.71808
G1 X119.866 Y35.840 E39.76615
G1 X119.504 Y35.672 E39.81404
G1 X119.135 Y35.561 E39.86028
G1 X118.735 Y35.502 E39.90880
G1 X118.317 Y35.504 E39.95896
G1 X117.920 Y35.566 E40.00717
G1 X117.535 Y35.684 E40.05550
G1 X117.172 Y35.858 E40.10380
G1 X116.840 Y36.082 E40.15186
G1 X116.543 Y36.352 E40.20003
G1 X116.289 Y36.662 E40.24812
G0 F9000 X116.616 Y36.893
;TYPE:WALL-OUTER
G1 F1200 X116.439 Y37.187 E40.28930
G1 X116.308 Y37.503 E40.33035
G1 X116.225 Y37.820 E40.36967
G1 X116.188 Y38.161 E40.41083
G1 X116.202 Y38.520 E40.45395
G1 X116.267 Y38.857 E40.49513
G1 X116.381 Y39.180 E40.53623
G1 X116.530 Y39.472 E40.57557
G1 X116.740 Y39.762 E40.61854
G1 X116.969 Y39.998 E40.65800
G1 X117.254 Y40.215 E40.70098
G1 X117.554 Y40.380 E40.74207
G1 X117.875 Y40.500 E40.78319
G1 X118.193 Y40.572 E40.82232
G1 X118.537 Y40.598 E40.86372
G1 X118.896 Y40.569 E40.90694
G1 X119.229 Y40.492 E40.94795
G1 X119.548 Y40.367 E40.98907
G1 X119.834 Y40.207 E41.02839
G1 X120.115 Y39.986 E41.07129
G1 X120.343 Y39.750 E41.11067
G1 X120.551 Y39.456 E41.15388
G1 X120.705 Y39.151 E41.19489
G1 X120.811 Y38.841 E41.23420
G1 X120.873 Y38.504 E41.27532
G1 X120.885 Y38.160 E41.31662
G1 X120.844 Y37.803 E41.35975
G1 X120.754 Y37.472 E41.40091
G1 X120.619 Y37.157 E41.44203
G1 X120.437 Y36.866 E41.48322
G1 X120.216 Y36.604 E41.52435
G1 X119.959 Y36.377 E41.56550
G1 X119.672 Y36.191 E41.60654
G1 X119.361 Y36.047 E41.64767
G1 X119.048 Y35.952 E41.68692
G1 X118.707 Y35.902 E41.72828
G1 X118.349 Y35.904 E41.77124
G1 X118.009 Y35.957 E41.81253
G1 X117.681 Y36.057 E41.85368
G1 X117.371 Y36.206 E41.89495
G1 X117.087 Y36.397 E41.93602
G1 X116.834 Y36.628 E41.97713
G1 X116.616 Y36.893 E42.01831
G0 F9000 X116.361 Y36.738
G0 X112.036 Y33.657
G0 X111.736 Y33.447
G1 F1200 X125.336 Y33.447 E43.65031
G1 X125.336 Y43.047 E44.80231
G1 X123.336 Y43.047 E45.04231
G1 X123.336 Y63.732 E47.52451
G1 X123.317 Y64.007 E47.55759
G1 X123.264 Y64.246 E47.58697
G1 X123.173 Y64.493 E47.61855
G1 X123.048 Y64.721 E47.64976
G1 X122.894 Y64.927 E47.68062
G1 X122.718 Y65.103 E47.71049
G1 X122.512 Y65.257 E47.74135
G1 X122.284 Y65.382 E47.77255
G1 X122.037 Y65.473 E47.80414
G1 X121.801 Y65.525 E47.83314
G1 X115.793 Y65.546 E48.55410
G1 X115.278 Y65.526 E48.61595
G1 X115.036 Y65.473 E48.64568
G1 X114.789 Y65.382 E48.67727
G1 X114.561 Y65.257 E48.70847
G1 X114.355 Y65.103 E48.73933
G1 X114.179 Y64.927 E48.76920
G1 X114.025 Y64.721 E48.80007
G1 X113.900 Y64.493 E48.83127
G1 X113.809 Y64.246 E48.86286
G1 X113.757 Y64.008 E48.89209
G1 X113.736 Y63.080 E49.00348
G1 X113.736 Y43.047 E51.40744
G1 X111.736 Y43.047 E51.64744
G1 X111.736 Y33.447 E52.79944
G0 F9000 X112.334 Y33.987
;TYPE:SKIN
G1 F1200 X115.770 Y37.422 E53.38246
G0 F9000 X115.925 Y37.012
G1 F1200 X112.900 Y33.987 E53.89582
G0 F9000 X113.465 Y33.987
G1 F1200 X116.130 Y36.651 E54.34800
G0 F9000 X116.377 Y36.332
G1 F1200 X114.031 Y33.987 E54.74605
G0 F9000 X114.597 Y33.987
G1 F1200 X116.662 Y36.052 E55.09649
G0 F9000 X116.988 Y35.812
G1 F1200 X115.162 Y33.987 E55.40629
G0 F9000 X115.728 Y33.987
G1 F1200 X117.355 Y35.614 E55.68240
G0 F9000 X117.771 Y35.464
G1 F1200 X116.294 Y33.987 E55.93305
G0 F9000 X116.860 Y33.987
G1 F1200 X118.245 Y35.372 E56.16809
G0 F9000 X118.809 Y35.370
G1 F1200 X117.425 Y33.987 E56.40288
G0 F9000 X117.991 Y33.987
G1 F1200 X119.540 Y35.536 E56.66576
G0 F9000 X119.688 Y33.987
G1 F1200 X124.795 Y39.094 E57.53244
G0 F9000 X124.795 Y39.660
G1 F1200 X119.122 Y33.987 E58.49518
G0 F9000 X118.557 Y33.987
G1 F1200 X124.795 Y40.225 E59.55381
G0 F9000 X124.795 Y40.791
G1 F1200 X121.239 Y37.234 E60.15736
G0 F9000 X121.404 Y37.965
G1 F1200 X124.795 Y41.357 E60.73292
G0 F9000 X124.795 Y41.922
G1 F1200 X121.410 Y38.538 E61.30729
G0 F9000 X121.321 Y39.014
G1 F1200 X124.795 Y42.488 E61.89685
G0 F9000 X124.248 Y42.507
G1 F1200 X121.168 Y39.426 E62.41963
G0 F9000 X120.971 Y39.795
G1 F1200 X123.682 Y42.507 E62.87978
G0 F9000 X123.117 Y42.507
G1 F1200 X120.732 Y40.121 E63.28461
G0 F9000 X120.452 Y40.407
G1 F1200 X122.794 Y42.750 E63.68215
G0 F9000 X122.794 Y43.315
G1 F1200 X120.136 Y40.657 E64.13323
G0 F9000 X119.772 Y40.859
G1 F1200 X122.794 Y43.881 E64.64608
G0 F9000 X122.794 Y44.447
G1 F1200 X119.363 Y41.016 E65.22834
G0 F9000 X118.893 Y41.111
G1 F1200 X122.794 Y45.013 E65.89044
G0 F9000 X122.794 Y45.578
G1 F1200 X118.341 Y41.125 E66.64614
G0 F9000 X117.639 Y40.988
G1 F1200 X122.794 Y46.144 E67.52106
G0 F9000 X122.794 Y46.710
G1 F1200 X112.275 Y36.190 E69.30628
G0 F9000 X112.275 Y36.756
G1 F1200 X122.794 Y47.275 E71.09141
G0 F9000 X122.794 Y47.841
G1 F1200 X112.275 Y37.321 E72.87663
G0 F9000 X112.275 Y37.887
G1 F1200 X122.794 Y48.407 E74.66185
G0 F9000 X122.794 Y48.972
G1 F1200 X112.275 Y38.453 E76.44698
G0 F9000 X112.275 Y39.018
G1 F1200 X122.794 Y49.538 E78.23220
G0 F9000 X122.794 Y50.104
G1 F1200 X112.275 Y39.584 E80.01742
G0 F9000 X115.795 Y39.145
G1 F1200 X112.275 Y35.624 E80.61487
G0 F9000 X112.275 Y35.059
G1 F1200 X115.658 Y38.442 E81.18898
G0 F9000 X115.674 Y37.892
G1 F1200 X112.275 Y34.493 E81.76581
G0 F9000 X112.275 Y40.150
G1 F1200 X122.794 Y50.669 E83.55095
G0 F9000 X122.794 Y51.235
G1 F1200 X114.275 Y42.716 E84.99667
G0 F9000 X114.066 Y42.507
G1 F1200 X112.275 Y40.715 E85.30070
G0 F9000 X112.275 Y41.281
G1 F1200 X113.500 Y42.507 E85.50867
G0 F9000 X112.934 Y42.507
G1 F1200 X112.275 Y41.847 E85.62059
G0 F9000 X112.275 Y42.412
G1 F1200 X112.369 Y42.507 E85.63663
G0 F9000 X114.077 Y42.706
G0 X114.275 Y43.282
G1 F1200 X122.794 Y51.801 E87.08235
G0 F9000 X122.794 Y52.366
G1 F1200 X114.275 Y43.847 E88.52807
G0 F9000 X114.275 Y44.413
G1 F1200 X122.794 Y52.932 E89.97380
G0 F9000 X122.794 Y53.498
G1 F1200 X114.275 Y44.979 E91.41952
G0 F9000 X114.275 Y45.544
G1 F1200 X122.794 Y54.063 E92.86524
G0 F9000 X122.794 Y54.629
G1 F1200 X114.275 Y46.110 E94.31096
G0 F9000 X114.275 Y46.676
G1 F1200 X122.794 Y55.195 E95.75668
G0 F9000 X122.794 Y55.761
G1 F1200 X114.275 Y47.241 E97.20249
G0 F9000 X114.275 Y47.807
G1 F1200 X122.794 Y56.326 E98.64821
G0 F9000 X122.794 Y56.892
G1 F1200 X114.275 Y48.373 E100.09394
G0 F9000 X114.275 Y48.938
G1 F1200 X122.794 Y57.458 E101.53974
G0 F9000 X122.794 Y58.023
G1 F1200 X114.275 Y49.504 E102.98546
G0 F9000 X114.275 Y50.070
G1 F1200 X122.794 Y58.589 E104.43119
G0 F9000 X122.794 Y59.155
G1 F1200 X114.275 Y50.635 E105.87699
G0 F9000 X114.275 Y51.201
G1 F1200 X122.794 Y59.720 E107.32272
G0 F9000 X122.794 Y60.286
G1 F1200 X114.275 Y51.767 E108.76844
G0 F9000 X114.275 Y52.332
G1 F1200 X122.794 Y60.852 E110.21425
G0 F9000 X122.794 Y61.417
G1 F1200 X114.275 Y52.898 E111.65997
G0 F9000 X114.275 Y53.464
G1 F1200 X122.794 Y61.983 E113.10569
G0 F9000 X122.794 Y62.549
G1 F1200 X114.275 Y54.030 E114.55141
G0 F9000 X114.275 Y54.595
G1 F1200 X122.794 Y63.114 E115.99713
G0 F9000 X122.794 Y63.680
G1 F1200 X114.275 Y55.161 E117.44286
G0 F9000 X114.275 Y55.727
G1 F1200 X122.716 Y64.168 E118.87534
G0 F9000 X122.514 Y64.531
G1 F1200 X114.275 Y56.292 E120.27355
G0 F9000 X114.275 Y56.858
G1 F1200 X122.219 Y64.802 E121.62169
G0 F9000 X121.812 Y64.961
G1 F1200 X114.275 Y57.424 E122.90076
G0 F9000 X114.275 Y57.989
G1 F1200 X121.272 Y64.986 E124.08819
G0 F9000 X120.708 Y64.988
G1 F1200 X114.275 Y58.555 E125.17991
G0 F9000 X114.275 Y59.121
G1 F1200 X120.145 Y64.990 E126.17599
G0 F9000 X119.580 Y64.992
G1 F1200 X114.275 Y59.686 E127.07637
G0 F9000 X114.275 Y60.252
G1 F1200 X119.017 Y64.994 E127.88111
G0 F9000 X118.453 Y64.996
G1 F1200 X114.275 Y60.818 E128.59014
G0 F9000 X114.275 Y61.383
G1 F1200 X117.890 Y64.998 E129.20363
G0 F9000 X117.326 Y65.000
G1 F1200 X114.275 Y61.949 E129.72140
G0 F9000 X114.275 Y62.515
G1 F1200 X116.763 Y65.002 E130.14354
G0 F9000 X116.199 Y65.005
G1 F1200 X114.275 Y63.080 E130.47014
G0 F9000 X114.288 Y63.659
G1 F1200 X115.628 Y64.999 E130.69755
G0 F9000 X114.880 Y64.816
G1 F1200 X114.463 Y64.400 E130.76823
G0 F9000 X124.795 Y38.528
G1 F1200 X120.254 Y33.987 E131.53886
G0 F9000 X120.819 Y33.987
G1 F1200 X124.795 Y37.963 E132.21361
G0 F9000 X124.795 Y37.397
G1 F1200 X121.385 Y33.987 E132.79231
G0 F9000 X121.951 Y33.987
G1 F1200 X124.795 Y36.831 E133.27495
G0 F9000 X124.795 Y36.266
G1 F1200 X122.516 Y33.987 E133.66171
G0 F9000 X123.082 Y33.987
G1 F1200 X124.795 Y35.700 E133.95241
G0 F9000 X124.795 Y35.134
G1 F1200 X123.648 Y33.987 E134.14707
G0 F9000 X124.213 Y33.987
G1 F1200 X124.795 Y34.569 E134.24584
;LAYER:1
M106 S5
G0 F9000 X124.936 Y33.847 Z0.400
;TYPE:WALL-INNER
G1 F1500 X124.936 Y42.647 E134.59784
G1 X122.936 Y42.647 E134.67784
G1 X122.936 Y63.718 E135.52068
G1 X122.920 Y63.949 E135.52994
G1 X122.879 Y64.135 E135.53756
G1 X122.807 Y64.329 E135.54583
G1 X122.713 Y64.502 E135.55371
G1 X122.592 Y64.663 E135.56177
G1 X122.454 Y64.801 E135.56957
G1 X122.293 Y64.922 E135.57763
G1 X122.120 Y65.016 E135.58550
G1 X121.756 Y65.125 E135.60070
G1 X115.902 Y65.146 E135.83486
G1 X115.341 Y65.129 E135.85731
G1 X115.143 Y65.087 E135.86541
G1 X114.953 Y65.016 E135.87352
G1 X114.780 Y64.922 E135.88140
G1 X114.619 Y64.801 E135.88945
G1 X114.481 Y64.663 E135.89726
G1 X114.360 Y64.502 E135.90532
G1 X114.266 Y64.329 E135.91319
G1 X114.194 Y64.135 E135.92147
G1 X114.156 Y63.961 E135.92859
G1 X114.136 Y62.813 E135.97452
G1 X114.136 Y42.647 E136.78116
G1 X112.136 Y42.647 E136.86116
G1 X112.136 Y33.847 E137.21316
G1 X124.936 Y33.847 E137.72516
G0 F9000 X120.772 Y36.643
G1 F1500 X120.497 Y36.319 E137.74216
G1 X120.198 Y36.055 E137.75811
G1 X119.881 Y35.846 E137.77330
G1 X119.496 Y35.669 E137.79025
G1 X119.135 Y35.561 E137.80532
G1 X118.734 Y35.502 E137.82154
G1 X118.309 Y35.505 E137.83854
G1 X117.914 Y35.568 E137.85454
G1 X117.550 Y35.677 E137.86974
G1 X117.166 Y35.862 E137.88679
G1 X116.834 Y36.086 E137.90281
G1 X116.539 Y36.355 E137.91877
G1 X116.297 Y36.649 E137.93401
G1 X116.078 Y37.013 E137.95100
G1 X115.927 Y37.381 E137.96691
G1 X115.830 Y37.746 E137.98202
G1 X115.787 Y38.148 E137.99819
G1 X115.804 Y38.571 E138.01512
G1 X115.875 Y38.947 E138.03043
G1 X116.017 Y39.346 E138.04737
G1 X116.201 Y39.699 E138.06329
G1 X116.424 Y40.010 E138.07860
G1 X116.722 Y40.313 E138.09560
G1 X117.040 Y40.553 E138.11153
G1 X117.372 Y40.739 E138.12676
G1 X117.767 Y40.885 E138.14360
G1 X118.134 Y40.969 E138.15866
G1 X118.538 Y40.999 E138.17487
G1 X118.965 Y40.964 E138.19200
G1 X119.356 Y40.872 E138.20807
G1 X119.729 Y40.725 E138.22411
G1 X120.077 Y40.525 E138.24016
G1 X120.392 Y40.277 E138.25620
G1 X120.667 Y39.985 E138.27224
G1 X120.899 Y39.656 E138.28835
G1 X121.077 Y39.299 E138.30430
G1 X121.199 Y38.943 E138.31935
G1 X121.272 Y38.547 E138.33546
G1 X121.286 Y38.143 E138.35163
G1 X121.237 Y37.720 E138.36866
G1 X121.131 Y37.335 E138.38464
G1 X120.984 Y36.987 E138.39975
G1 X120.772 Y36.643 E138.41591
G0 F9000 X120.447 Y36.878
;TYPE:WALL-OUTER
G1 F1500 X120.211 Y36.600 E138.43050
G1 X119.955 Y36.374 E138.44416
G1 X119.686 Y36.197 E138.45704
G1 X119.355 Y36.044 E138.47162
G1 X119.048 Y35.952 E138.48444
G1 X118.707 Y35.902 E138.49823
G1 X118.342 Y35.905 E138.51283
G1 X118.003 Y35.959 E138.52656
G1 X117.695 Y36.051 E138.53942
G1 X117.366 Y36.210 E138.55403
G1 X117.082 Y36.401 E138.56773
G1 X116.830 Y36.632 E138.58140
G1 X116.624 Y36.880 E138.59430
G1 X116.437 Y37.193 E138.60888
G1 X116.307 Y37.509 E138.62255
G1 X116.225 Y37.819 E138.63537
G1 X116.188 Y38.161 E138.64913
G1 X116.203 Y38.526 E138.66375
G1 X116.262 Y38.842 E138.67660
G1 X116.384 Y39.186 E138.69120
G1 X116.542 Y39.489 E138.70487
G1 X116.731 Y39.751 E138.71780
G1 X116.987 Y40.012 E138.73242
G1 X117.259 Y40.218 E138.74607
G1 X117.540 Y40.375 E138.75894
G1 X117.881 Y40.501 E138.77348
G1 X118.193 Y40.572 E138.78628
G1 X118.537 Y40.598 E138.80008
G1 X118.902 Y40.568 E138.81473
G1 X119.236 Y40.489 E138.82846
G1 X119.555 Y40.364 E138.84216
G1 X119.852 Y40.193 E138.85587
G1 X120.121 Y39.981 E138.86957
G1 X120.356 Y39.732 E138.88327
G1 X120.554 Y39.451 E138.89702
G1 X120.707 Y39.144 E138.91074
G1 X120.811 Y38.841 E138.92355
G1 X120.873 Y38.504 E138.93726
G1 X120.885 Y38.160 E138.95103
G1 X120.843 Y37.797 E138.96564
G1 X120.752 Y37.466 E138.97938
G1 X120.627 Y37.171 E138.99219
G1 X120.447 Y36.878 E139.00595
G0 F9000 X120.702 Y36.721
G0 X125.036 Y33.657
G0 X125.336 Y33.447
G1 F1500 X125.336 Y43.047 E139.38995
G1 X123.336 Y43.047 E139.46995
G1 X123.336 Y63.732 E140.29735
