;FLAVOR:UltiGCode
;TIME:2350
;MATERIAL:2979
;MATERIAL2:0
;NOZZLE_DIAMETER:0.400000
;NOZZLE_DIAMETER2:0.400000

;Layer count: 113
;LAYER:0
M107
G0 F9000 X82.989 Y37.356 Z0.300
;TYPE:SKIRT
G1 F1200 X99.389 Y37.356 E1.96800
G1 X99.389 Y98.756 E9.33600
G1 X82.989 Y98.756 E11.30400
G1 X82.989 Y37.356 E18.67200
G0 F9000 X130.723 Y39.968
G1 F1200 X147.123 Y39.968 E20.64000
G1 X147.123 Y101.368 E28.00800
G1 X130.723 Y101.368 E29.97600
G1 X130.723 Y39.968 E37.34400
G10
G0 F9000 X95.589 Y41.156
;TYPE:WALL-INNER
G11
G1 F1200 X95.589 Y94.956 E43.80000
G1 X86.789 Y94.956 E44.85600
G1 X86.789 Y41.156 E51.31200
G1 X95.589 Y41.156 E52.36800
G0 F9000 X95.989 Y40.756
;TYPE:WALL-OUTER
G1 F1200 X95.989 Y95.356 E58.92000
G1 X86.389 Y95.356 E60.07200
G1 X86.389 Y40.756 E66.62400
G1 X95.989 Y40.756 E67.77600
G0 F9000 X95.448 Y41.425
;TYPE:SKIN
G1 F1200 X95.319 Y41.296 E67.79789
G0 F9000 X94.753 Y41.296
G1 F1200 X95.448 Y41.990 E67.91575
G0 F9000 X95.448 Y42.556
G1 F1200 X94.188 Y41.296 E68.12958
G0 F9000 X93.622 Y41.296
G1 F1200 X95.448 Y43.122 E68.43946
G0 F9000 X95.448 Y43.687
G1 F1200 X93.056 Y41.296 E68.84532
G0 F9000 X92.490 Y41.296
G1 F1200 X95.448 Y44.253 E69.34722
G0 F9000 X95.448 Y44.819
G1 F1200 X91.925 Y41.296 E69.94509
G0 F9000 X91.359 Y41.296
G1 F1200 X95.448 Y45.384 E70.63893
G0 F9000 X95.448 Y45.950
G1 F1200 X90.793 Y41.296 E71.42883
G0 F9000 X90.228 Y41.296
G1 F1200 X95.448 Y46.516 E72.31469
G0 F9000 X95.448 Y47.081
G1 F1200 X89.662 Y41.296 E73.29652
G0 F9000 X89.096 Y41.296
G1 F1200 X95.448 Y47.647 E74.37441
G0 F9000 X95.448 Y48.213
G1 F1200 X88.531 Y41.296 E75.54826
G0 F9000 X87.965 Y41.296
G1 F1200 X95.448 Y48.779 E76.81817
G0 F9000 X95.448 Y49.344
G1 F1200 X87.399 Y41.296 E78.18405
G0 F9000 X86.928 Y41.390
G1 F1200 X95.448 Y49.910 E79.62994
G0 F9000 X95.448 Y50.476
G1 F1200 X86.928 Y41.956 E81.07583
G0 F9000 X86.928 Y42.521
G1 F1200 X95.448 Y51.041 E82.52172
G0 F9000 X95.448 Y51.607
G1 F1200 X86.928 Y43.087 E83.96761
G0 F9000 X86.928 Y43.653
G1 F1200 X95.448 Y52.173 E85.41351
G0 F9000 X95.448 Y52.738
G1 F1200 X86.928 Y44.218 E86.85940
G0 F9000 X86.928 Y44.784
G1 F1200 X95.448 Y53.304 E88.30529
G0 F9000 X95.448 Y53.870
G1 F1200 X86.928 Y45.350 E89.75118
G0 F9000 X86.928 Y45.915
G1 F1200 X95.448 Y54.435 E91.19707
G0 F9000 X95.448 Y55.001
G1 F1200 X86.928 Y46.481 E92.64297
G0 F9000 X86.928 Y47.047
G1 F1200 X95.448 Y55.567 E94.08886
G0 F9000 X95.448 Y56.132
G1 F1200 X86.928 Y47.613 E95.53466
G0 F9000 X86.928 Y48.178
G1 F1200 X95.448 Y56.698 E96.98056
G0 F9000 X95.448 Y57.264
G1 F1200 X86.928 Y48.744 E98.42645
G0 F9000 X86.928 Y49.310
G1 F1200 X95.448 Y57.830 E99.87234
G0 F9000 X95.448 Y58.395
G1 F1200 X86.928 Y49.875 E101.31823
G0 F9000 X86.928 Y50.441
G1 F1200 X95.448 Y58.961 E102.76412
G0 F9000 X95.448 Y59.527
G1 F1200 X86.928 Y51.007 E104.21002
G0 F9000 X86.928 Y51.572
G1 F1200 X95.448 Y60.092 E105.65591
G0 F9000 X95.448 Y60.658
G1 F1200 X86.928 Y52.138 E107.10180
G0 F9000 X86.928 Y52.704
G1 F1200 X95.448 Y61.224 E108.54769
G0 F9000 X95.448 Y61.789
G1 F1200 X86.928 Y53.269 E109.99358
G0 F9000 X86.928 Y53.835
G1 F1200 X95.448 Y62.355 E111.43948
G0 F9000 X95.448 Y62.921
G1 F1200 X86.928 Y54.401 E112.88537
G0 F9000 X86.928 Y54.966
G1 F1200 X95.448 Y63.486 E114.33126
G0 F9000 X95.448 Y64.052
G1 F1200 X86.928 Y55.532 E115.77715
G0 F9000 X86.928 Y56.098
G1 F1200 X95.448 Y64.618 E117.22304
G0 F9000 X95.448 Y65.183
G1 F1200 X86.928 Y56.664 E118.66885
G0 F9000 X86.928 Y57.229
G1 F1200 X95.448 Y65.749 E120.11474
G0 F9000 X95.448 Y66.315
G1 F1200 X86.928 Y57.795 E121.56063
G0 F9000 X86.928 Y58.361
G1 F1200 X95.448 Y66.880 E123.00644
G0 F9000 X95.448 Y67.446
G1 F1200 X86.928 Y58.926 E124.45233
G0 F9000 X86.928 Y59.492
G1 F1200 X95.448 Y68.012 E125.89823
G0 F9000 X95.448 Y68.578
G1 F1200 X86.928 Y60.058 E127.34412
G0 F9000 X86.928 Y60.623
G1 F1200 X95.448 Y69.143 E128.79001
G0 F9000 X95.448 Y69.709
G1 F1200 X86.928 Y61.189 E130.23590
G0 F9000 X86.928 Y61.755
G1 F1200 X95.448 Y70.275 E131.68179
G0 F9000 X95.448 Y70.840
G1 F1200 X86.928 Y62.320 E133.12769
G0 F9000 X86.928 Y62.886
G1 F1200 X95.448 Y71.406 E134.57358
G0 F9000 X95.448 Y71.972
G1 F1200 X86.928 Y63.452 E136.01947
G0 F9000 X86.928 Y64.017
G1 F1200 X95.448 Y72.537 E137.46536
G0 F9000 X95.448 Y73.103
G1 F1200 X86.928 Y64.583 E138.91125
G0 F9000 X86.928 Y65.149
G1 F1200 X95.448 Y73.669 E140.35715
G0 F9000 X95.448 Y74.234
G1 F1200 X86.928 Y65.714 E141.80304
G0 F9000 X86.928 Y66.280
G1 F1200 X95.448 Y74.800 E143.24893
G0 F9000 X95.448 Y75.366
G1 F1200 X86.928 Y66.846 E144.69482
G0 F9000 X86.928 Y67.412
G1 F1200 X95.448 Y75.931 E146.14063
G0 F9000 X95.448 Y76.497
G1 F1200 X86.928 Y67.977 E147.58652
G0 F9000 X86.928 Y68.544
G1 F1200 X95.448 Y77.063 E149.03233
G0 F9000 X95.448 Y77.629
G1 F1200 X86.928 Y69.109 E150.47822
G0 F9000 X86.928 Y69.675
G1 F1200 X95.448 Y78.194 E151.92403
G0 F9000 X95.448 Y78.760
G1 F1200 X86.928 Y70.241 E153.36983
G0 F9000 X86.928 Y70.806
G1 F1200 X95.448 Y79.326 E154.81573
G0 F9000 X95.448 Y79.891
G1 F1200 X86.928 Y71.372 E156.26153
G0 F9000 X86.928 Y71.938
G1 F1200 X95.448 Y80.457 E157.70734
G0 F9000 X95.448 Y81.023
G1 F1200 X86.928 Y72.503 E159.15323
G0 F9000 X86.928 Y73.069
G1 F1200 X95.448 Y81.588 E160.59904
G0 F9000 X95.448 Y82.154
G1 F1200 X86.928 Y73.635 E162.04485
G0 F9000 X86.928 Y74.200
G1 F1200 X95.448 Y82.720 E163.49074
G0 F9000 X95.448 Y83.285
G1 F1200 X86.928 Y74.766 E164.93654
G0 F9000 X86.928 Y75.332
G1 F1200 X95.448 Y83.851 E166.38235
G0 F9000 X95.448 Y84.417
G1 F1200 X86.928 Y75.898 E167.82816
G0 F9000 X86.928 Y76.463
G1 F1200 X95.448 Y84.982 E169.27397
G0 F9000 X95.448 Y85.548
G1 F1200 X86.928 Y77.029 E170.71977
G0 F9000 X86.928 Y77.595
G1 F1200 X95.448 Y86.114 E172.16558
G0 F9000 X95.448 Y86.679
G1 F1200 X86.928 Y78.160 E173.61139
G0 F9000 X86.928 Y78.726
G1 F1200 X95.448 Y87.245 E175.05719
G0 F9000 X95.448 Y87.811
G1 F1200 X86.928 Y79.292 E176.50300
G0 F9000 X86.928 Y79.857
G1 F1200 X95.448 Y88.377 E177.94889
G0 F9000 X95.448 Y88.942
G1 F1200 X86.928 Y80.423 E179.39470
G0 F9000 X86.928 Y80.989
G1 F1200 X95.448 Y89.508 E180.84051
G0 F9000 X95.448 Y90.074
G1 F1200 X86.928 Y81.554 E182.28640
G0 F9000 X86.928 Y82.120
G1 F1200 X95.448 Y90.639 E183.73221
G0 F9000 X95.448 Y91.205
G1 F1200 X86.928 Y82.686 E185.17801
G0 F9000 X86.928 Y83.251
G1 F1200 X95.448 Y91.771 E186.62391
G0 F9000 X95.448 Y92.336
G1 F1200 X86.928 Y83.817 E188.06971
G0 F9000 X86.928 Y84.383
G1 F1200 X95.448 Y92.902 E189.51552
G0 F9000 X95.448 Y93.468
G1 F1200 X86.928 Y84.948 E190.96141
G0 F9000 X86.928 Y85.514
G1 F1200 X95.448 Y94.033 E192.40722
G0 F9000 X95.448 Y94.599
G1 F1200 X86.928 Y86.080 E193.85303
G0 F9000 X86.928 Y86.646
G1 F1200 X95.098 Y94.815 E195.23944
G0 F9000 X94.532 Y94.815
G1 F1200 X86.928 Y87.211 E196.52988
G0 F9000 X86.928 Y87.777
G1 F1200 X93.966 Y94.815 E197.72427
G0 F9000 X93.401 Y94.815
G1 F1200 X86.928 Y88.343 E198.82269
G0 F9000 X86.928 Y88.908
G1 F1200 X92.835 Y94.815 E199.82514
G0 F9000 X92.269 Y94.815
G1 F1200 X86.928 Y89.474 E200.73153
G0 F9000 X86.928 Y90.040
G1 F1200 X91.703 Y94.815 E201.54188
G0 F9000 X91.138 Y94.815
G1 F1200 X86.928 Y90.605 E202.25634
G0 F9000 X86.928 Y91.171
G1 F1200 X90.572 Y94.815 E202.87475
G0 F9000 X90.006 Y94.815
G1 F1200 X86.928 Y91.737 E203.39710
G0 F9000 X86.928 Y92.302
G1 F1200 X89.441 Y94.815 E203.82357
G0 F9000 X88.875 Y94.815
G1 F1200 X86.928 Y92.868 E204.15399
G0 F9000 X86.928 Y93.434
G1 F1200 X88.309 Y94.815 E204.38835
G0 F9000 X87.744 Y94.815
G1 F1200 X86.928 Y93.999 E204.52683
G0 F9000 X86.928 Y94.565
G1 F1200 X87.178 Y94.815 E204.56926
G10
G0 F9000 X134.523 Y97.568
;TYPE:WALL-INNER
G11
G1 F1200 X134.523 Y43.768 E211.02526
G1 X143.323 Y43.768 E212.08126
G1 X143.323 Y97.568 E218.53726
G1 X134.523 Y97.568 E219.59326
G0 F9000 X134.123 Y97.968
;TYPE:WALL-OUTER
G1 F1200 X134.123 Y43.368 E226.14526
G1 X143.723 Y43.368 E227.29726
G1 X143.723 Y97.968 E233.84926
G1 X134.123 Y97.968 E235.00126
G0 F9000 X135.046 Y97.428
;TYPE:SKIN
G1 F1200 X134.662 Y97.044 E235.06642
G0 F9000 X134.662 Y96.478
G1 F1200 X135.611 Y97.428 E235.22756
G0 F9000 X136.177 Y97.428
G1 F1200 X134.662 Y95.912 E235.48475
G0 F9000 X134.662 Y95.346
G1 F1200 X136.743 Y97.428 E235.83799
G0 F9000 X137.308 Y97.428
G1 F1200 X134.662 Y94.781 E236.28712
G0 F9000 X134.662 Y94.215
G1 F1200 X137.874 Y97.428 E236.83230
G0 F9000 X138.440 Y97.428
G1 F1200 X134.662 Y93.649 E237.47353
G0 F9000 X134.662 Y93.084
G1 F1200 X139.005 Y97.428 E238.21065
G0 F9000 X139.571 Y97.428
G1 F1200 X134.662 Y92.518 E239.04382
G0 F9000 X134.662 Y91.952
G1 F1200 X140.137 Y97.428 E239.97304
G0 F9000 X140.702 Y97.428
G1 F1200 X134.662 Y91.387 E240.99815
G0 F9000 X134.662 Y90.821
G1 F1200 X141.268 Y97.428 E242.11931
G0 F9000 X141.834 Y97.428
G1 F1200 X134.662 Y90.255 E243.33652
G0 F9000 X134.662 Y89.690
G1 F1200 X142.399 Y97.428 E244.64962
G0 F9000 X142.965 Y97.428
G1 F1200 X134.662 Y89.124 E246.05877
G0 F9000 X134.662 Y88.558
G1 F1200 X143.182 Y97.079 E247.50474
G0 F9000 X143.182 Y96.513
G1 F1200 X134.662 Y87.993 E248.95064
G0 F9000 X134.662 Y87.427
G1 F1200 X143.182 Y95.948 E250.39661
G0 F9000 X143.182 Y95.382
G1 F1200 X134.662 Y86.861 E251.84259
G0 F9000 X134.662 Y86.296
G1 F1200 X143.182 Y94.816 E253.28848
G0 F9000 X143.182 Y94.250
G1 F1200 X134.662 Y85.730 E254.73437
G0 F9000 X134.662 Y85.164
G1 F1200 X143.182 Y93.685 E256.18035
G0 F9000 X143.182 Y93.119
G1 F1200 X134.662 Y84.598 E257.62633
G0 F9000 X134.662 Y84.033
G1 F1200 X143.182 Y92.553 E259.07222
G0 F9000 X143.182 Y91.988
G1 F1200 X134.662 Y83.467 E260.51820
G0 F9000 X134.662 Y82.901
G1 F1200 X143.182 Y91.422 E261.96417
G0 F9000 X143.182 Y90.856
G1 F1200 X134.662 Y82.336 E263.41006
G0 F9000 X134.662 Y81.770
G1 F1200 X143.182 Y90.291 E264.85604
G0 F9000 X143.182 Y89.725
G1 F1200 X134.662 Y81.204 E266.30202
G0 F9000 X134.662 Y80.639
G1 F1200 X143.182 Y89.159 E267.74791
G0 F9000 X143.182 Y88.594
G1 F1200 X134.662 Y80.073 E269.19389
G0 F9000 X134.662 Y79.507
G1 F1200 X143.182 Y88.028 E270.63986
G0 F9000 X143.182 Y87.462
G1 F1200 X134.662 Y78.942 E272.08576
G0 F9000 X134.662 Y78.376
G1 F1200 X143.182 Y86.897 E273.53173
G0 F9000 X143.182 Y86.331
G1 F1200 X134.662 Y77.810 E274.97771
G0 F9000 X134.662 Y77.245
G1 F1200 X143.182 Y85.765 E276.42360
G0 F9000 X143.182 Y85.200
G1 F1200 X134.662 Y76.679 E277.86958
G0 F9000 X134.662 Y76.113
G1 F1200 X143.182 Y84.634 E279.31555
G0 F9000 X143.182 Y84.068
G1 F1200 X134.662 Y75.547 E280.76153
G0 F9000 X134.662 Y74.982
G1 F1200 X143.182 Y83.502 E282.20742
G0 F9000 X143.182 Y82.937
G1 F1200 X134.662 Y74.416 E283.65340
G0 F9000 X134.662 Y73.850
G1 F1200 X143.182 Y82.371 E285.09938
G0 F9000 X143.182 Y81.805
G1 F1200 X134.662 Y73.285 E286.54527
G0 F9000 X134.662 Y72.719
G1 F1200 X143.182 Y81.240 E287.99125
G0 F9000 X143.182 Y80.674
G1 F1200 X134.662 Y72.153 E289.43722
G0 F9000 X134.662 Y71.588
G1 F1200 X143.182 Y80.108 E290.88311
G0 F9000 X143.182 Y79.543
G1 F1200 X134.662 Y71.022 E292.32909
G0 F9000 X134.662 Y70.456
G1 F1200 X143.182 Y78.977 E293.77507
G0 F9000 X143.182 Y78.411
G1 F1200 X134.662 Y69.891 E295.22096
G0 F9000 X134.662 Y69.325
G1 F1200 X143.182 Y77.846 E296.66694
G0 F9000 X143.182 Y77.280
G1 F1200 X134.662 Y68.759 E298.11291
G0 F9000 X134.662 Y68.194
G1 F1200 X143.182 Y76.714 E299.55881
G0 F9000 X143.182 Y76.149
G1 F1200 X134.662 Y67.628 E301.00478
G0 F9000 X134.662 Y67.062
G1 F1200 X143.182 Y75.583 E302.45076
G0 F9000 X143.182 Y75.017
G1 F1200 X134.662 Y66.497 E303.89665
G0 F9000 X134.662 Y65.931
G1 F1200 X143.182 Y74.451 E305.34254
G0 F9000 X143.182 Y73.886
G1 F1200 X134.662 Y65.365 E306.78852
G0 F9000 X134.662 Y64.799
G1 F1200 X143.182 Y73.320 E308.23450
G0 F9000 X143.182 Y72.754
G1 F1200 X134.662 Y64.234 E309.68039
G0 F9000 X134.662 Y63.668
G1 F1200 X143.182 Y72.189 E311.12637
G0 F9000 X143.182 Y71.623
G1 F1200 X134.662 Y63.102 E312.57234
G0 F9000 X134.662 Y62.537
G1 F1200 X143.182 Y71.057 E314.01823
G0 F9000 X143.182 Y70.492
G1 F1200 X134.662 Y61.971 E315.46421
G0 F9000 X134.662 Y61.405
G1 F1200 X143.182 Y69.926 E316.91019
G0 F9000 X143.182 Y69.360
G1 F1200 X134.662 Y60.840 E318.35608
G0 F9000 X134.662 Y60.274
G1 F1200 X143.182 Y68.795 E319.80206
G0 F9000 X143.182 Y68.229
G1 F1200 X134.662 Y59.708 E321.24803
G0 F9000 X134.662 Y59.143
G1 F1200 X143.182 Y67.663 E322.69393
G0 F9000 X143.182 Y67.098
G1 F1200 X134.662 Y58.577 E324.13990
G0 F9000 X134.662 Y58.011
G1 F1200 X143.182 Y66.532 E325.58588
G0 F9000 X143.182 Y65.966
G1 F1200 X134.662 Y57.446 E327.03177
G0 F9000 X134.662 Y56.880
G1 F1200 X143.182 Y65.401 E328.47775
G0 F9000 X143.182 Y64.835
G1 F1200 X134.662 Y56.314 E329.92372
G0 F9000 X134.662 Y55.749
G1 F1200 X143.182 Y64.269 E331.36962
G0 F9000 X143.182 Y63.703
G1 F1200 X134.662 Y55.183 E332.81551
G0 F9000 X134.662 Y54.617
G1 F1200 X143.182 Y63.138 E334.26149
G0 F9000 X143.182 Y62.572
G1 F1200 X134.662 Y54.051 E335.70746
G0 F9000 X134.662 Y53.486
G1 F1200 X143.182 Y62.006 E337.15335
G0 F9000 X143.182 Y61.441
G1 F1200 X134.662 Y52.920 E338.59933
G0 F9000 X134.662 Y52.354
G1 F1200 X143.182 Y60.875 E340.04531
G0 F9000 X143.182 Y60.309
G1 F1200 X134.662 Y51.789 E341.49120
G0 F9000 X134.662 Y51.223
G1 F1200 X143.182 Y59.744 E342.93718
G0 F9000 X143.182 Y59.178
G1 F1200 X134.662 Y50.657 E344.38315
G0 F9000 X134.662 Y50.092
G1 F1200 X143.182 Y58.612 E345.82905
G0 F9000 X143.182 Y58.047
G1 F1200 X134.662 Y49.526 E347.27502
G0 F9000 X134.662 Y48.960
G1 F1200 X143.182 Y57.481 E348.72100
G0 F9000 X143.182 Y56.915
G1 F1200 X134.662 Y48.395 E350.16689
G0 F9000 X134.662 Y47.829
G1 F1200 X143.182 Y56.350 E351.61287
G0 F9000 X143.182 Y55.784
G1 F1200 X134.662 Y47.263 E353.05884
G0 F9000 X134.662 Y46.698
G1 F1200 X143.182 Y55.218 E354.50474
G0 F9000 X143.182 Y54.652
G1 F1200 X134.662 Y46.132 E355.95063
G0 F9000 X134.662 Y45.566
G1 F1200 X143.182 Y54.087 E357.39661
G0 F9000 X143.182 Y53.521
G1 F1200 X134.662 Y45.000 E358.84258
G0 F9000 X134.662 Y44.435
G1 F1200 X143.182 Y52.955 E360.28847
G0 F9000 X143.182 Y52.390
G1 F1200 X134.700 Y43.907 E361.72800
G0 F9000 X135.265 Y43.907
G1 F1200 X143.182 Y51.824 E363.07156
G0 F9000 X143.182 Y51.258
G1 F1200 X135.831 Y43.907 E364.31907
G0 F9000 X136.397 Y43.907
G1 F1200 X143.182 Y50.693 E365.47060
G0 F9000 X143.182 Y50.127
G1 F1200 X136.963 Y43.907 E366.52609
G0 F9000 X137.528 Y43.907
G1 F1200 X143.182 Y49.561 E367.48560
G0 F9000 X143.182 Y48.996
G1 F1200 X138.094 Y43.907 E368.34915
G0 F9000 X138.660 Y43.907
G1 F1200 X143.182 Y48.430 E369.11665
G0 F9000 X143.182 Y47.864
G1 F1200 X139.225 Y43.907 E369.78817
G0 F9000 X139.791 Y43.907
G1 F1200 X143.182 Y47.299 E370.36373
G0 F9000 X143.182 Y46.733
G1 F1200 X140.357 Y43.907 E370.84323
G0 F9000 X140.922 Y43.907
G1 F1200 X143.182 Y46.167 E371.22677
G0 F9000 X143.182 Y45.602
G1 F1200 X141.488 Y43.907 E371.51433
G0 F9000 X142.054 Y43.907
G1 F1200 X143.182 Y45.036 E371.70584
G0 F9000 X143.182 Y44.470
G1 F1200 X142.619 Y43.907 E371.80139
;LAYER:1
M106 S5
G10
G0 F9000 X95.589 Y41.156 Z0.400
;TYPE:WALL-INNER
G11
G1 F1500 X95.589 Y94.956 E373.95339
G1 X86.789 Y94.956 E374.30539
G1 X86.789 Y41.156 E376.45739
G1 X95.589 Y41.156 E376.80939
G0 F9000 X95.989 Y40.756
;TYPE:WALL-OUTER
G1 F1500 X95.989 Y95.356 E378.99339
G1 X86.389 Y95.356 E379.37739
G1 X86.389 Y40.756 E381.56139
G1 X95.989 Y40.756 E381.94539
G0 F9000 X95.317 Y41.295
;TYPE:SKIN
G1 F1500 X86.928 Y49.684 E382.41994
G0 F9000 X86.928 Y50.249
G1 F1500 X95.448 Y41.730 E382.90188
G0 F9000 X95.448 Y42.296
G1 F1500 X86.928 Y50.815 E383.38381
G0 F9000 X86.928 Y51.381
G1 F1500 X95.448 Y42.861 E383.86578
G0 F9000 X95.448 Y43.427
G1 F1500 X86.928 Y51.946 E384.34771
G0 F9000 X86.928 Y52.512
G1 F1500 X95.448 Y43.993 E384.82965
G0 F9000 X95.448 Y44.559
G1 F1500 X86.928 Y53.078 E385.31158
G0 F9000 X86.928 Y53.643
G1 F1500 X95.448 Y45.124 E385.79352
G0 F9000 X95.448 Y45.690
G1 F1500 X86.928 Y54.209 E386.27546
G0 F9000 X86.928 Y54.775
G1 F1500 X95.448 Y46.256 E386.75739
G0 F9000 X95.448 Y46.821
G1 F1500 X86.928 Y55.341 E387.23936
G0 F9000 X86.928 Y55.906
G1 F1500 X95.448 Y47.387 E387.72129
G0 F9000 X95.448 Y47.953
G1 F1500 X86.928 Y56.472 E388.20323
G0 F9000 X86.928 Y57.038
G1 F1500 X95.448 Y48.518 E388.68519
G0 F9000 X95.448 Y49.084
