;FLAVOR:UltiGCode
;TIME:1628
;MATERIAL:1915
;MATERIAL2:0
;NOZZLE_DIAMETER:0.400000
;NOZZLE_DIAMETER2:0.400000

;Layer count: 38
;LAYER:0
M107
G0 F9000 X80.600 Y87.925 Z0.300
;TYPE:SKIRT
G1 F1200 X97.000 Y87.925 E1.96800
G1 X97.000 Y114.175 E5.11800
G1 X133.000 Y114.175 E9.43800
G1 X133.000 Y87.925 E12.58800
G1 X149.400 Y87.925 E14.55600
G1 X149.400 Y98.284 E15.79908
G1 X149.314 Y99.146 E15.90303
G1 X149.017 Y100.123 E16.02557
G1 X148.536 Y101.022 E16.14792
G1 X147.888 Y101.814 E16.27072
G1 X147.096 Y102.462 E16.39352
G1 X146.197 Y102.943 E16.51587
G1 X145.217 Y103.241 E16.63878
G1 X144.400 Y103.321 E16.73729
G1 X144.400 Y119.535 E18.68297
G1 X144.314 Y120.396 E18.78681
G1 X144.017 Y121.372 E18.90923
G1 X143.536 Y122.271 E19.03158
G1 X142.888 Y123.063 E19.15438
G1 X142.096 Y123.711 E19.27718
G1 X141.197 Y124.192 E19.39953
G1 X140.221 Y124.489 E19.52195
G1 X139.360 Y124.575 E19.62578
G1 X134.400 Y124.575 E20.22098
G1 X134.400 Y132.035 E21.11618
G1 X134.314 Y132.896 E21.22002
G1 X134.017 Y133.872 E21.34244
G1 X133.536 Y134.771 E21.46479
G1 X132.888 Y135.563 E21.58759
G1 X132.096 Y136.211 E21.71039
G1 X131.197 Y136.692 E21.83274
G1 X130.221 Y136.989 E21.95516
G1 X129.360 Y137.075 E22.05899
G1 X123.600 Y137.075 E22.75019
G1 X123.600 Y124.575 E24.25019
G1 X106.400 Y124.575 E26.31419
G1 X106.400 Y137.075 E27.81419
G1 X100.642 Y137.075 E28.50515
G1 X99.780 Y136.989 E28.60911
G1 X98.803 Y136.692 E28.73164
G1 X97.904 Y136.211 E28.85399
G1 X97.112 Y135.563 E28.97679
G1 X96.464 Y134.771 E29.09959
G1 X95.983 Y133.872 E29.22194
G1 X95.685 Y132.892 E29.34486
G1 X95.601 Y132.031 E29.44867
G1 X95.601 Y124.575 E30.34339
G1 X90.640 Y124.575 E30.93871
G1 X89.779 Y124.489 E31.04254
G1 X88.803 Y124.192 E31.16496
G1 X87.904 Y123.711 E31.28731
G1 X87.112 Y123.063 E31.41011
G1 X86.464 Y122.271 E31.53291
G1 X85.983 Y121.372 E31.65526
G1 X85.686 Y120.396 E31.77768
G1 X85.600 Y119.535 E31.88152
G1 X85.600 Y103.321 E33.82720
G1 X84.783 Y103.241 E33.92571
G1 X83.803 Y102.943 E34.04862
G1 X82.904 Y102.462 E34.17097
G1 X82.112 Y101.814 E34.29377
G1 X81.464 Y101.022 E34.41657
G1 X80.983 Y100.123 E34.53892
G1 X80.686 Y99.146 E34.66146
G1 X80.600 Y98.284 E34.76541
G1 X80.600 Y87.925 E36.00849
G10
G0 F9000 X84.400 Y91.725
;TYPE:WALL-INNER
G11
G1 F1200 X93.200 Y91.725 E37.06449
G1 X93.200 Y115.405 E39.90609
G1 X93.248 Y115.883 E39.96374
G1 X93.396 Y116.371 E40.02493
G1 X93.637 Y116.821 E40.08619
G1 X93.960 Y117.215 E40.14733
G1 X94.354 Y117.538 E40.20846
G1 X94.804 Y117.779 E40.26972
G1 X95.292 Y117.927 E40.33091
G1 X95.771 Y117.975 E40.38868
G1 X134.230 Y117.975 E45.00376
G1 X134.708 Y117.927 E45.06141
G1 X135.196 Y117.779 E45.12260
G1 X135.646 Y117.538 E45.18386
G1 X136.040 Y117.215 E45.24500
G1 X136.363 Y116.821 E45.30613
G1 X136.604 Y116.371 E45.36739
G1 X136.752 Y115.883 E45.42858
G1 X136.800 Y115.405 E45.48623
G1 X136.800 Y91.725 E48.32783
G1 X145.600 Y91.725 E49.38383
G1 X145.600 Y98.095 E50.14823
G1 X145.570 Y98.397 E50.18465
G1 X145.490 Y98.661 E50.21775
G1 X145.360 Y98.903 E50.25072
G1 X145.188 Y99.114 E50.28339
G1 X144.977 Y99.286 E50.31605
G1 X144.735 Y99.416 E50.34902
G1 X144.471 Y99.496 E50.38212
G1 X144.173 Y99.525 E50.41805
G1 X143.170 Y99.525 E50.53841
G1 X142.691 Y99.573 E50.59618
G1 X142.203 Y99.721 E50.65737
G1 X141.753 Y99.962 E50.71863
G1 X141.359 Y100.285 E50.77976
G1 X141.036 Y100.679 E50.84090
G1 X140.795 Y101.129 E50.90216
G1 X140.646 Y101.618 E50.96350
G1 X140.603 Y102.070 E51.01799
G1 X140.600 Y103.202 E51.15383
G1 X140.600 Y119.345 E53.09099
G1 X140.570 Y119.646 E53.12729
G1 X140.490 Y119.910 E53.16039
G1 X140.360 Y120.152 E53.19335
G1 X140.188 Y120.363 E53.22602
G1 X139.977 Y120.535 E53.25869
G1 X139.735 Y120.665 E53.29165
G1 X139.471 Y120.745 E53.32475
G1 X139.170 Y120.775 E53.36105
G1 X133.171 Y120.775 E54.08093
G1 X132.692 Y120.822 E54.13869
G1 X132.203 Y120.970 E54.20000
G1 X131.753 Y121.211 E54.26125
G1 X131.359 Y121.534 E54.32239
G1 X131.036 Y121.928 E54.38353
G1 X130.795 Y122.378 E54.44479
G1 X130.647 Y122.867 E54.50609
G1 X130.600 Y123.346 E54.56385
G1 X130.600 Y126.305 E54.91893
G1 X130.228 Y126.018 E54.97531
G1 X129.779 Y125.832 E55.03363
G1 X129.300 Y125.770 E55.09159
G1 X128.820 Y125.832 E55.14967
G1 X128.372 Y126.018 E55.20788
G1 X127.988 Y126.313 E55.26599
G1 X127.693 Y126.697 E55.32409
G1 X127.507 Y127.145 E55.38230
G1 X127.445 Y127.625 E55.44038
G1 X127.507 Y128.104 E55.49834
G1 X127.693 Y128.553 E55.55666
G1 X127.989 Y128.936 E55.61475
G1 X128.372 Y129.231 E55.67276
G1 X128.819 Y129.416 E55.73081
G1 X129.300 Y129.480 E55.78904
G1 X129.780 Y129.416 E55.84715
G1 X130.228 Y129.231 E55.90531
G1 X130.600 Y128.944 E55.96170
G1 X130.600 Y131.845 E56.30982
G1 X130.570 Y132.146 E56.34611
G1 X130.490 Y132.410 E56.37922
G1 X130.360 Y132.652 E56.41218
G1 X130.188 Y132.863 E56.44485
G1 X129.977 Y133.035 E56.47752
G1 X129.735 Y133.165 E56.51048
G1 X129.471 Y133.245 E56.54358
G1 X129.170 Y133.275 E56.57988
G1 X127.400 Y133.275 E56.79228
G1 X127.400 Y120.775 E58.29228
G1 X102.600 Y120.775 E61.26828
G1 X102.600 Y133.275 E62.76828
G1 X100.831 Y133.275 E62.98056
G1 X100.529 Y133.245 E63.01698
G1 X100.265 Y133.165 E63.05008
G1 X100.023 Y133.035 E63.08305
G1 X99.812 Y132.863 E63.11571
G1 X99.640 Y132.652 E63.14838
G1 X99.510 Y132.410 E63.18135
G1 X99.430 Y132.146 E63.21445
G1 X99.401 Y131.848 E63.25038
G1 X99.401 Y128.945 E63.59874
G1 X99.772 Y129.231 E63.65495
G1 X100.220 Y129.416 E63.71311
G1 X100.700 Y129.480 E63.77122
G1 X101.181 Y129.416 E63.82945
G1 X101.628 Y129.231 E63.88751
G1 X102.011 Y128.936 E63.94552
G1 X102.307 Y128.553 E64.00360
G1 X102.493 Y128.104 E64.06192
G1 X102.555 Y127.625 E64.11988
G1 X102.493 Y127.145 E64.17796
G1 X102.307 Y126.697 E64.23617
G1 X102.012 Y126.313 E64.29428
G1 X101.628 Y126.018 E64.35239
G1 X101.180 Y125.832 E64.41060
G1 X100.700 Y125.770 E64.46867
G1 X100.221 Y125.832 E64.52663
G1 X99.772 Y126.018 E64.58495
G1 X99.401 Y126.305 E64.64124
G1 X99.401 Y123.345 E64.99644
G1 X99.353 Y122.866 E65.05421
G1 X99.205 Y122.378 E65.11540
G1 X98.964 Y121.928 E65.17666
G1 X98.641 Y121.534 E65.23780
G1 X98.247 Y121.211 E65.29893
G1 X97.797 Y120.970 E65.36019
G1 X97.308 Y120.822 E65.42150
G1 X96.830 Y120.775 E65.47914
G1 X90.830 Y120.775 E66.19914
G1 X90.529 Y120.745 E66.23543
G1 X90.265 Y120.665 E66.26854
G1 X90.023 Y120.535 E66.30150
G1 X89.812 Y120.363 E66.33417
G1 X89.640 Y120.152 E66.36683
G1 X89.510 Y119.910 E66.39980
G1 X89.430 Y119.646 E66.43290
G1 X89.400 Y119.345 E66.46920
G1 X89.400 Y102.096 E68.53908
G1 X89.353 Y101.618 E68.59672
G1 X89.205 Y101.129 E68.65803
G1 X88.964 Y100.679 E68.71928
G1 X88.641 Y100.285 E68.78042
G1 X88.247 Y99.962 E68.84156
G1 X87.797 Y99.721 E68.90281
G1 X87.309 Y99.573 E68.96401
G1 X86.830 Y99.525 E69.02178
G1 X85.827 Y99.525 E69.14214
G1 X85.529 Y99.496 E69.17806
G1 X85.265 Y99.416 E69.21117
G1 X85.023 Y99.286 E69.24413
G1 X84.812 Y99.114 E69.27680
G1 X84.640 Y98.903 E69.30947
G1 X84.510 Y98.661 E69.34243
G1 X84.430 Y98.397 E69.37553
G1 X84.400 Y98.095 E69.41195
G1 X84.400 Y91.725 E70.17635
G0 F9000 X86.557 Y94.034
G1 F1200 X86.285 Y94.505 E70.24162
G1 X86.107 Y95.053 E70.31076
G1 X86.048 Y95.625 E70.37977
G1 X86.107 Y96.202 E70.44937
G1 X86.302 Y96.777 E70.52223
G1 X86.594 Y97.267 E70.59067
G1 X86.959 Y97.672 E70.65610
G1 X87.424 Y98.009 E70.72501
G1 X87.949 Y98.244 E70.79404
G1 X88.516 Y98.365 E70.86361
G1 X89.119 Y98.358 E70.93597
G1 X89.652 Y98.243 E71.00141
G1 X90.181 Y98.008 E71.07087
G1 X90.666 Y97.646 E71.14349
G1 X91.044 Y97.217 E71.21210
G1 X91.316 Y96.746 E71.27737
G1 X91.494 Y96.199 E71.34640
G1 X91.554 Y95.625 E71.41565
G1 X91.494 Y95.049 E71.48515
G1 X91.299 Y94.474 E71.55801
G1 X91.007 Y93.984 E71.62646
G1 X90.643 Y93.580 E71.69171
G1 X90.178 Y93.242 E71.76070
G1 X89.652 Y93.007 E71.82983
G1 X89.085 Y92.886 E71.89940
G1 X88.482 Y92.893 E71.97177
G1 X87.949 Y93.008 E72.03720
G1 X87.421 Y93.243 E72.10655
G1 X86.935 Y93.604 E72.17920
G1 X86.557 Y94.034 E72.24790
G0 F9000 X87.949 Y93.009
G0 X89.650 Y93.009
G0 X93.199 Y94.237
G0 X93.398 Y116.370
G0 X94.805 Y117.777
G0 X135.195 Y117.777
G0 X136.602 Y116.370
G0 X138.447 Y95.625
G1 F1200 X138.506 Y96.202 E72.31750
G1 X138.701 Y96.777 E72.39036
G1 X138.993 Y97.267 E72.45881
G1 X139.358 Y97.672 E72.52424
G1 X139.823 Y98.009 E72.59315
G1 X140.348 Y98.244 E72.66217
G1 X140.915 Y98.365 E72.73175
G1 X141.518 Y98.358 E72.80411
G1 X142.051 Y98.243 E72.86954
G1 X142.580 Y98.008 E72.93900
G1 X143.065 Y97.646 E73.01163
G1 X143.443 Y97.217 E73.08024
G1 X143.715 Y96.746 E73.14551
G1 X143.893 Y96.199 E73.21454
G1 X143.953 Y95.625 E73.28379
G1 X143.893 Y95.049 E73.35329
G1 X143.698 Y94.474 E73.42615
G1 X143.406 Y93.984 E73.49459
G1 X143.042 Y93.580 E73.55985
G1 X142.577 Y93.242 E73.62883
G1 X142.051 Y93.007 E73.69797
G1 X141.484 Y92.886 E73.76754
G1 X140.881 Y92.893 E73.83990
G1 X140.348 Y93.008 E73.90534
G1 X139.820 Y93.243 E73.97469
G1 X139.334 Y93.604 E74.04734
G1 X138.956 Y94.034 E74.11604
G1 X138.684 Y94.505 E74.18131
G1 X138.506 Y95.053 E74.25045
G1 X138.447 Y95.625 E74.31945
G0 F9000 X138.849 Y95.625
;TYPE:WALL-OUTER
G1 F1200 X138.899 Y96.116 E74.37868
G1 X139.066 Y96.608 E74.44103
G1 X139.316 Y97.028 E74.49968
G1 X139.627 Y97.373 E74.55542
G1 X140.024 Y97.661 E74.61427
G1 X140.473 Y97.861 E74.67326
G1 X140.955 Y97.964 E74.73240
G1 X141.473 Y97.959 E74.79457
G1 X141.926 Y97.861 E74.85018
G1 X142.377 Y97.661 E74.90939
G1 X142.792 Y97.351 E74.97155
G1 X143.116 Y96.982 E75.03047
G1 X143.348 Y96.582 E75.08596
G1 X143.500 Y96.115 E75.14490
G1 X143.551 Y95.625 E75.20401
G1 X143.500 Y95.135 E75.26313
G1 X143.333 Y94.643 E75.32548
G1 X143.083 Y94.223 E75.38413
G1 X142.773 Y93.879 E75.43970
G1 X142.376 Y93.590 E75.49863
G1 X141.926 Y93.390 E75.55772
G1 X141.444 Y93.287 E75.61687
G1 X140.926 Y93.292 E75.67903
G1 X140.473 Y93.390 E75.73465
G1 X140.023 Y93.590 E75.79374
G1 X139.607 Y93.900 E75.85600
G1 X139.283 Y94.269 E75.91492
G1 X139.051 Y94.669 E75.97041
G1 X138.899 Y95.136 E76.02935
G1 X138.849 Y95.625 E76.08833
G0 F9000 X138.551 Y95.596
G0 X138.993 Y97.265
G0 X141.788 Y100.064
G0 X141.976 Y100.296
G1 F1200 X141.643 Y100.569 E76.14000
G1 X141.370 Y100.902 E76.19168
G1 X141.166 Y101.283 E76.24354
G1 X141.041 Y101.696 E76.29532
G1 X141.003 Y102.090 E76.34282
G1 X141.000 Y119.365 E78.41582
G1 X140.964 Y119.728 E78.45959
G1 X140.862 Y120.064 E78.50173
G1 X140.697 Y120.371 E78.54355
G1 X140.472 Y120.647 E78.58628
G1 X140.196 Y120.872 E78.62901
G1 X139.889 Y121.037 E78.67084
G1 X139.553 Y121.139 E78.71297
G1 X139.190 Y121.175 E78.75675
G1 X133.190 Y121.175 E79.47675
G1 X132.770 Y121.216 E79.52739
G1 X132.357 Y121.341 E79.57917
G1 X131.976 Y121.545 E79.63103
G1 X131.643 Y121.818 E79.68270
G1 X131.370 Y122.151 E79.73437
G1 X131.166 Y122.532 E79.78623
G1 X131.041 Y122.945 E79.83801
G1 X131.000 Y123.365 E79.88865
G1 X131.000 Y131.865 E80.90865
G1 X130.964 Y132.228 E80.95243
G1 X130.862 Y132.564 E80.99456
G1 X130.697 Y132.871 E81.03639
G1 X130.472 Y133.147 E81.07912
G1 X130.196 Y133.372 E81.12185
G1 X129.889 Y133.537 E81.16367
G1 X129.553 Y133.639 E81.20581
G1 X129.190 Y133.675 E81.24958
G1 X127.000 Y133.675 E81.51238
G1 X127.000 Y121.175 E83.01238
G1 X103.000 Y121.175 E85.89238
G1 X103.000 Y133.675 E87.39238
G1 X100.811 Y133.675 E87.65506
G1 X100.447 Y133.639 E87.69896
G1 X100.111 Y133.537 E87.74109
G1 X99.804 Y133.372 E87.78292
G1 X99.528 Y133.147 E87.82565
G1 X99.303 Y132.871 E87.86838
G1 X99.138 Y132.564 E87.91020
G1 X99.036 Y132.227 E87.95246
G1 X99.001 Y131.866 E87.99598
G1 X99.001 Y123.365 E89.01610
G1 X98.959 Y122.945 E89.06675
G1 X98.834 Y122.532 E89.11853
G1 X98.630 Y122.151 E89.17039
G1 X98.357 Y121.818 E89.22206
G1 X98.024 Y121.545 E89.27374
G1 X97.643 Y121.341 E89.32560
G1 X97.230 Y121.216 E89.37738
G1 X96.811 Y121.175 E89.42790
G1 X90.810 Y121.175 E90.14802
G1 X90.447 Y121.139 E90.19179
G1 X90.111 Y121.037 E90.23393
G1 X89.804 Y120.872 E90.27575
G1 X89.528 Y120.647 E90.31848
G1 X89.303 Y120.371 E90.36121
G1 X89.138 Y120.064 E90.40304
G1 X89.036 Y119.728 E90.44517
G1 X89.000 Y119.365 E90.48895
G1 X89.000 Y102.115 E92.55895
G1 X88.959 Y101.696 E92.60947
G1 X88.834 Y101.283 E92.66125
G1 X88.630 Y100.902 E92.71311
G1 X88.357 Y100.569 E92.76478
G1 X88.024 Y100.296 E92.81645
G1 X87.643 Y100.092 E92.86832
G1 X87.230 Y99.967 E92.92010
G1 X86.810 Y99.925 E92.97075
G1 X85.809 Y99.925 E93.09087
G1 X85.448 Y99.890 E93.13439
G1 X85.111 Y99.788 E93.17664
G1 X84.804 Y99.623 E93.21847
G1 X84.528 Y99.398 E93.26120
G1 X84.303 Y99.122 E93.30393
G1 X84.138 Y98.815 E93.34575
G1 X84.036 Y98.479 E93.38789
G1 X84.000 Y98.115 E93.43178
G1 X84.000 Y91.325 E94.24658
G1 X93.600 Y91.325 E95.39858
G1 X93.600 Y115.385 E98.28578
G1 X93.642 Y115.804 E98.33631
G1 X93.767 Y116.217 E98.38809
G1 X93.971 Y116.598 E98.43996
G1 X94.244 Y116.931 E98.49163
G1 X94.577 Y117.204 E98.54330
G1 X94.958 Y117.408 E98.59516
G1 X95.371 Y117.533 E98.64694
G1 X95.791 Y117.575 E98.69759
G1 X134.210 Y117.575 E103.30787
G1 X134.629 Y117.533 E103.35840
G1 X135.042 Y117.408 E103.41018
G1 X135.423 Y117.204 E103.46205
G1 X135.756 Y116.931 E103.51372
G1 X136.029 Y116.598 E103.56539
G1 X136.233 Y116.217 E103.61725
G1 X136.358 Y115.804 E103.66903
G1 X136.400 Y115.385 E103.71956
G1 X136.400 Y91.325 E106.60676
G1 X146.000 Y91.325 E107.75876
G1 X146.000 Y98.115 E108.57356
G1 X145.964 Y98.479 E108.61746
G1 X145.862 Y98.815 E108.65959
G1 X145.697 Y99.122 E108.70142
G1 X145.472 Y99.398 E108.74415
G1 X145.196 Y99.623 E108.78688
G1 X144.889 Y99.788 E108.82870
G1 X144.552 Y99.890 E108.87096
G1 X144.191 Y99.925 E108.91448
G1 X143.190 Y99.925 E109.03460
G1 X142.770 Y99.967 E109.08525
G1 X142.357 Y100.092 E109.13703
G1 X141.976 Y100.296 E109.18889
G0 F9000 X141.788 Y100.064
G0 X140.797 Y101.130
G0 X139.171 Y120.776
G0 X132.204 Y120.972
G0 X130.797 Y122.379
G0 X130.141 Y126.092
G0 X130.026 Y126.367
G1 F1200 X129.675 Y126.222 E109.23446
G1 X129.300 Y126.173 E109.27985
G1 X128.924 Y126.222 E109.32535
G1 X128.574 Y126.367 E109.37081
G1 X128.273 Y126.598 E109.41634
G1 X128.042 Y126.899 E109.46187
G1 X127.897 Y127.249 E109.50733
G1 X127.848 Y127.625 E109.55283
G1 X127.897 Y128.000 E109.59822
G1 X128.042 Y128.351 E109.64379
G1 X128.274 Y128.651 E109.68930
G1 X128.574 Y128.882 E109.73473
G1 X128.924 Y129.027 E109.78020
G1 X129.300 Y129.077 E109.82571
G1 X129.675 Y129.027 E109.87111
G1 X130.026 Y128.882 E109.91668
G1 X130.326 Y128.651 E109.96212
G1 X130.557 Y128.351 E110.00755
G1 X130.702 Y128.000 E110.05313
G1 X130.752 Y127.625 E110.09853
G1 X130.702 Y127.249 E110.14404
G1 X130.557 Y126.899 E110.18950
G1 X130.326 Y126.599 E110.23494
G1 X130.026 Y126.367 E110.28045
G0 F9000 X130.141 Y126.092
G0 X128.821 Y125.834
G0 X127.695 Y126.698
G0 X127.509 Y128.103
G0 X128.373 Y129.229
G0 X129.780 Y129.415
G0 X130.609 Y128.934
G0 X127.341 Y133.334
G0 X127.341 Y120.834
G0 X102.659 Y120.834
G0 X102.448 Y127.662
G0 X102.152 Y127.625
G1 F1200 X102.103 Y127.249 E110.32595
G1 X101.958 Y126.899 E110.37141
G1 X101.727 Y126.598 E110.41694
G1 X101.426 Y126.367 E110.46247
G1 X101.076 Y126.222 E110.50794
G1 X100.700 Y126.173 E110.55344
G1 X100.325 Y126.222 E110.59882
G1 X99.974 Y126.367 E110.64439
G1 X99.674 Y126.599 E110.68990
G1 X99.443 Y126.899 E110.73534
G1 X99.298 Y127.249 E110.78080
G1 X99.248 Y127.625 E110.82632
G1 X99.298 Y128.000 E110.87171
G1 X99.443 Y128.351 E110.91729
G1 X99.674 Y128.651 E110.96272
G1 X99.974 Y128.882 E111.00816
G1 X100.325 Y129.027 E111.05373
G1 X100.700 Y129.077 E111.09913
G1 X101.076 Y129.027 E111.14465
G1 X101.426 Y128.882 E111.19011
G1 X101.726 Y128.651 E111.23554
G1 X101.958 Y128.351 E111.28105
G1 X102.103 Y128.000 E111.32662
G1 X102.152 Y127.625 E111.37201
G0 F9000 X102.448 Y127.662
G0 X102.305 Y126.698
G0 X101.179 Y125.834
G0 X99.773 Y126.020
G0 X99.391 Y126.315
G0 X99.203 Y122.379
G0 X97.796 Y120.972
G0 X89.399 Y119.346
G0 X89.203 Y101.130
G0 X87.796 Y99.723
G0 X84.399 Y98.096
G0 X84.341 Y91.666
G0 X93.259 Y91.666
G0 X93.319 Y106.604
G0 X89.648 Y98.135
G0 X89.527 Y97.861
G1 F1200 X89.978 Y97.661 E111.43121
G1 X90.393 Y97.351 E111.49337
G1 X90.717 Y96.982 E111.55230
G1 X90.949 Y96.582 E111.60779
G1 X91.101 Y96.115 E111.66672
G1 X91.152 Y95.625 E111.72584
