;FLAVOR:UltiGCode
;TIME:2389
;MATERIAL:3184
;MATERIAL2:0
;NOZZLE_DIAMETER:0.400000
;NOZZLE_DIAMETER2:0.400000

;Layer count: 78
;LAYER:0
M107
G0 F9000 X76.500 Y45.412 Z0.300
;TYPE:SKIRT
G1 F1200 X99.051 Y45.412 E2.70612
G1 X99.051 Y32.012 E4.31412
G1 X96.051 Y32.012 E4.67412
G1 X96.051 Y17.612 E6.40212
G1 X118.451 Y17.612 E9.09012
G1 X118.451 Y32.012 E10.81812
G1 X115.451 Y32.012 E11.17812
G1 X115.451 Y45.412 E12.78612
G1 X138.000 Y45.412 E15.49200
G1 X138.000 Y61.812 E17.46000
G1 X76.500 Y61.812 E24.84000
G1 X76.500 Y45.412 E26.80800
G10
G0 F9000 X80.300 Y49.212
;TYPE:WALL-INNER
G11
G1 F1200 X102.851 Y49.212 E29.51412
G1 X102.851 Y28.212 E32.03412
G1 X99.851 Y28.212 E32.39412
G1 X99.851 Y21.412 E33.21012
G1 X114.651 Y21.412 E34.98612
G1 X114.651 Y28.212 E35.80212
G1 X111.651 Y28.212 E36.16212
G1 X111.651 Y49.212 E38.68212
G1 X134.200 Y49.212 E41.38800
G1 X134.200 Y58.012 E42.44400
G1 X80.300 Y58.012 E48.91200
G1 X80.300 Y49.212 E49.96800
G0 F9000 X102.792 Y49.153
G0 X105.319 Y26.773
G1 F1200 X105.739 Y27.111 E50.03269
G1 X106.214 Y27.361 E50.09711
G1 X106.713 Y27.512 E50.15967
G1 X107.253 Y27.565 E50.22478
G1 X107.806 Y27.508 E50.29149
G1 X108.322 Y27.347 E50.35636
G1 X108.796 Y27.089 E50.42111
G1 X109.211 Y26.744 E50.48588
G1 X109.549 Y26.324 E50.55057
G1 X109.799 Y25.849 E50.61498
G1 X109.950 Y25.350 E50.67754
G1 X110.004 Y24.810 E50.74267
G1 X109.945 Y24.256 E50.80952
G1 X109.785 Y23.741 E50.87424
G1 X109.527 Y23.267 E50.93900
G1 X109.182 Y22.852 E51.00376
G1 X108.762 Y22.514 E51.06845
G1 X108.287 Y22.264 E51.13286
G1 X107.788 Y22.113 E51.19543
G1 X107.249 Y22.060 E51.26042
G1 X106.695 Y22.117 E51.32725
G1 X106.179 Y22.278 E51.39211
G1 X105.705 Y22.536 E51.45687
G1 X105.290 Y22.881 E51.52163
G1 X104.952 Y23.301 E51.58633
G1 X104.702 Y23.776 E51.65074
G1 X104.551 Y24.275 E51.71330
G1 X104.498 Y24.814 E51.77829
G1 X104.555 Y25.368 E51.84513
G1 X104.716 Y25.884 E51.90999
G1 X104.974 Y26.358 E51.97475
G1 X105.319 Y26.773 E52.03951
G0 F9000 X105.601 Y26.486
;TYPE:WALL-OUTER
G1 F1200 X105.960 Y26.775 E52.09481
G1 X106.367 Y26.989 E52.14999
G1 X106.792 Y27.118 E52.20329
G1 X107.252 Y27.163 E52.25876
G1 X107.725 Y27.114 E52.31582
G1 X108.165 Y26.977 E52.37112
G1 X108.570 Y26.756 E52.42648
G1 X108.924 Y26.462 E52.48170
G1 X109.213 Y26.103 E52.53701
G1 X109.427 Y25.696 E52.59219
G1 X109.556 Y25.271 E52.64549
G1 X109.602 Y24.811 E52.70096
G1 X109.552 Y24.337 E52.75816
G1 X109.415 Y23.898 E52.81334
G1 X109.194 Y23.493 E52.86871
G1 X108.900 Y23.139 E52.92393
G1 X108.541 Y22.850 E52.97923
G1 X108.134 Y22.636 E53.03441
G1 X107.709 Y22.507 E53.08771
G1 X107.250 Y22.462 E53.14305
G1 X106.776 Y22.511 E53.20024
G1 X106.336 Y22.648 E53.25554
G1 X105.931 Y22.869 E53.31090
G1 X105.577 Y23.163 E53.36612
G1 X105.288 Y23.522 E53.42143
G1 X105.074 Y23.929 E53.47661
G1 X104.945 Y24.354 E53.52990
G1 X104.900 Y24.813 E53.58525
G1 X104.949 Y25.287 E53.64243
G1 X105.086 Y25.727 E53.69773
G1 X105.307 Y26.132 E53.75310
G1 X105.601 Y26.486 E53.80832
G0 F9000 X105.413 Y26.719
G0 X102.751 Y28.612
G0 X102.451 Y28.612
G1 F1200 X99.451 Y28.612 E54.16832
G1 X99.451 Y21.012 E55.08032
G1 X115.051 Y21.012 E56.95232
G1 X115.051 Y28.612 E57.86432
G1 X112.051 Y28.612 E58.22432
G1 X112.051 Y48.812 E60.64832
G1 X134.600 Y48.812 E63.35420
G1 X134.600 Y58.412 E64.50620
G1 X79.900 Y58.412 E71.07020
G1 X79.900 Y48.812 E72.22220
G1 X102.451 Y48.812 E74.92832
G1 X102.451 Y28.612 E77.35232
G0 F9000 X102.990 Y28.602
;TYPE:SKIN
G1 F1200 X111.510 Y37.123 E78.79829
G0 F9000 X111.510 Y37.688
G1 F1200 X102.990 Y29.168 E80.24418
G0 F9000 X102.990 Y29.733
G1 F1200 X111.510 Y38.254 E81.69016
G0 F9000 X111.510 Y38.820
G1 F1200 X102.990 Y30.299 E83.13614
G0 F9000 X102.990 Y30.865
G1 F1200 X111.510 Y39.385 E84.58203
G0 F9000 X111.510 Y39.951
G1 F1200 X102.990 Y31.430 E86.02801
G0 F9000 X102.990 Y31.996
G1 F1200 X111.510 Y40.517 E87.47398
G0 F9000 X111.510 Y41.082
G1 F1200 X102.990 Y32.562 E88.91988
G0 F9000 X102.990 Y33.127
G1 F1200 X111.510 Y41.648 E90.36585
G0 F9000 X111.510 Y42.214
G1 F1200 X102.990 Y33.693 E91.81183
G0 F9000 X102.990 Y34.259
G1 F1200 X111.510 Y42.779 E93.25772
G0 F9000 X111.510 Y43.345
G1 F1200 X102.990 Y34.825 E94.70361
G0 F9000 X102.990 Y35.390
G1 F1200 X111.510 Y43.911 E96.14959
G0 F9000 X111.510 Y44.477
G1 F1200 X102.990 Y35.956 E97.59557
G0 F9000 X102.990 Y36.522
G1 F1200 X111.510 Y45.042 E99.04146
G0 F9000 X111.510 Y45.608
G1 F1200 X102.990 Y37.087 E100.48743
G0 F9000 X102.990 Y37.653
G1 F1200 X111.510 Y46.174 E101.93341
G0 F9000 X111.510 Y46.739
G1 F1200 X102.990 Y38.219 E103.37930
G0 F9000 X102.990 Y38.784
G1 F1200 X111.510 Y47.305 E104.82528
G0 F9000 X111.510 Y47.871
G1 F1200 X102.990 Y39.350 E106.27126
G0 F9000 X102.990 Y39.916
G1 F1200 X111.510 Y48.436 E107.71715
G0 F9000 X111.510 Y49.002
G1 F1200 X102.990 Y40.481 E109.16313
G0 F9000 X102.990 Y41.047
G1 F1200 X119.814 Y57.871 E112.01825
G0 F9000 X120.379 Y57.871
G1 F1200 X111.860 Y49.351 E113.46406
G0 F9000 X112.425 Y49.351
G1 F1200 X120.945 Y57.871 E114.90995
G0 F9000 X121.511 Y57.871
G1 F1200 X112.991 Y49.351 E116.35584
G0 F9000 X113.557 Y49.351
G1 F1200 X122.077 Y57.871 E117.80174
G0 F9000 X122.642 Y57.871
G1 F1200 X114.122 Y49.351 E119.24763
G0 F9000 X114.688 Y49.351
G1 F1200 X123.208 Y57.871 E120.69352
G0 F9000 X123.774 Y57.871
G1 F1200 X115.254 Y49.351 E122.13941
G0 F9000 X115.819 Y49.351
G1 F1200 X124.339 Y57.871 E123.58530
G0 F9000 X124.905 Y57.871
G1 F1200 X116.385 Y49.351 E125.03120
G0 F9000 X116.951 Y49.351
G1 F1200 X125.471 Y57.871 E126.47709
G0 F9000 X126.036 Y57.871
G1 F1200 X117.516 Y49.351 E127.92298
G0 F9000 X118.082 Y49.351
G1 F1200 X126.602 Y57.871 E129.36887
G0 F9000 X127.168 Y57.871
G1 F1200 X118.648 Y49.351 E130.81476
G0 F9000 X119.213 Y49.351
G1 F1200 X127.733 Y57.871 E132.26066
G0 F9000 X128.299 Y57.871
G1 F1200 X119.779 Y49.351 E133.70655
G0 F9000 X119.248 Y57.871
G1 F1200 X102.990 Y41.613 E136.46562
G0 F9000 X102.990 Y42.178
G1 F1200 X118.682 Y57.871 E139.12873
G0 F9000 X118.117 Y57.871
G1 F1200 X102.990 Y42.744 E141.69586
G0 F9000 X102.990 Y43.310
G1 F1200 X117.551 Y57.871 E144.16695
G0 F9000 X116.985 Y57.871
G1 F1200 X102.990 Y43.875 E146.54206
G0 F9000 X102.990 Y44.441
G1 F1200 X116.420 Y57.871 E148.82121
G0 F9000 X115.854 Y57.871
G1 F1200 X102.990 Y45.007 E151.00430
G0 F9000 X102.990 Y45.573
G1 F1200 X115.288 Y57.871 E153.09134
G0 F9000 X114.723 Y57.871
G1 F1200 X102.990 Y46.138 E155.08250
G0 F9000 X102.990 Y46.704
G1 F1200 X114.157 Y57.871 E156.97760
G0 F9000 X113.591 Y57.871
G1 F1200 X102.990 Y47.270 E158.77665
G0 F9000 X102.990 Y47.835
G1 F1200 X113.026 Y57.871 E160.47982
G0 F9000 X112.460 Y57.871
G1 F1200 X102.990 Y48.401 E162.08693
G0 F9000 X102.990 Y48.967
G1 F1200 X111.894 Y57.871 E163.59799
G0 F9000 X111.329 Y57.871
G1 F1200 X102.809 Y49.351 E165.04388
G0 F9000 X102.243 Y49.351
G1 F1200 X110.763 Y57.871 E166.48977
G0 F9000 X110.197 Y57.871
G1 F1200 X101.677 Y49.351 E167.93566
G0 F9000 X101.112 Y49.351
G1 F1200 X109.631 Y57.871 E169.38147
G0 F9000 X109.066 Y57.871
G1 F1200 X100.546 Y49.351 E170.82736
G0 F9000 X99.980 Y49.351
G1 F1200 X108.500 Y57.871 E172.27325
G0 F9000 X107.934 Y57.871
G1 F1200 X99.414 Y49.351 E173.71915
G0 F9000 X98.849 Y49.351
G1 F1200 X107.369 Y57.871 E175.16504
G0 F9000 X106.803 Y57.871
G1 F1200 X98.283 Y49.351 E176.61093
G0 F9000 X97.717 Y49.351
G1 F1200 X106.237 Y57.871 E178.05682
G0 F9000 X105.672 Y57.871
G1 F1200 X97.152 Y49.351 E179.50271
G0 F9000 X96.586 Y49.351
G1 F1200 X105.106 Y57.871 E180.94861
G0 F9000 X104.540 Y57.871
G1 F1200 X96.020 Y49.351 E182.39450
G0 F9000 X95.455 Y49.351
G1 F1200 X103.975 Y57.871 E183.84039
G0 F9000 X103.409 Y57.871
G1 F1200 X94.889 Y49.351 E185.28628
G0 F9000 X94.323 Y49.351
G1 F1200 X102.843 Y57.871 E186.73217
G0 F9000 X102.278 Y57.871
G1 F1200 X93.758 Y49.351 E188.17807
G0 F9000 X93.192 Y49.351
G1 F1200 X101.712 Y57.871 E189.62396
G0 F9000 X101.146 Y57.871
G1 F1200 X92.626 Y49.351 E191.06985
G0 F9000 X92.061 Y49.351
G1 F1200 X100.580 Y57.871 E192.51566
G0 F9000 X100.015 Y57.871
G1 F1200 X91.495 Y49.351 E193.96155
G0 F9000 X90.929 Y49.351
G1 F1200 X99.449 Y57.871 E195.40744
G0 F9000 X98.883 Y57.871
G1 F1200 X90.364 Y49.351 E196.85325
G0 F9000 X89.798 Y49.351
G1 F1200 X98.318 Y57.871 E198.29914
G0 F9000 X97.752 Y57.871
G1 F1200 X89.232 Y49.351 E199.74503
G0 F9000 X88.666 Y49.351
G1 F1200 X97.186 Y57.871 E201.19092
G0 F9000 X96.621 Y57.871
G1 F1200 X88.101 Y49.351 E202.63682
G0 F9000 X87.535 Y49.351
G1 F1200 X96.055 Y57.871 E204.08271
G0 F9000 X95.489 Y57.871
G1 F1200 X86.969 Y49.351 E205.52860
G0 F9000 X86.404 Y49.351
G1 F1200 X94.924 Y57.871 E206.97449
G0 F9000 X94.358 Y57.871
G1 F1200 X85.838 Y49.351 E208.42038
G0 F9000 X85.272 Y49.351
G1 F1200 X93.792 Y57.871 E209.86628
G0 F9000 X93.227 Y57.871
G1 F1200 X84.707 Y49.351 E211.31217
G0 F9000 X84.141 Y49.351
G1 F1200 X92.661 Y57.871 E212.75806
G0 F9000 X92.095 Y57.871
G1 F1200 X83.575 Y49.351 E214.20395
G0 F9000 X83.010 Y49.351
G1 F1200 X91.530 Y57.871 E215.64984
G0 F9000 X90.964 Y57.871
G1 F1200 X82.444 Y49.351 E217.09574
G0 F9000 X81.878 Y49.351
G1 F1200 X90.398 Y57.871 E218.54163
G0 F9000 X89.832 Y57.871
G1 F1200 X81.313 Y49.351 E219.98743
G0 F9000 X80.747 Y49.351
G1 F1200 X89.267 Y57.871 E221.43333
G0 F9000 X88.701 Y57.871
G1 F1200 X80.439 Y49.609 E222.83543
G0 F9000 X80.439 Y50.174
G1 F1200 X88.135 Y57.871 E224.14157
G0 F9000 X87.570 Y57.871
G1 F1200 X80.439 Y50.740 E225.35174
G0 F9000 X80.439 Y51.306
G1 F1200 X87.004 Y57.871 E226.46586
G0 F9000 X86.438 Y57.871
G1 F1200 X80.439 Y51.871 E227.48401
G0 F9000 X80.439 Y52.437
G1 F1200 X85.873 Y57.871 E228.40619
G0 F9000 X85.307 Y57.871
G1 F1200 X80.439 Y53.003 E229.23232
G0 F9000 X80.439 Y53.568
G1 F1200 X84.741 Y57.871 E229.96248
G0 F9000 X84.176 Y57.871
G1 F1200 X80.439 Y54.134 E230.59667
G0 F9000 X80.439 Y54.700
G1 F1200 X83.610 Y57.871 E231.13480
G0 F9000 X83.044 Y57.871
G1 F1200 X80.439 Y55.266 E231.57689
G0 F9000 X80.439 Y55.831
G1 F1200 X82.479 Y57.871 E231.92309
G0 F9000 X81.913 Y57.871
G1 F1200 X80.439 Y56.397 E232.17323
G0 F9000 X80.439 Y56.963
G1 F1200 X81.347 Y57.871 E232.32732
G0 F9000 X80.782 Y57.871
G1 F1200 X80.439 Y57.528 E232.38553
G0 F9000 X102.792 Y49.153
G0 X102.792 Y28.271
G0 X100.197 Y28.072
G1 F1200 X99.989 Y27.864 E232.42083
G0 F9000 X99.989 Y27.299
G1 F1200 X100.762 Y28.072 E232.55201
G0 F9000 X101.328 Y28.072
G1 F1200 X99.989 Y26.733 E232.77925
G0 F9000 X99.989 Y26.167
G1 F1200 X101.894 Y28.072 E233.10254
G0 F9000 X102.459 Y28.072
G1 F1200 X99.989 Y25.602 E233.52171
G0 F9000 X99.989 Y25.036
G1 F1200 X111.510 Y36.557 E235.47689
G0 F9000 X111.510 Y35.991
G1 F1200 X99.989 Y24.470 E237.43207
G0 F9000 X99.989 Y23.905
G1 F1200 X111.510 Y35.426 E239.38725
G0 F9000 X111.510 Y34.860
G1 F1200 X99.989 Y23.339 E241.34243
G0 F9000 X99.989 Y22.773
G1 F1200 X111.510 Y34.294 E243.29761
G0 F9000 X111.510 Y33.728
G1 F1200 X99.989 Y22.208 E245.25270
G0 F9000 X99.989 Y21.642
G1 F1200 X105.217 Y26.870 E246.13992
G1 X111.510 Y33.163 E247.20788
G0 F9000 X111.510 Y32.597
G1 F1200 X106.511 Y27.598 E248.05624
G0 F9000 X107.176 Y27.698
G1 F1200 X111.510 Y32.031 E248.79166
G0 F9000 X111.510 Y31.466
G1 F1200 X107.703 Y27.659 E249.43772
G0 F9000 X108.156 Y27.546
G1 F1200 X111.510 Y30.900 E250.00692
G0 F9000 X111.510 Y30.334
G1 F1200 X108.555 Y27.379 E250.50840
G0 F9000 X108.914 Y27.172
G1 F1200 X111.510 Y29.769 E250.94904
G0 F9000 X111.510 Y29.203
G1 F1200 X109.222 Y26.915 E251.33732
G0 F9000 X109.489 Y26.616
G1 F1200 X111.510 Y28.637 E251.68030
G0 F9000 X111.510 Y28.072
G1 F1200 X109.725 Y26.286 E251.98331
G0 F9000 X109.920 Y25.916
G1 F1200 X112.076 Y28.072 E252.34919
G0 F9000 X112.642 Y28.072
G1 F1200 X110.054 Y25.484 E252.78839
G0 F9000 X110.124 Y24.989
G1 F1200 X113.207 Y28.072 E253.31160
G0 F9000 X113.773 Y28.072
G1 F1200 X110.099 Y24.398 E253.93509
G0 F9000 X109.863 Y23.596
G1 F1200 X114.339 Y28.072 E254.69470
G0 F9000 X114.510 Y27.677
G1 F1200 X108.385 Y21.552 E255.73414
G0 F9000 X107.819 Y21.552
G1 F1200 X108.468 Y22.201 E255.84428
G0 F9000 X108.951 Y21.552
G1 F1200 X114.510 Y27.111 E256.78768
G0 F9000 X114.510 Y26.546
G1 F1200 X109.516 Y21.552 E257.63519
G0 F9000 X110.082 Y21.552
G1 F1200 X114.510 Y25.980 E258.38664
G0 F9000 X114.510 Y25.414
G1 F1200 X110.648 Y21.552 E259.04205
G0 F9000 X111.213 Y21.552
G1 F1200 X114.510 Y24.849 E259.60156
G0 F9000 X114.510 Y24.283
G1 F1200 X111.779 Y21.552 E260.06503
G0 F9000 X112.345 Y21.552
G1 F1200 X114.510 Y23.717 E260.43244
G0 F9000 X114.510 Y23.152
G1 F1200 X112.910 Y21.552 E260.70397
G0 F9000 X113.476 Y21.552
G1 F1200 X114.510 Y22.586 E260.87945
G0 F9000 X114.510 Y22.020
G1 F1200 X114.042 Y21.552 E260.95887
G0 F9000 X107.661 Y21.959
G1 F1200 X107.163 Y21.744 E261.02803
G1 X106.632 Y21.779 E261.09332
G1 X106.122 Y21.552 E261.16031
G0 F9000 X105.556 Y21.552
G1 F1200 X106.145 Y22.140 E261.26019
G0 F9000 X105.776 Y22.337
G1 F1200 X104.991 Y21.552 E261.39340
G0 F9000 X104.425 Y21.552
G1 F1200 X105.443 Y22.570 E261.56616
G0 F9000 X105.145 Y22.838
G1 F1200 X103.859 Y21.552 E261.78441
G0 F9000 X103.294 Y21.552
G1 F1200 X104.892 Y23.151 E262.05568
G0 F9000 X104.684 Y23.508
G1 F1200 X102.728 Y21.552 E262.38762
G0 F9000 X102.162 Y21.552
G1 F1200 X104.515 Y23.905 E262.78694
G0 F9000 X104.402 Y24.357
G1 F1200 X101.597 Y21.552 E263.26297
G0 F9000 X101.031 Y21.552
G1 F1200 X104.365 Y24.886 E263.82876
G0 F9000 X104.465 Y25.552
G1 F1200 X100.465 Y21.552 E264.50759
G0 F9000 X111.710 Y49.153
G0 X120.345 Y49.351
G1 F1200 X128.865 Y57.871 E265.95348
G0 F9000 X129.430 Y57.871
G1 F1200 X120.911 Y49.351 E267.39929
G0 F9000 X121.476 Y49.351
G1 F1200 X129.996 Y57.871 E268.84518
G0 F9000 X130.562 Y57.871
G1 F1200 X122.042 Y49.351 E270.29107
G0 F9000 X122.608 Y49.351
G1 F1200 X131.128 Y57.871 E271.73696
G0 F9000 X131.693 Y57.871
G1 F1200 X123.173 Y49.351 E273.18285
G0 F9000 X123.739 Y49.351
G1 F1200 X132.259 Y57.871 E274.62875
G0 F9000 X132.825 Y57.871
G1 F1200 X124.305 Y49.351 E276.07464
G0 F9000 X124.870 Y49.351
G1 F1200 X133.390 Y57.871 E277.52053
G0 F9000 X133.956 Y57.871
G1 F1200 X125.436 Y49.351 E278.96642
G0 F9000 X126.002 Y49.351
G1 F1200 X134.059 Y57.409 E280.33382
G0 F9000 X134.059 Y56.843
G1 F1200 X126.567 Y49.351 E281.60526
G0 F9000 X127.133 Y49.351
G1 F1200 X134.059 Y56.277 E282.78064
G0 F9000 X134.059 Y55.712
G1 F1200 X127.699 Y49.351 E283.86005
G0 F9000 X128.264 Y49.351
G1 F1200 X134.059 Y55.146 E284.84350
G0 F9000 X134.059 Y54.580
G1 F1200 X128.830 Y49.351 E285.73089
G0 F9000 X129.396 Y49.351
G1 F1200 X134.059 Y54.015 E286.52231
G0 F9000 X134.059 Y53.449
G1 F1200 X129.961 Y49.351 E287.21776
G0 F9000 X130.527 Y49.351
G1 F1200 X134.059 Y52.883 E287.81716
G0 F9000 X134.059 Y52.318
G1 F1200 X131.093 Y49.351 E288.32060
G0 F9000 X131.659 Y49.351
G1 F1200 X134.059 Y51.752 E288.72797
G0 F9000 X134.059 Y51.186
G1 F1200 X132.224 Y49.351 E289.03938
G0 F9000 X132.790 Y49.351
G1 F1200 X134.059 Y50.621 E289.25483
G0 F9000 X134.059 Y50.055
G1 F1200 X133.356 Y49.351 E289.37421
G0 F9000 X133.921 Y49.351
G1 F1200 X134.059 Y49.489 E289.39763
;LAYER:1
M106 S5
G0 F9000 X134.200 Y49.212 Z0.400
;TYPE:WALL-INNER
G1 F1500 X134.200 Y58.012 E289.74963
G1 X80.300 Y58.012 E291.90563
G1 X80.300 Y49.212 E292.25763
G1 X102.851 Y49.212 E293.15967
G1 X102.851 Y28.212 E293.99967
G1 X99.851 Y28.212 E294.11967
G1 X99.851 Y21.412 E294.39167
G1 X114.651 Y21.412 E294.98367
G1 X114.651 Y28.212 E295.25567
G1 X111.651 Y28.212 E295.37567
G1 X111.651 Y49.212 E296.21567
G1 X134.200 Y49.212 E297.11763
G0 F9000 X111.710 Y49.153
G0 X109.216 Y26.737
G1 F1500 X109.554 Y26.316 E297.13923
G1 X109.801 Y25.840 E297.16068
G1 X109.950 Y25.350 E297.18117
G1 X110.004 Y24.809 E297.20291
G1 X109.943 Y24.247 E297.22553
G1 X109.780 Y23.733 E297.24709
G1 X109.522 Y23.260 E297.26865
G1 X109.175 Y22.847 E297.29022
G1 X108.754 Y22.509 E297.31182
G1 X108.278 Y22.262 E297.33327
G1 X107.788 Y22.113 E297.35376
G1 X107.248 Y22.060 E297.37546
G1 X106.685 Y22.120 E297.39811
G1 X106.171 Y22.283 E297.41968
G1 X105.698 Y22.541 E297.44123
G1 X105.285 Y22.888 E297.46280
G1 X104.947 Y23.309 E297.48440
G1 X104.700 Y23.785 E297.50585
G1 X104.551 Y24.275 E297.52634
G1 X104.498 Y24.815 E297.54804
