;FLAVOR:UltiGCode
;TIME:1695
;MATERIAL:2165
;MATERIAL2:0
;NOZZLE_DIAMETER:0.400000
;NOZZLE_DIAMETER2:0.400000

;Layer count: 48
;LAYER:0
M107
G0 F9000 X84.339 Y18.395 Z0.300
;TYPE:SKIRT
G1 F1200 X84.601 Y17.585 E0.10216
G1 X84.945 Y16.811 E0.20380
G1 X85.367 Y16.078 E0.30529
G1 X85.871 Y15.383 E0.40832
G1 X86.461 Y14.734 E0.51357
G1 X87.091 Y14.170 E0.61504
G1 X87.779 Y13.674 E0.71681
G1 X88.506 Y13.258 E0.81733
G1 X89.257 Y12.922 E0.91606
G1 X90.085 Y12.655 E1.02045
G1 X90.970 Y12.465 E1.12907
G1 X102.149 Y11.827 E2.47274
G1 X102.772 Y11.558 E2.55417
G1 X103.583 Y11.290 E2.65666
G1 X104.417 Y11.095 E2.75944
G1 X105.274 Y10.975 E2.86329
G1 X105.923 Y10.944 E2.94126
G1 X106.109 Y10.930 E2.96364
G1 X106.986 Y10.967 E3.06897
G1 X107.836 Y11.079 E3.17185
G1 X108.667 Y11.266 E3.27407
G1 X109.483 Y11.526 E3.37684
G1 X110.193 Y11.825 E3.46928
G1 X120.053 Y12.366 E4.65426
G1 X120.710 Y12.403 E4.73323
G1 X121.455 Y12.484 E4.82316
G1 X122.283 Y12.661 E4.92476
G1 X123.089 Y12.926 E5.02657
G1 X123.859 Y13.270 E5.12778
G1 X124.592 Y13.694 E5.22939
G1 X125.278 Y14.194 E5.33126
G1 X125.906 Y14.761 E5.43279
G1 X126.473 Y15.391 E5.53450
G1 X126.971 Y16.078 E5.63632
G1 X127.393 Y16.811 E5.73781
G1 X127.737 Y17.585 E5.83946
G1 X127.999 Y18.395 E5.94161
G1 X128.174 Y19.222 E6.04305
G1 X128.262 Y20.062 E6.14440
G1 X128.262 Y20.909 E6.24604
G1 X128.174 Y21.749 E6.34739
G1 X127.999 Y22.576 E6.44883
G1 X127.737 Y23.386 E6.55099
G1 X127.393 Y24.160 E6.65263
G1 X126.971 Y24.893 E6.75413
G1 X126.467 Y25.588 E6.85715
G1 X125.883 Y26.230 E6.96129
G1 X125.271 Y26.784 E7.06035
G1 X124.556 Y27.298 E7.16602
G1 X123.831 Y27.713 E7.26627
G1 X123.080 Y28.049 E7.36500
G1 X122.252 Y28.316 E7.46940
G1 X121.367 Y28.506 E7.57801
G1 X110.188 Y29.144 E8.92168
G1 X109.565 Y29.413 E9.00311
G1 X108.754 Y29.681 E9.10561
G1 X107.920 Y29.876 E9.20838
G1 X107.063 Y29.996 E9.31223
G1 X106.415 Y30.027 E9.39008
G1 X106.227 Y30.041 E9.41270
G1 X105.351 Y30.004 E9.51791
G1 X104.501 Y29.892 E9.62079
G1 X103.670 Y29.705 E9.72301
G1 X102.854 Y29.445 E9.82578
G1 X102.144 Y29.146 E9.91823
G1 X92.284 Y28.605 E11.10321
G1 X91.627 Y28.568 E11.18217
G1 X90.882 Y28.487 E11.27210
G1 X90.054 Y28.310 E11.37370
G1 X89.248 Y28.045 E11.47552
G1 X88.478 Y27.701 E11.57672
G1 X87.743 Y27.276 E11.67860
G1 X87.059 Y26.776 E11.78027
G1 X86.432 Y26.210 E11.88163
G1 X85.865 Y25.580 E11.98334
G1 X85.367 Y24.893 E12.08516
G1 X84.945 Y24.160 E12.18666
G1 X84.601 Y23.386 E12.28830
G1 X84.339 Y22.576 E12.39046
G1 X84.164 Y21.749 E12.49190
G1 X84.076 Y20.909 E12.59325
G1 X84.076 Y20.062 E12.69489
G1 X84.164 Y19.222 E12.79624
G1 X84.339 Y18.395 E12.89768
G0 F9000 X84.726 Y18.498
G1 F1200 X84.975 Y17.728 E12.99479
G1 X85.302 Y16.993 E13.09132
G1 X85.703 Y16.296 E13.18782
G1 X86.182 Y15.636 E13.28568
G1 X86.743 Y15.018 E13.38584
G1 X87.342 Y14.482 E13.48229
G1 X87.996 Y14.011 E13.57901
G1 X88.687 Y13.615 E13.67458
G1 X89.401 Y13.296 E13.76842
G1 X90.188 Y13.042 E13.86766
G1 X91.024 Y12.862 E13.97028
G1 X102.243 Y12.222 E15.31875
G1 X102.914 Y11.932 E15.40646
G1 X103.691 Y11.676 E15.50463
G1 X104.491 Y11.488 E15.60325
G1 X105.311 Y11.373 E15.70261
G1 X105.941 Y11.344 E15.77829
G1 X106.116 Y11.331 E15.79935
G1 X106.952 Y11.366 E15.89976
G1 X107.766 Y11.473 E15.99828
G1 X108.562 Y11.652 E16.09618
G1 X109.345 Y11.901 E16.19478
G1 X110.102 Y12.222 E16.29345
G1 X120.031 Y12.766 E17.48672
G1 X120.677 Y12.802 E17.56436
G1 X121.392 Y12.879 E17.65065
G1 X122.178 Y13.047 E17.74710
G1 X122.944 Y13.299 E17.84387
G1 X123.677 Y13.626 E17.94019
G1 X124.374 Y14.030 E18.03686
G1 X125.025 Y14.505 E18.13356
G1 X125.623 Y15.044 E18.23017
G1 X126.161 Y15.643 E18.32679
G1 X126.635 Y16.296 E18.42362
G1 X127.036 Y16.993 E18.52011
G1 X127.363 Y17.728 E18.61665
G1 X127.612 Y18.498 E18.71376
G1 X127.778 Y19.285 E18.81027
G1 X127.862 Y20.083 E18.90656
G1 X127.862 Y20.888 E19.00316
G1 X127.778 Y21.686 E19.09945
G1 X127.612 Y22.473 E19.19597
G1 X127.363 Y23.243 E19.29308
G1 X127.036 Y23.978 E19.38962
G1 X126.635 Y24.675 E19.48611
G1 X126.156 Y25.335 E19.58397
G1 X125.600 Y25.947 E19.68319
G1 X125.019 Y26.472 E19.77716
G1 X124.340 Y26.961 E19.87757
G1 X123.650 Y27.356 E19.97298
G1 X122.936 Y27.675 E20.06682
G1 X122.149 Y27.929 E20.16606
G1 X121.313 Y28.109 E20.26868
G1 X110.094 Y28.749 E21.61715
G1 X109.423 Y29.039 E21.70486
G1 X108.646 Y29.295 E21.80304
G1 X107.846 Y29.483 E21.90165
G1 X107.026 Y29.598 E22.00101
G1 X106.395 Y29.627 E22.07681
G1 X106.220 Y29.640 E22.09787
G1 X105.385 Y29.605 E22.19816
G1 X104.571 Y29.498 E22.29668
G1 X103.775 Y29.319 E22.39458
G1 X102.992 Y29.070 E22.49318
G1 X102.235 Y28.749 E22.59185
G1 X92.306 Y28.205 E23.78512
G1 X91.660 Y28.169 E23.86276
G1 X90.945 Y28.092 E23.94905
G1 X90.159 Y27.924 E24.04550
G1 X89.393 Y27.672 E24.14227
G1 X88.660 Y27.345 E24.23859
G1 X87.961 Y26.940 E24.33553
G1 X87.311 Y26.465 E24.43214
G1 X86.715 Y25.927 E24.52849
G1 X86.177 Y25.328 E24.62510
G1 X85.703 Y24.675 E24.72193
G1 X85.302 Y23.978 E24.81842
G1 X84.975 Y23.243 E24.91496
G1 X84.726 Y22.473 E25.01207
G1 X84.560 Y21.686 E25.10859
G1 X84.476 Y20.888 E25.20488
G1 X84.476 Y20.083 E25.30148
G1 X84.560 Y19.285 E25.39777
G1 X84.726 Y18.498 E25.49428
G10
G0 F9000 X88.402 Y19.480
;TYPE:WALL-INNER
G11
G1 F1200 X88.529 Y19.087 E25.54385
G1 X88.693 Y18.718 E25.59230
G1 X88.896 Y18.367 E25.64096
G1 X89.134 Y18.038 E25.68969
G1 X89.426 Y17.717 E25.74176
G1 X89.724 Y17.450 E25.78977
G1 X90.058 Y17.209 E25.83920
G1 X90.411 Y17.007 E25.88800
G1 X90.766 Y16.848 E25.93468
G1 X91.168 Y16.719 E25.98534
G1 X91.537 Y16.639 E26.03065
G1 X102.590 Y16.008 E27.35917
G1 X103.283 Y15.970 E27.44246
G1 X103.817 Y15.682 E27.51526
G1 X104.265 Y15.488 E27.57385
G1 X104.726 Y15.336 E27.63210
G1 X105.190 Y15.227 E27.68929
G1 X105.665 Y15.161 E27.74684
G1 X106.177 Y15.137 E27.80835
G1 X106.615 Y15.155 E27.86095
G1 X107.107 Y15.220 E27.92050
G1 X107.560 Y15.321 E27.97620
G1 X108.023 Y15.469 E28.03453
G1 X108.477 Y15.661 E28.09368
G1 X109.056 Y15.970 E28.17244
G1 X120.373 Y16.591 E29.53252
G1 X120.782 Y16.635 E29.58188
G1 X121.188 Y16.722 E29.63171
G1 X121.569 Y16.847 E29.67983
G1 X121.948 Y17.016 E29.72962
G1 X122.298 Y17.219 E29.77818
G1 X122.628 Y17.459 E29.82714
G1 X122.928 Y17.730 E29.87565
G1 X123.200 Y18.032 E29.92443
G1 X123.442 Y18.367 E29.97402
G1 X123.645 Y18.718 E30.02267
G1 X123.809 Y19.087 E30.07113
G1 X123.936 Y19.480 E30.12069
G1 X124.019 Y19.873 E30.16889
G1 X124.062 Y20.284 E30.21848
G1 X124.062 Y20.687 E30.26684
G1 X124.019 Y21.098 E30.31643
G1 X123.936 Y21.491 E30.36463
G1 X123.809 Y21.884 E30.41419
G1 X123.645 Y22.253 E30.46265
G1 X123.442 Y22.604 E30.51131
G1 X123.204 Y22.933 E30.56003
G1 X122.910 Y23.257 E30.61253
G1 X122.632 Y23.508 E30.65748
G1 X122.279 Y23.762 E30.70967
G1 X121.926 Y23.964 E30.75847
G1 X121.571 Y24.123 E30.80515
G1 X121.169 Y24.252 E30.85581
G1 X120.800 Y24.332 E30.90112
G1 X109.747 Y24.963 E32.22964
G1 X109.054 Y25.001 E32.31293
G1 X108.520 Y25.289 E32.38573
G1 X108.072 Y25.483 E32.44431
G1 X107.611 Y25.635 E32.50256
G1 X107.147 Y25.744 E32.55976
G1 X106.672 Y25.810 E32.61731
G1 X106.159 Y25.834 E32.67893
G1 X105.722 Y25.816 E32.73142
G1 X105.230 Y25.751 E32.79097
G1 X104.777 Y25.650 E32.84667
G1 X104.314 Y25.502 E32.90500
G1 X103.860 Y25.310 E32.96415
G1 X103.281 Y25.001 E33.04290
G1 X91.964 Y24.380 E34.40299
G1 X91.555 Y24.336 E34.45235
G1 X91.149 Y24.249 E34.50218
G1 X90.768 Y24.124 E34.55029
G1 X90.389 Y23.955 E34.60009
G1 X90.038 Y23.751 E34.64881
G1 X89.712 Y23.513 E34.69724
G1 X89.409 Y23.239 E34.74627
G1 X89.138 Y22.939 E34.79478
G1 X88.896 Y22.604 E34.84437
G1 X88.693 Y22.253 E34.89303
G1 X88.529 Y21.884 E34.94148
G1 X88.402 Y21.491 E34.99105
G1 X88.319 Y21.098 E35.03925
G1 X88.276 Y20.687 E35.08883
G1 X88.276 Y20.284 E35.13719
G1 X88.319 Y19.873 E35.18678
G1 X88.402 Y19.480 E35.23498
G0 F9000 X90.166 Y20.147
G1 F1200 X90.122 Y20.486 E35.27601
G1 X90.168 Y20.832 E35.31789
G1 X90.315 Y21.164 E35.36146
G1 X90.523 Y21.422 E35.40123
G1 X90.774 Y21.616 E35.43930
G1 X91.091 Y21.747 E35.48046
G1 X91.427 Y21.790 E35.52111
G1 X91.771 Y21.746 E35.56272
G1 X92.107 Y21.597 E35.60683
G1 X92.372 Y21.383 E35.64770
G1 X92.429 Y21.305 E35.65930
G1 X92.523 Y21.422 E35.67731
G1 X92.774 Y21.616 E35.71537
G1 X93.091 Y21.747 E35.75653
G1 X93.427 Y21.790 E35.79718
G1 X93.771 Y21.746 E35.83880
G1 X94.107 Y21.597 E35.88291
G1 X94.372 Y21.383 E35.92378
G1 X94.567 Y21.115 E35.96355
G1 X94.687 Y20.824 E36.00133
G1 X94.732 Y20.486 E36.04224
G1 X94.686 Y20.139 E36.08425
G1 X94.539 Y19.807 E36.12782
G1 X94.331 Y19.549 E36.16759
G1 X94.080 Y19.355 E36.20565
G1 X93.763 Y19.224 E36.24681
G1 X93.427 Y19.181 E36.28746
G1 X93.083 Y19.225 E36.32908
G1 X92.747 Y19.374 E36.37319
G1 X92.482 Y19.588 E36.41406
G1 X92.425 Y19.666 E36.42565
G1 X92.331 Y19.549 E36.44366
G1 X92.080 Y19.355 E36.48173
G1 X91.763 Y19.224 E36.52289
G1 X91.427 Y19.181 E36.56354
G1 X91.083 Y19.225 E36.60516
G1 X90.747 Y19.374 E36.64926
G1 X90.482 Y19.588 E36.69014
G1 X90.287 Y19.856 E36.72991
G1 X90.166 Y20.147 E36.76773
G0 F9000 X91.085 Y19.228
G0 X92.330 Y19.550
G0 X92.423 Y19.845
G0 X93.085 Y19.228
G0 X94.330 Y19.550
G0 X103.267 Y20.490
G1 F1200 X103.306 Y20.943 E36.82229
G1 X103.390 Y21.321 E36.86876
G1 X103.543 Y21.721 E36.92015
G1 X103.771 Y22.117 E36.97498
G1 X104.009 Y22.422 E37.02141
G1 X104.314 Y22.718 E37.07241
G1 X104.693 Y22.982 E37.12783
G1 X105.073 Y23.169 E37.17866
G1 X105.471 Y23.300 E37.22894
G1 X105.851 Y23.370 E37.27530
G1 X106.279 Y23.385 E37.32670
G1 X106.736 Y23.329 E37.38195
G1 X107.143 Y23.215 E37.43267
G1 X107.530 Y23.045 E37.48339
G1 X107.885 Y22.821 E37.53376
G1 X108.183 Y22.574 E37.58021
G1 X108.465 Y22.259 E37.63094
G1 X108.698 Y21.906 E37.68170
G1 X108.879 Y21.522 E37.73264
G1 X109.000 Y21.116 E37.78348
G1 X109.062 Y20.694 E37.83466
G1 X109.057 Y20.233 E37.88998
G1 X108.990 Y19.818 E37.94043
G1 X108.878 Y19.445 E37.98716
G1 X108.677 Y19.030 E38.04250
G1 X108.438 Y18.680 E38.09336
G1 X108.151 Y18.370 E38.14405
G1 X107.822 Y18.104 E38.19482
G1 X107.457 Y17.888 E38.24571
G1 X107.069 Y17.730 E38.29599
G1 X106.696 Y17.633 E38.34224
G1 X106.272 Y17.585 E38.39344
G1 X105.811 Y17.608 E38.44883
G1 X105.395 Y17.690 E38.49971
G1 X105.001 Y17.832 E38.54997
G1 X104.657 Y18.008 E38.59634
G1 X104.308 Y18.258 E38.64785
G1 X103.986 Y18.578 E38.70233
G1 X103.749 Y18.883 E38.74868
G1 X103.539 Y19.258 E38.80025
G1 X103.382 Y19.686 E38.85496
G1 X103.298 Y20.064 E38.90143
G1 X103.267 Y20.490 E38.95268
G0 F9000 X104.010 Y22.421
G0 X105.852 Y23.369
G0 X107.885 Y22.820
G0 X109.000 Y21.116
G0 X117.605 Y20.486
G1 F1200 X117.651 Y20.832 E38.99457
G1 X117.798 Y21.164 E39.03814
G1 X118.006 Y21.422 E39.07791
G1 X118.257 Y21.616 E39.11597
G1 X118.574 Y21.747 E39.15713
G1 X118.910 Y21.790 E39.19778
G1 X119.254 Y21.746 E39.23940
G1 X119.590 Y21.597 E39.28351
G1 X119.855 Y21.383 E39.32438
G1 X119.912 Y21.305 E39.33597
G1 X120.006 Y21.422 E39.35398
G1 X120.257 Y21.616 E39.39205
G1 X120.574 Y21.747 E39.43321
G1 X120.910 Y21.790 E39.47386
G1 X121.254 Y21.746 E39.51548
G1 X121.590 Y21.597 E39.55958
G1 X121.855 Y21.383 E39.60046
G1 X122.050 Y21.115 E39.64023
G1 X122.170 Y20.824 E39.67800
G1 X122.215 Y20.486 E39.71892
G1 X122.169 Y20.139 E39.76092
G1 X122.022 Y19.807 E39.80450
G1 X121.814 Y19.549 E39.84426
G1 X121.563 Y19.355 E39.88233
G1 X121.246 Y19.224 E39.92349
G1 X120.910 Y19.181 E39.96414
G1 X120.566 Y19.225 E40.00576
G1 X120.230 Y19.374 E40.04986
G1 X119.965 Y19.588 E40.09074
G1 X119.908 Y19.666 E40.10233
G1 X119.814 Y19.549 E40.12034
G1 X119.563 Y19.355 E40.15841
G1 X119.246 Y19.224 E40.19957
G1 X118.910 Y19.181 E40.24022
G1 X118.566 Y19.225 E40.28183
G1 X118.230 Y19.374 E40.32594
G1 X117.965 Y19.588 E40.36682
G1 X117.770 Y19.856 E40.40659
G1 X117.649 Y20.147 E40.44441
G1 X117.605 Y20.486 E40.48543
G0 F9000 X118.008 Y20.486
;TYPE:WALL-OUTER
G1 F1200 X118.040 Y20.722 E40.51401
G1 X118.143 Y20.954 E40.54447
G1 X118.288 Y21.135 E40.57230
G1 X118.459 Y21.267 E40.59822
G1 X118.677 Y21.357 E40.62652
G1 X118.910 Y21.387 E40.65471
G1 X119.145 Y21.357 E40.68314
G1 X119.379 Y21.253 E40.71387
G1 X119.562 Y21.105 E40.74211
G1 X119.699 Y20.918 E40.76993
G1 X119.781 Y20.719 E40.79576
G1 X119.812 Y20.486 E40.82396
G1 X119.780 Y20.249 E40.85266
G1 X119.677 Y20.017 E40.88312
G1 X119.532 Y19.836 E40.91095
G1 X119.361 Y19.704 E40.93688
G1 X119.143 Y19.614 E40.96518
G1 X118.910 Y19.584 E40.99337
G1 X118.675 Y19.614 E41.02180
G1 X118.441 Y19.718 E41.05252
G1 X118.258 Y19.866 E41.08077
G1 X118.121 Y20.053 E41.10859
G1 X118.039 Y20.252 E41.13441
G1 X118.008 Y20.486 E41.16274
G10
G0 F9000 X120.008 Y20.486
G11
G1 F1200 X120.040 Y20.722 E41.19132
G1 X120.143 Y20.954 E41.22178
G1 X120.288 Y21.135 E41.24961
G1 X120.459 Y21.267 E41.27553
G1 X120.677 Y21.357 E41.30383
G1 X120.910 Y21.387 E41.33202
G1 X121.145 Y21.357 E41.36045
G1 X121.379 Y21.253 E41.39118
G1 X121.562 Y21.105 E41.41942
G1 X121.699 Y20.918 E41.44724
G1 X121.781 Y20.719 E41.47307
G1 X121.812 Y20.486 E41.50128
G1 X121.780 Y20.249 E41.52997
G1 X121.677 Y20.017 E41.56043
G1 X121.532 Y19.836 E41.58826
G1 X121.361 Y19.704 E41.61419
G1 X121.143 Y19.614 E41.64249
G1 X120.910 Y19.584 E41.67068
G1 X120.675 Y19.614 E41.69911
G1 X120.441 Y19.718 E41.72984
G1 X120.258 Y19.866 E41.75808
G1 X120.121 Y20.053 E41.78590
G1 X120.039 Y20.252 E41.81173
G1 X120.008 Y20.486 E41.84005
G10
G0 F9000 X120.400 Y16.192
G11
G1 F1200 X120.849 Y16.241 E41.89425
G1 X121.295 Y16.336 E41.94897
G1 X121.711 Y16.473 E42.00153
G1 X122.134 Y16.662 E42.05712
G1 X122.508 Y16.878 E42.10895
G1 X122.887 Y17.154 E42.16521
G1 X123.208 Y17.444 E42.21713
G1 X123.516 Y17.787 E42.27244
G1 X123.777 Y18.147 E42.32580
G1 X124.000 Y18.534 E42.37940
G1 X124.185 Y18.949 E42.43393
G1 X124.321 Y19.371 E42.48713
G1 X124.415 Y19.815 E42.54159
G1 X124.462 Y20.261 E42.59541
G1 X124.462 Y20.710 E42.64929
G1 X124.415 Y21.156 E42.70310
G1 X124.321 Y21.600 E42.75757
G1 X124.185 Y22.022 E42.81077
G1 X124.000 Y22.437 E42.86529
G1 X123.777 Y22.824 E42.91889
G1 X123.516 Y23.184 E42.97225
G1 X123.192 Y23.541 E43.03010
G1 X122.881 Y23.822 E43.08040
G1 X122.499 Y24.097 E43.13688
G1 X122.110 Y24.320 E43.19069
G1 X121.709 Y24.499 E43.24339
G1 X121.278 Y24.638 E43.29773
G1 X120.855 Y24.729 E43.34965
G1 X109.165 Y25.396 E44.75473
G1 X108.690 Y25.652 E44.81948
G1 X108.213 Y25.858 E44.88183
G1 X107.726 Y26.018 E44.94335
G1 X107.217 Y26.138 E45.00610
G1 X106.713 Y26.208 E45.06716
G1 X106.183 Y26.233 E45.13083
G1 X106.167 Y26.235 E45.13277
G1 X105.674 Y26.214 E45.19198
G1 X105.170 Y26.147 E45.25299
G1 X104.671 Y26.035 E45.31436
G1 X104.164 Y25.874 E45.37820
G1 X103.694 Y25.675 E45.43944
G1 X103.171 Y25.396 E45.51058
G1 X91.937 Y24.779 E46.86069
G1 X91.488 Y24.730 E46.91489
G1 X91.042 Y24.635 E46.96961
G1 X90.626 Y24.498 E47.02217
G1 X90.203 Y24.309 E47.07776
G1 X89.820 Y24.087 E47.13088
G1 X89.459 Y23.824 E47.18448
G1 X89.130 Y23.527 E47.23767
G1 X88.822 Y23.184 E47.29299
G1 X88.561 Y22.824 E47.34635
G1 X88.338 Y22.437 E47.39995
G1 X88.153 Y22.022 E47.45447
G1 X88.017 Y21.600 E47.50767
G1 X87.923 Y21.156 E47.56214
G1 X87.876 Y20.710 E47.61595
G1 X87.876 Y20.261 E47.66983
G1 X87.923 Y19.815 E47.72365
G1 X88.017 Y19.371 E47.77811
G1 X88.153 Y18.949 E47.83131
G1 X88.338 Y18.534 E47.88584
G1 X88.561 Y18.147 E47.93944
G1 X88.822 Y17.787 E47.99280
G1 X89.145 Y17.431 E48.05048
G1 X89.476 Y17.136 E48.10368
G1 X89.838 Y16.874 E48.15731
G1 X90.227 Y16.651 E48.21111
G1 X90.628 Y16.472 E48.26381
G1 X91.059 Y16.333 E48.31815
G1 X91.482 Y16.242 E48.37007
G1 X103.172 Y15.575 E49.77516
G1 X103.647 Y15.319 E49.83991
G1 X104.124 Y15.113 E49.90226
G1 X104.611 Y14.953 E49.96377
G1 X105.120 Y14.833 E50.02653
G1 X105.624 Y14.763 E50.08759
G1 X106.153 Y14.738 E50.15114
G1 X106.169 Y14.736 E50.15307
G1 X106.663 Y14.757 E50.21240
G1 X107.167 Y14.824 E50.27342
G1 X107.666 Y14.936 E50.33479
G1 X108.173 Y15.097 E50.39862
G1 X108.643 Y15.296 E50.45987
G1 X109.166 Y15.575 E50.53100
G1 X120.400 Y16.192 E51.88111
G0 F9000 X120.371 Y16.490
G0 X108.887 Y19.823
G0 X108.599 Y19.908
G1 F1200 X108.504 Y19.591 E51.92082
G1 X108.330 Y19.231 E51.96880
G1 X108.124 Y18.930 E52.01257
G1 X107.877 Y18.663 E52.05622
