;FLAVOR:UltiGCode
;TIME:3685
;MATERIAL:4552
;MATERIAL2:0
;NOZZLE_DIAMETER:0.400000
;NOZZLE_DIAMETER2:0.400000

;Layer count: 78
;LAYER:0
M107
G0 F9000 X44.790 Y22.533 Z0.300
;TYPE:SKIRT
G1 F1200 X45.238 Y21.671 E0.11658
G1 X45.650 Y21.077 E0.20332
G1 X45.776 Y20.896 E0.22979
G1 X46.370 Y20.228 E0.33706
G1 X47.061 Y19.612 E0.44814
G1 X47.668 Y19.190 E0.53685
G1 X47.668 Y19.191 E0.53697
G1 X47.856 Y19.060 E0.56447
G1 X48.662 Y18.640 E0.67354
G1 X49.526 Y18.312 E0.78444
G1 X50.468 Y18.078 E0.90091
G1 X51.309 Y17.980 E1.00251
G1 X61.894 Y17.400 E2.27462
G1 X62.712 Y17.060 E2.38092
G1 X63.565 Y16.796 E2.48807
G1 X64.444 Y16.617 E2.59572
G1 X65.334 Y16.525 E2.70308
G1 X66.082 Y16.521 E2.79285
G1 X66.277 Y16.521 E2.81625
G1 X67.129 Y16.605 E2.91898
G1 X68.002 Y16.773 E3.02566
G1 X68.860 Y17.028 E3.13308
G1 X69.693 Y17.365 E3.24091
G1 X69.758 Y17.399 E3.24971
G1 X79.691 Y17.944 E4.44346
G1 X80.346 Y17.980 E4.52218
G1 X81.140 Y18.071 E4.61808
G1 X82.041 Y18.283 E4.72916
G1 X82.919 Y18.606 E4.84142
G1 X83.586 Y18.948 E4.93137
G1 X83.789 Y19.054 E4.95885
G1 X84.386 Y19.462 E5.04562
G1 X84.570 Y19.590 E5.07252
G1 X85.234 Y20.175 E5.17871
G1 X85.851 Y20.860 E5.28934
G1 X86.281 Y21.470 E5.37890
G1 X86.414 Y21.662 E5.40693
G1 X86.833 Y22.457 E5.51477
G1 X87.167 Y23.319 E5.62570
G1 X87.397 Y24.224 E5.73775
G1 X87.515 Y25.148 E5.84953
G1 X87.520 Y25.896 E5.93929
G1 X87.520 Y26.128 E5.96713
G1 X87.413 Y27.019 E6.07482
G1 X87.195 Y27.919 E6.18594
G1 X86.868 Y28.794 E6.29804
G1 X86.420 Y29.656 E6.41461
G1 X86.008 Y30.250 E6.50136
G1 X85.882 Y30.431 E6.52783
G1 X85.288 Y31.099 E6.63509
G1 X84.596 Y31.716 E6.74635
G1 X83.986 Y32.138 E6.83536
G1 X83.801 Y32.267 E6.86242
G1 X82.995 Y32.687 E6.97149
G1 X82.131 Y33.015 E7.08239
G1 X81.189 Y33.249 E7.19886
G1 X80.347 Y33.347 E7.30058
G1 X74.028 Y33.693 E8.06000
G1 X74.028 Y60.064 E11.22452
G1 X57.629 Y60.064 E13.19240
G1 X57.629 Y33.693 E16.35692
G1 X51.819 Y33.375 E17.05516
G1 X50.560 Y33.266 E17.20681
G1 X49.616 Y33.044 E17.32318
G1 X48.738 Y32.721 E17.43544
G1 X48.071 Y32.379 E17.52539
G1 X47.866 Y32.272 E17.55314
G1 X47.271 Y31.864 E17.63971
G1 X47.088 Y31.737 E17.66644
G1 X46.424 Y31.152 E17.77264
G1 X45.807 Y30.467 E17.88326
G1 X45.377 Y29.857 E17.97282
G1 X45.244 Y29.665 E18.00085
G1 X44.825 Y28.870 E18.10869
G1 X44.491 Y28.008 E18.21962
G1 X44.261 Y27.103 E18.33168
G1 X44.143 Y26.179 E18.44346
G1 X44.138 Y25.431 E18.53322
G1 X44.138 Y25.199 E18.56106
G1 X44.245 Y24.308 E18.66875
G1 X44.463 Y23.408 E18.77987
G1 X44.790 Y22.533 E18.89196
G10
G0 F9000 X48.269 Y24.079
;TYPE:WALL-INNER
G11
G1 F1200 X48.497 Y23.640 E18.95132
G1 X48.767 Y23.251 E19.00815
G1 X49.063 Y22.918 E19.06161
G1 X49.416 Y22.603 E19.11838
G1 X49.827 Y22.318 E19.17840
G1 X50.218 Y22.114 E19.23132
G1 X50.666 Y21.944 E19.28882
G1 X51.146 Y21.825 E19.34817
G1 X51.634 Y21.768 E19.40713
G1 X62.941 Y21.148 E20.76600
G1 X63.522 Y20.839 E20.84497
G1 X64.012 Y20.635 E20.90866
G1 X64.505 Y20.482 E20.97061
G1 X65.017 Y20.378 E21.03330
G1 X65.543 Y20.324 E21.09675
G1 X66.092 Y20.321 E21.16263
G1 X66.586 Y20.370 E21.22221
G1 X67.098 Y20.468 E21.28476
G1 X67.602 Y20.618 E21.34786
G1 X68.090 Y20.816 E21.41106
G1 X68.717 Y21.148 E21.49620
G1 X80.025 Y21.768 E22.85519
G1 X80.486 Y21.821 E22.91088
G1 X80.947 Y21.930 E22.96772
G1 X81.388 Y22.091 E23.02406
G1 X81.835 Y22.321 E23.08438
G1 X82.221 Y22.585 E23.14050
G1 X82.555 Y22.879 E23.19390
G1 X82.877 Y23.236 E23.25159
G1 X83.161 Y23.640 E23.31085
G1 X83.368 Y24.032 E23.36405
G1 X83.540 Y24.477 E23.42130
G1 X83.657 Y24.940 E23.47860
G1 X83.716 Y25.402 E23.53449
G1 X83.720 Y25.898 E23.59401
G1 X83.666 Y26.348 E23.64840
G1 X83.556 Y26.803 E23.70457
G1 X83.389 Y27.248 E23.76161
G1 X83.161 Y27.687 E23.82097
G1 X82.891 Y28.076 E23.87779
G1 X82.595 Y28.409 E23.93126
G1 X82.239 Y28.727 E23.98854
G1 X81.830 Y29.009 E24.04816
G1 X81.439 Y29.213 E24.10108
G1 X80.991 Y29.383 E24.15858
G1 X80.511 Y29.502 E24.21792
G1 X80.023 Y29.559 E24.27688
G1 X70.228 Y30.096 E25.45405
G1 X70.228 Y56.264 E28.59421
G1 X61.429 Y56.264 E29.65009
G1 X61.429 Y30.096 E32.79025
G1 X52.097 Y29.585 E33.91176
G1 X51.160 Y29.504 E34.02462
G1 X50.710 Y29.397 E34.08013
G1 X50.269 Y29.236 E34.13646
G1 X49.822 Y29.006 E34.19679
G1 X49.437 Y28.742 E34.25281
G1 X49.102 Y28.447 E34.30637
G1 X48.781 Y28.091 E34.36389
G1 X48.497 Y27.687 E34.42315
G1 X48.290 Y27.295 E34.47635
G1 X48.118 Y26.850 E34.53360
G1 X48.001 Y26.387 E34.59091
G1 X47.942 Y25.925 E34.64680
G1 X47.938 Y25.429 E34.70632
G1 X47.992 Y24.979 E34.76071
G1 X48.102 Y24.524 E34.81688
G1 X48.269 Y24.079 E34.87392
G0 F9000 X49.947 Y25.034
G1 F1200 X49.826 Y25.325 E34.91173
G1 X49.782 Y25.664 E34.95276
G1 X49.828 Y26.010 E34.99464
G1 X49.975 Y26.342 E35.03821
G1 X50.183 Y26.600 E35.07798
G1 X50.434 Y26.794 E35.11605
G1 X50.751 Y26.925 E35.15721
G1 X51.087 Y26.968 E35.19786
G1 X51.431 Y26.924 E35.23947
G1 X51.767 Y26.775 E35.28358
G1 X52.032 Y26.561 E35.32445
G1 X52.089 Y26.483 E35.33605
G1 X52.183 Y26.600 E35.35406
G1 X52.434 Y26.794 E35.39212
G1 X52.751 Y26.925 E35.43328
G1 X53.087 Y26.968 E35.47393
G1 X53.431 Y26.924 E35.51555
G1 X53.767 Y26.775 E35.55966
G1 X54.032 Y26.561 E35.60053
G1 X54.227 Y26.293 E35.64030
G1 X54.347 Y26.002 E35.67808
G1 X54.392 Y25.664 E35.71899
G1 X54.346 Y25.317 E35.76100
G1 X54.199 Y24.985 E35.80457
G1 X53.991 Y24.727 E35.84434
G1 X53.740 Y24.533 E35.88240
G1 X53.423 Y24.402 E35.92356
G1 X53.087 Y24.359 E35.96421
G1 X52.743 Y24.403 E36.00583
G1 X52.407 Y24.552 E36.04994
G1 X52.142 Y24.766 E36.09081
G1 X52.085 Y24.844 E36.10240
G1 X51.991 Y24.727 E36.12041
G1 X51.740 Y24.533 E36.15848
G1 X51.423 Y24.402 E36.19964
G1 X51.087 Y24.359 E36.24029
G1 X50.743 Y24.403 E36.28191
G1 X50.407 Y24.552 E36.32601
G1 X50.142 Y24.766 E36.36689
G1 X49.947 Y25.034 E36.40666
G0 F9000 X51.087 Y24.361
G0 X52.197 Y24.987
G0 X52.083 Y25.023
G0 X52.745 Y24.406
G0 X53.990 Y24.728
G0 X62.926 Y25.664
G1 F1200 X62.969 Y26.154 E36.46569
G1 X63.092 Y26.631 E36.52480
G1 X63.297 Y27.083 E36.58436
G1 X63.603 Y27.521 E36.64847
G1 X63.946 Y27.868 E36.70702
G1 X64.311 Y28.138 E36.76150
G1 X64.788 Y28.369 E36.82510
G1 X65.217 Y28.501 E36.87896
G1 X65.710 Y28.563 E36.93859
G1 X66.244 Y28.533 E37.00277
G1 X66.724 Y28.422 E37.06189
G1 X67.173 Y28.232 E37.12040
G1 X67.554 Y27.997 E37.17411
G1 X67.927 Y27.668 E37.23380
G1 X68.254 Y27.250 E37.29748
G1 X68.473 Y26.859 E37.35126
G1 X68.637 Y26.395 E37.41032
G1 X68.721 Y25.906 E37.46986
G1 X68.713 Y25.374 E37.53370
G1 X68.636 Y24.927 E37.58813
G1 X68.451 Y24.430 E37.65177
G1 X68.233 Y24.039 E37.70549
G1 X67.921 Y23.652 E37.76514
G1 X67.513 Y23.304 E37.82949
G1 X67.090 Y23.054 E37.88846
G1 X66.636 Y22.879 E37.94684
G1 X66.197 Y22.785 E38.00072
G1 X65.701 Y22.764 E38.06029
G1 X65.176 Y22.839 E38.12393
G1 X64.742 Y22.972 E38.17840
G1 X64.268 Y23.220 E38.24260
G1 X63.881 Y23.517 E38.30114
G1 X63.567 Y23.844 E38.35554
G1 X63.278 Y24.287 E38.41901
G1 X63.092 Y24.696 E38.47293
G1 X62.969 Y25.173 E38.53204
G1 X62.926 Y25.664 E38.59118
G10
G0 F9000 X77.265 Y25.664
G11
G1 F1200 X77.311 Y26.010 E38.63307
G1 X77.458 Y26.342 E38.67664
G1 X77.666 Y26.600 E38.71641
G1 X77.917 Y26.794 E38.75448
G1 X78.234 Y26.925 E38.79564
G1 X78.570 Y26.968 E38.83629
G1 X78.914 Y26.924 E38.87790
G1 X79.250 Y26.775 E38.92201
G1 X79.515 Y26.561 E38.96288
G1 X79.572 Y26.483 E38.97448
G1 X79.666 Y26.600 E38.99249
G1 X79.917 Y26.794 E39.03055
G1 X80.234 Y26.925 E39.07171
G1 X80.570 Y26.968 E39.11236
G1 X80.914 Y26.924 E39.15398
G1 X81.250 Y26.775 E39.19809
G1 X81.515 Y26.561 E39.23896
G1 X81.710 Y26.293 E39.27873
G1 X81.830 Y26.002 E39.31651
G1 X81.875 Y25.664 E39.35742
G1 X81.829 Y25.317 E39.39943
G1 X81.682 Y24.985 E39.44300
G1 X81.474 Y24.727 E39.48277
G1 X81.223 Y24.533 E39.52083
G1 X80.906 Y24.402 E39.56199
G1 X80.570 Y24.359 E39.60264
G1 X80.226 Y24.403 E39.64426
G1 X79.890 Y24.552 E39.68837
G1 X79.625 Y24.766 E39.72924
G1 X79.568 Y24.844 E39.74083
G1 X79.474 Y24.727 E39.75884
G1 X79.223 Y24.533 E39.79691
G1 X78.906 Y24.402 E39.83807
G1 X78.570 Y24.359 E39.87872
G1 X78.226 Y24.403 E39.92034
G1 X77.890 Y24.552 E39.96444
G1 X77.625 Y24.766 E40.00532
G1 X77.430 Y25.034 E40.04509
G1 X77.309 Y25.325 E40.08291
G1 X77.265 Y25.664 E40.12393
G0 F9000 X70.283 Y30.148
G0 X70.178 Y50.764
G1 F1200 X61.479 Y50.764 E41.16781
G1 X61.479 Y55.464 E41.73181
G1 X70.178 Y55.464 E42.77569
G1 X70.178 Y50.764 E43.33969
G0 F9000 X69.778 Y51.164
;TYPE:WALL-OUTER
G1 F1200 X61.879 Y51.164 E44.28757
G1 X61.879 Y55.064 E44.75557
G1 X69.778 Y55.064 E45.70345
G1 X69.778 Y51.164 E46.17145
G0 F9000 X69.778 Y50.864
G0 X70.119 Y50.823
G0 X70.328 Y56.454
G0 X70.628 Y56.664
G1 F1200 X61.029 Y56.664 E47.32333
G1 X61.029 Y30.475 E50.46601
G1 X52.056 Y29.983 E51.54439
G1 X51.104 Y29.901 E51.65905
G1 X50.594 Y29.781 E51.72192
G1 X50.103 Y29.600 E51.78472
G1 X49.631 Y29.358 E51.84837
G1 X49.202 Y29.066 E51.91064
G1 X48.823 Y28.734 E51.97110
G1 X48.469 Y28.342 E52.03449
G1 X48.163 Y27.907 E52.09831
G1 X47.926 Y27.462 E52.15881
G1 X47.735 Y26.970 E52.22214
G1 X47.607 Y26.463 E52.28489
G1 X47.542 Y25.954 E52.34647
G1 X47.538 Y25.419 E52.41067
G1 X47.538 Y25.407 E52.41211
G1 X47.598 Y24.906 E52.47266
G1 X47.719 Y24.406 E52.53439
G1 X47.902 Y23.916 E52.59716
G1 X48.153 Y23.433 E52.66248
G1 X48.451 Y23.004 E52.72516
G1 X48.780 Y22.634 E52.78457
G1 X49.169 Y22.287 E52.84712
G1 X49.620 Y21.974 E52.91300
G1 X50.052 Y21.749 E52.97145
G1 X50.545 Y21.562 E53.03472
G1 X51.072 Y21.431 E53.09989
G1 X51.599 Y21.370 E53.16355
G1 X62.831 Y20.753 E54.51342
G1 X63.350 Y20.477 E54.58396
G1 X63.875 Y20.259 E54.65218
G1 X64.406 Y20.094 E54.71890
G1 X64.959 Y19.982 E54.78661
G1 X65.520 Y19.924 E54.85429
G1 X66.091 Y19.921 E54.92281
G1 X66.110 Y19.921 E54.92509
G1 X66.645 Y19.974 E54.98960
G1 X67.188 Y20.078 E55.05595
G1 X67.740 Y20.242 E55.12505
G1 X68.253 Y20.450 E55.19148
G1 X68.826 Y20.753 E55.26926
G1 X80.058 Y21.370 E56.61913
G1 X80.554 Y21.427 E56.67904
G1 X81.063 Y21.546 E56.74177
G1 X81.554 Y21.727 E56.80457
G1 X82.026 Y21.969 E56.86822
G1 X82.455 Y22.260 E56.93042
G1 X82.835 Y22.593 E56.99105
G1 X83.189 Y22.985 E57.05444
G1 X83.495 Y23.420 E57.11826
G1 X83.732 Y23.865 E57.17876
G1 X83.923 Y24.357 E57.24209
G1 X84.051 Y24.864 E57.30484
G1 X84.116 Y25.373 E57.36642
G1 X84.120 Y25.908 E57.43062
G1 X84.120 Y25.920 E57.43206
G1 X84.060 Y26.421 E57.49261
G1 X83.939 Y26.921 E57.55434
G1 X83.756 Y27.411 E57.61711
G1 X83.505 Y27.894 E57.68243
G1 X83.207 Y28.323 E57.74511
G1 X82.878 Y28.693 E57.80452
G1 X82.489 Y29.040 E57.86707
G1 X82.037 Y29.353 E57.93305
G1 X81.605 Y29.578 E57.99150
G1 X81.112 Y29.765 E58.05477
G1 X80.585 Y29.896 E58.11994
G1 X80.058 Y29.957 E58.18360
G1 X70.628 Y30.475 E59.31691
G1 X70.628 Y56.664 E62.45959
G0 F9000 X70.328 Y56.454
G0 X70.119 Y50.823
G0 X66.204 Y28.435
G0 X66.187 Y28.136
G1 F1200 X66.600 Y28.040 E62.51047
G1 X66.989 Y27.875 E62.56117
G1 X67.315 Y27.674 E62.60713
G1 X67.635 Y27.393 E62.65823
G1 X67.920 Y27.028 E62.71380
G1 X68.107 Y26.694 E62.75974
G1 X68.248 Y26.294 E62.81063
G1 X68.320 Y25.875 E62.86165
G1 X68.314 Y25.411 E62.91734
G1 X68.248 Y25.032 E62.96350
G1 X68.087 Y24.598 E63.01905
G1 X67.900 Y24.264 E63.06498
G1 X67.633 Y23.932 E63.11611
G1 X67.280 Y23.631 E63.17178
G1 X66.915 Y23.415 E63.22267
G1 X66.521 Y23.264 E63.27330
G1 X66.146 Y23.183 E63.31934
G1 X65.721 Y23.165 E63.37039
G1 X65.263 Y23.230 E63.42590
G1 X64.895 Y23.343 E63.47209
G1 X64.484 Y23.559 E63.52781
G1 X64.148 Y23.816 E63.57857
G1 X63.882 Y24.094 E63.62474
G1 X63.629 Y24.480 E63.68013
G1 X63.471 Y24.830 E63.72621
G1 X63.364 Y25.241 E63.77717
G1 X63.327 Y25.664 E63.82813
G1 X63.364 Y26.086 E63.87896
G1 X63.471 Y26.497 E63.92992
G1 X63.646 Y26.884 E63.98089
G1 X63.912 Y27.264 E64.03655
G1 X64.209 Y27.565 E64.08730
G1 X64.519 Y27.794 E64.13355
G1 X64.935 Y27.996 E64.18904
G1 X65.302 Y28.108 E64.23508
G1 X65.724 Y28.162 E64.28614
G1 X66.187 Y28.136 E64.34179
G0 F9000 X66.204 Y28.435
G0 X77.402 Y25.938
G0 X77.700 Y25.900
G1 F1200 X77.803 Y26.132 E64.37225
G1 X77.948 Y26.313 E64.40008
G1 X78.119 Y26.445 E64.42600
G1 X78.337 Y26.535 E64.45430
G1 X78.570 Y26.565 E64.48249
G1 X78.805 Y26.535 E64.51092
G1 X79.039 Y26.431 E64.54165
G1 X79.222 Y26.283 E64.56989
G1 X79.359 Y26.096 E64.59771
G1 X79.441 Y25.897 E64.62354
G1 X79.472 Y25.664 E64.65174
G1 X79.440 Y25.427 E64.68044
G1 X79.337 Y25.195 E64.71090
G1 X79.192 Y25.014 E64.73873
G1 X79.021 Y24.882 E64.76465
G1 X78.803 Y24.792 E64.79296
G1 X78.570 Y24.762 E64.82115
G1 X78.335 Y24.792 E64.84958
G1 X78.101 Y24.896 E64.88030
G1 X77.918 Y25.044 E64.90855
G1 X77.781 Y25.231 E64.93636
G1 X77.699 Y25.430 E64.96219
G1 X77.668 Y25.664 E64.99052
G1 X77.700 Y25.900 E65.01910
G10
G0 F9000 X79.668 Y25.664
G11
G1 F1200 X79.700 Y25.900 E65.04768
G1 X79.803 Y26.132 E65.07814
G1 X79.948 Y26.313 E65.10597
G1 X80.119 Y26.445 E65.13189
G1 X80.337 Y26.535 E65.16019
G1 X80.570 Y26.565 E65.18838
G1 X80.805 Y26.535 E65.21681
G1 X81.039 Y26.431 E65.24754
G1 X81.222 Y26.283 E65.27578
G1 X81.359 Y26.096 E65.30360
G1 X81.441 Y25.897 E65.32943
G1 X81.472 Y25.664 E65.35763
G1 X81.440 Y25.427 E65.38633
G1 X81.337 Y25.195 E65.41679
G1 X81.192 Y25.014 E65.44462
G1 X81.021 Y24.882 E65.47054
G1 X80.803 Y24.792 E65.49885
G1 X80.570 Y24.762 E65.52704
G1 X80.335 Y24.792 E65.55547
G1 X80.101 Y24.896 E65.58619
G1 X79.918 Y25.044 E65.61444
G1 X79.781 Y25.231 E65.64226
G1 X79.699 Y25.430 E65.66808
G1 X79.668 Y25.664 E65.69641
G10
G0 F9000 X53.989 Y25.664
G11
G1 F1200 X53.957 Y25.427 E65.72511
G1 X53.854 Y25.195 E65.75557
G1 X53.709 Y25.014 E65.78340
G1 X53.538 Y24.882 E65.80932
G1 X53.320 Y24.792 E65.83762
G1 X53.087 Y24.762 E65.86581
G1 X52.852 Y24.792 E65.89424
G1 X52.618 Y24.896 E65.92497
G1 X52.435 Y25.044 E65.95321
G1 X52.298 Y25.231 E65.98103
G1 X52.216 Y25.430 E66.00686
G1 X52.185 Y25.664 E66.03518
G1 X52.217 Y25.900 E66.06376
G1 X52.320 Y26.132 E66.09422
G1 X52.465 Y26.313 E66.12205
G1 X52.636 Y26.445 E66.14798
G1 X52.854 Y26.535 E66.17628
G1 X53.087 Y26.565 E66.20447
G1 X53.322 Y26.535 E66.23290
G1 X53.556 Y26.431 E66.26363
G1 X53.739 Y26.283 E66.29187
G1 X53.876 Y26.096 E66.31969
G1 X53.958 Y25.897 E66.34551
G1 X53.989 Y25.664 E66.37372
G10
G0 F9000 X51.989 Y25.664
G11
G1 F1200 X51.957 Y25.427 E66.40242
G1 X51.854 Y25.195 E66.43288
G1 X51.709 Y25.014 E66.46071
G1 X51.538 Y24.882 E66.48663
G1 X51.320 Y24.792 E66.51493
G1 X51.087 Y24.762 E66.54312
G1 X50.852 Y24.792 E66.57155
G1 X50.618 Y24.896 E66.60228
G1 X50.435 Y25.044 E66.63052
G1 X50.298 Y25.231 E66.65834
G1 X50.216 Y25.430 E66.68417
G1 X50.185 Y25.664 E66.71249
G1 X50.217 Y25.900 E66.74107
G1 X50.320 Y26.132 E66.77153
G1 X50.465 Y26.313 E66.79936
G1 X50.636 Y26.445 E66.82529
G1 X50.854 Y26.535 E66.85359
G1 X51.087 Y26.565 E66.88178
G1 X51.322 Y26.535 E66.91021
G1 X51.556 Y26.431 E66.94094
G1 X51.739 Y26.283 E66.96918
G1 X51.876 Y26.096 E66.99700
G1 X51.958 Y25.897 E67.02283
G1 X51.989 Y25.664 E67.05103
G0 F9000 X51.970 Y24.535
;TYPE:SKIN
G1 F1200 X49.884 Y22.448 E67.40512
G0 F9000 X49.550 Y22.680
G1 F1200 X51.087 Y24.217 E67.66596
G0 F9000 X50.611 Y24.307
G1 F1200 X49.246 Y22.942 E67.89761
G0 F9000 X48.970 Y23.231
G1 F1200 X50.242 Y24.504 E68.11356
G0 F9000 X49.956 Y24.783
G1 F1200 X48.726 Y23.553 E68.32230
G0 F9000 X48.514 Y23.907
G1 F1200 X49.749 Y25.142 E68.53188
G0 F9000 X49.646 Y25.605
G1 F1200 X48.336 Y24.294 E68.75428
G0 F9000 X48.197 Y24.721
G1 F1200 X49.824 Y26.348 E69.03039
G0 F9000 X50.413 Y26.937
G1 F1200 X52.967 Y29.492 E69.46391
G0 F9000 X52.369 Y29.458
G1 F1200 X48.105 Y25.195 E70.18745
G0 F9000 X48.079 Y25.734
G1 F1200 X51.759 Y29.414 E70.81196
G0 F9000 X51.131 Y29.352
G1 F1200 X48.138 Y26.359 E71.31989
G0 F9000 X48.395 Y27.181
G1 F1200 X50.313 Y29.100 E71.64547
G0 F9000 X51.142 Y27.101
G1 F1200 X53.566 Y29.524 E72.05675
G0 F9000 X54.164 Y29.557
G1 F1200 X51.606 Y26.999 E72.49086
G0 F9000 X51.966 Y26.793
G1 F1200 X54.763 Y29.590 E72.96553
G0 F9000 X55.361 Y29.622
G1 F1200 X52.813 Y27.074 E73.39794
G0 F9000 X53.376 Y27.072
G1 F1200 X55.960 Y29.656 E73.83646
G0 F9000 X56.558 Y29.688
G1 F1200 X53.788 Y26.918 E74.30654
G0 F9000 X54.111 Y26.675
G1 F1200 X57.156 Y29.721 E74.82338
G0 F9000 X57.755 Y29.754
