;FLAVOR:UltiGCode
;TIME:791
;MATERIAL:1132
;MATERIAL2:0
;NOZZLE_DIAMETER:0.400000
;NOZZLE_DIAMETER2:0.400000

;Layer count: 28
;LAYER:0
M107
G0 F9000 X72.202 Y16.211 Z0.300
;TYPE:SKIRT
G1 F1200 X131.101 Y16.211 E7.06788
G1 X131.101 Y32.611 E9.03588
G1 X72.202 Y32.611 E16.10376
G1 X72.202 Y16.211 E18.07176
G10
G0 F9000 X76.002 Y20.011
;TYPE:WALL-INNER
G11
G1 F1200 X127.301 Y20.011 E24.22764
G1 X127.301 Y28.811 E25.28364
G1 X76.002 Y28.811 E31.43952
G1 X76.002 Y20.011 E32.49552
G0 F9000 X75.602 Y19.611
;TYPE:WALL-OUTER
G1 F1200 X127.701 Y19.611 E38.74740
G1 X127.701 Y29.211 E39.89940
G1 X75.602 Y29.211 E46.15128
G1 X75.602 Y19.611 E47.30328
G0 F9000 X76.141 Y20.421
;TYPE:SKIN
G1 F1200 X84.390 Y28.670 E48.70318
G0 F9000 X83.824 Y28.670
G1 F1200 X76.141 Y20.986 E50.00711
G0 F9000 X76.141 Y21.552
G1 F1200 X83.258 Y28.670 E51.21499
G0 F9000 X82.693 Y28.670
G1 F1200 X76.141 Y22.118 E52.32691
G0 F9000 X76.141 Y22.683
G1 F1200 X82.127 Y28.670 E53.34285
G0 F9000 X81.561 Y28.670
G1 F1200 X76.141 Y23.249 E54.26274
G0 F9000 X76.141 Y23.815
G1 F1200 X80.996 Y28.670 E55.08666
G0 F9000 X80.430 Y28.670
G1 F1200 X76.141 Y24.381 E55.81453
G0 F9000 X76.141 Y24.946
G1 F1200 X79.864 Y28.670 E56.44643
G0 F9000 X79.299 Y28.670
G1 F1200 X76.141 Y25.512 E56.98236
G0 F9000 X76.141 Y26.078
G1 F1200 X78.733 Y28.670 E57.42223
G0 F9000 X78.167 Y28.670
G1 F1200 X76.141 Y26.643 E57.76614
G0 F9000 X76.141 Y27.209
G1 F1200 X77.602 Y28.670 E58.01408
G0 F9000 X77.036 Y28.670
G1 F1200 X76.141 Y27.775 E58.16597
G0 F9000 X76.141 Y28.340
G1 F1200 X76.470 Y28.670 E58.22189
G0 F9000 X84.956 Y28.670
G1 F1200 X76.436 Y20.151 E59.66769
G0 F9000 X77.002 Y20.151
G1 F1200 X85.521 Y28.670 E61.11341
G0 F9000 X86.087 Y28.670
G1 F1200 X77.568 Y20.151 E62.55914
G0 F9000 X78.133 Y20.151
G1 F1200 X86.653 Y28.670 E64.00494
G0 F9000 X87.218 Y28.670
G1 F1200 X78.699 Y20.151 E65.45067
G0 F9000 X79.265 Y20.151
G1 F1200 X87.784 Y28.670 E66.89639
G0 F9000 X88.350 Y28.670
G1 F1200 X79.830 Y20.151 E68.34220
G0 F9000 X80.396 Y20.151
G1 F1200 X88.915 Y28.670 E69.78792
G0 F9000 X89.481 Y28.670
G1 F1200 X80.962 Y20.151 E71.23364
G0 F9000 X81.527 Y20.151
G1 F1200 X90.047 Y28.670 E72.67945
G0 F9000 X90.612 Y28.670
G1 F1200 X82.093 Y20.151 E74.12517
G0 F9000 X82.659 Y20.151
G1 F1200 X91.178 Y28.670 E75.57089
G0 F9000 X91.744 Y28.670
G1 F1200 X83.225 Y20.151 E77.01661
G0 F9000 X83.790 Y20.151
G1 F1200 X92.309 Y28.670 E78.46234
G0 F9000 X92.875 Y28.670
G1 F1200 X84.356 Y20.151 E79.90806
G0 F9000 X84.922 Y20.151
G1 F1200 X93.441 Y28.670 E81.35378
G0 F9000 X94.007 Y28.670
G1 F1200 X85.487 Y20.151 E82.79959
G0 F9000 X86.053 Y20.151
G1 F1200 X94.572 Y28.670 E84.24531
G0 F9000 X95.138 Y28.670
G1 F1200 X86.619 Y20.151 E85.69103
G0 F9000 X87.184 Y20.151
G1 F1200 X95.704 Y28.670 E87.13684
G0 F9000 X96.269 Y28.670
G1 F1200 X87.750 Y20.151 E88.58256
G0 F9000 X88.316 Y20.151
G1 F1200 X96.835 Y28.670 E90.02828
G0 F9000 X97.401 Y28.670
G1 F1200 X88.881 Y20.151 E91.47409
G0 F9000 X89.447 Y20.151
G1 F1200 X97.966 Y28.670 E92.91981
G0 F9000 X98.532 Y28.670
G1 F1200 X90.013 Y20.151 E94.36554
G0 F9000 X90.578 Y20.151
G1 F1200 X99.098 Y28.670 E95.81134
G0 F9000 X99.663 Y28.670
G1 F1200 X91.144 Y20.151 E97.25706
G0 F9000 X91.710 Y20.151
G1 F1200 X100.229 Y28.670 E98.70279
G0 F9000 X100.795 Y28.670
G1 F1200 X92.276 Y20.151 E100.14851
G0 F9000 X92.841 Y20.151
G1 F1200 X101.360 Y28.670 E101.59423
G0 F9000 X101.926 Y28.670
G1 F1200 X93.407 Y20.151 E103.03995
G0 F9000 X93.973 Y20.151
G1 F1200 X102.492 Y28.670 E104.48568
G0 F9000 X103.057 Y28.670
G1 F1200 X94.538 Y20.151 E105.93140
G0 F9000 X95.104 Y20.151
G1 F1200 X103.623 Y28.670 E107.37712
G0 F9000 X104.189 Y28.670
G1 F1200 X95.670 Y20.151 E108.82284
G0 F9000 X96.235 Y20.151
G1 F1200 X104.755 Y28.670 E110.26865
G0 F9000 X105.320 Y28.670
G1 F1200 X96.801 Y20.151 E111.71437
G0 F9000 X97.367 Y20.151
G1 F1200 X105.886 Y28.670 E113.16009
G0 F9000 X106.452 Y28.670
G1 F1200 X97.932 Y20.151 E114.60590
G0 F9000 X98.498 Y20.151
G1 F1200 X107.017 Y28.670 E116.05162
G0 F9000 X107.583 Y28.670
G1 F1200 X99.064 Y20.151 E117.49735
G0 F9000 X99.629 Y20.151
G1 F1200 X108.149 Y28.670 E118.94315
G0 F9000 X108.714 Y28.670
G1 F1200 X100.195 Y20.151 E120.38888
G0 F9000 X100.761 Y20.151
G1 F1200 X109.280 Y28.670 E121.83460
G0 F9000 X109.846 Y28.670
G1 F1200 X101.326 Y20.151 E123.28040
G0 F9000 X101.892 Y20.151
G1 F1200 X110.411 Y28.670 E124.72613
G0 F9000 X110.977 Y28.670
G1 F1200 X102.458 Y20.151 E126.17185
G0 F9000 X103.024 Y20.151
G1 F1200 X111.543 Y28.670 E127.61757
G0 F9000 X112.108 Y28.670
G1 F1200 X103.589 Y20.151 E129.06329
G0 F9000 X104.155 Y20.151
G1 F1200 X112.674 Y28.670 E130.50902
G0 F9000 X113.240 Y28.670
G1 F1200 X104.721 Y20.151 E131.95474
G0 F9000 X105.286 Y20.151
G1 F1200 X113.806 Y28.670 E133.40055
G0 F9000 X114.371 Y28.670
G1 F1200 X105.852 Y20.151 E134.84627
G0 F9000 X106.418 Y20.151
G1 F1200 X114.937 Y28.670 E136.29199
G0 F9000 X115.503 Y28.670
G1 F1200 X106.983 Y20.151 E137.73780
G0 F9000 X107.549 Y20.151
G1 F1200 X116.068 Y28.670 E139.18352
G0 F9000 X116.634 Y28.670
G1 F1200 X108.115 Y20.151 E140.62924
G0 F9000 X108.680 Y20.151
G1 F1200 X117.200 Y28.670 E142.07505
G0 F9000 X117.765 Y28.670
G1 F1200 X109.246 Y20.151 E143.52077
G0 F9000 X109.812 Y20.151
G1 F1200 X118.331 Y28.670 E144.96649
G0 F9000 X118.897 Y28.670
G1 F1200 X110.377 Y20.151 E146.41230
G0 F9000 X110.943 Y20.151
G1 F1200 X119.462 Y28.670 E147.85802
G0 F9000 X120.028 Y28.670
G1 F1200 X111.509 Y20.151 E149.30374
G0 F9000 X112.075 Y20.151
G1 F1200 X120.594 Y28.670 E150.74947
G0 F9000 X121.159 Y28.670
G1 F1200 X112.640 Y20.151 E152.19519
G0 F9000 X113.206 Y20.151
G1 F1200 X121.725 Y28.670 E153.64091
G0 F9000 X122.291 Y28.670
G1 F1200 X113.772 Y20.151 E155.08663
G0 F9000 X114.337 Y20.151
G1 F1200 X122.856 Y28.670 E156.53236
G0 F9000 X123.422 Y28.670
G1 F1200 X114.903 Y20.151 E157.97808
G0 F9000 X115.469 Y20.151
G1 F1200 X123.988 Y28.670 E159.42380
G0 F9000 X124.554 Y28.670
G1 F1200 X116.034 Y20.151 E160.86961
G0 F9000 X116.600 Y20.151
G1 F1200 X125.119 Y28.670 E162.31533
G0 F9000 X125.685 Y28.670
G1 F1200 X117.166 Y20.151 E163.76105
G0 F9000 X117.731 Y20.151
G1 F1200 X126.251 Y28.670 E165.20686
G0 F9000 X126.816 Y28.670
G1 F1200 X118.297 Y20.151 E166.65258
G0 F9000 X118.863 Y20.151
G1 F1200 X127.160 Y28.448 E168.06063
G0 F9000 X127.160 Y27.882
G1 F1200 X119.428 Y20.151 E169.37271
G0 F9000 X119.994 Y20.151
G1 F1200 X127.160 Y27.316 E170.58873
G0 F9000 X127.160 Y26.751
G1 F1200 X120.560 Y20.151 E171.70879
G0 F9000 X121.125 Y20.151
G1 F1200 X127.160 Y26.185 E172.73288
G0 F9000 X127.160 Y25.619
G1 F1200 X121.691 Y20.151 E173.66091
G0 F9000 X122.257 Y20.151
G1 F1200 X127.160 Y25.054 E174.49298
G0 F9000 X127.160 Y24.488
G1 F1200 X122.823 Y20.151 E175.22899
G0 F9000 X123.388 Y20.151
G1 F1200 X127.160 Y23.922 E175.86904
G0 F9000 X127.160 Y23.357
G1 F1200 X123.954 Y20.151 E176.41312
G0 F9000 X124.520 Y20.151
G1 F1200 X127.160 Y22.791 E176.86114
G0 F9000 X127.160 Y22.225
G1 F1200 X125.085 Y20.151 E177.21319
G0 F9000 X125.651 Y20.151
G1 F1200 X127.160 Y21.660 E177.46928
G0 F9000 X127.160 Y21.094
G1 F1200 X126.217 Y20.151 E177.62931
G0 F9000 X126.782 Y20.151
G1 F1200 X127.160 Y20.528 E177.69337
;LAYER:1
M106 S5
G0 F9000 X127.301 Y20.011 Z0.400
;TYPE:WALL-INNER
G1 F1500 X127.301 Y28.811 E178.04537
G1 X76.002 Y28.811 E180.09733
G1 X76.002 Y20.011 E180.44933
G1 X127.301 Y20.011 E182.50129
G0 F9000 X127.701 Y19.611
;TYPE:WALL-OUTER
G1 F1500 X127.701 Y29.211 E182.88529
G1 X75.602 Y29.211 E184.96925
G1 X75.602 Y19.611 E185.35325
G1 X127.701 Y19.611 E187.43721
G0 F9000 X127.159 Y20.201
;TYPE:SKIN
G1 F1500 X118.689 Y28.671 E187.91635
G0 F9000 X118.124 Y28.671
G1 F1500 X126.644 Y20.151 E188.39831
G0 F9000 X126.078 Y20.151
G1 F1500 X117.558 Y28.671 E188.88028
G0 F9000 X116.992 Y28.671
G1 F1500 X125.512 Y20.151 E189.36224
G0 F9000 X124.947 Y20.151
G1 F1500 X116.427 Y28.671 E189.84421
G0 F9000 X115.861 Y28.671
G1 F1500 X124.381 Y20.151 E190.32617
G0 F9000 X123.815 Y20.151
G1 F1500 X115.295 Y28.671 E190.80813
G0 F9000 X114.730 Y28.671
G1 F1500 X123.250 Y20.151 E191.29010
G0 F9000 X122.684 Y20.151
G1 F1500 X114.164 Y28.671 E191.77206
G0 F9000 X113.598 Y28.671
G1 F1500 X122.118 Y20.151 E192.25403
G0 F9000 X121.553 Y20.151
G1 F1500 X113.033 Y28.671 E192.73599
G0 F9000 X112.467 Y28.671
G1 F1500 X120.987 Y20.151 E193.21795
G0 F9000 X120.421 Y20.151
G1 F1500 X111.901 Y28.671 E193.69992
G0 F9000 X111.336 Y28.671
G1 F1500 X119.856 Y20.151 E194.18188
G0 F9000 X119.290 Y20.151
G1 F1500 X110.770 Y28.671 E194.66385
G0 F9000 X110.204 Y28.671
G1 F1500 X118.724 Y20.151 E195.14581
G0 F9000 X118.158 Y20.151
G1 F1500 X109.639 Y28.671 E195.62775
G0 F9000 X109.073 Y28.671
G1 F1500 X117.593 Y20.151 E196.10971
G0 F9000 X117.027 Y20.151
G1 F1500 X108.507 Y28.671 E196.59167
G0 F9000 X107.941 Y28.671
G1 F1500 X116.461 Y20.151 E197.07364
G0 F9000 X115.896 Y20.151
G1 F1500 X107.376 Y28.671 E197.55560
G0 F9000 X106.810 Y28.671
G1 F1500 X115.330 Y20.151 E198.03757
G0 F9000 X114.764 Y20.151
G1 F1500 X106.244 Y28.671 E198.51953
G0 F9000 X105.679 Y28.671
G1 F1500 X114.199 Y20.151 E199.00149
G0 F9000 X113.633 Y20.151
G1 F1500 X105.113 Y28.671 E199.48346
G0 F9000 X104.547 Y28.671
G1 F1500 X113.067 Y20.151 E199.96542
G0 F9000 X112.502 Y20.151
G1 F1500 X103.982 Y28.671 E200.44739
G0 F9000 X103.416 Y28.671
G1 F1500 X111.936 Y20.151 E200.92935
G0 F9000 X111.370 Y20.151
G1 F1500 X102.850 Y28.671 E201.41131
G0 F9000 X102.285 Y28.671
G1 F1500 X110.805 Y20.151 E201.89328
G0 F9000 X110.239 Y20.151
G1 F1500 X101.719 Y28.671 E202.37524
G0 F9000 X101.153 Y28.671
G1 F1500 X109.673 Y20.151 E202.85721
G0 F9000 X109.107 Y20.151
G1 F1500 X100.588 Y28.671 E203.33914
G0 F9000 X100.022 Y28.671
G1 F1500 X108.542 Y20.151 E203.82111
G0 F9000 X107.976 Y20.151
G1 F1500 X99.456 Y28.671 E204.30307
G0 F9000 X98.891 Y28.671
G1 F1500 X107.410 Y20.151 E204.78500
G0 F9000 X106.845 Y20.151
G1 F1500 X98.325 Y28.671 E205.26697
G0 F9000 X97.759 Y28.671
G1 F1500 X106.279 Y20.151 E205.74893
G0 F9000 X105.713 Y20.151
G1 F1500 X97.193 Y28.671 E206.23090
G0 F9000 X96.628 Y28.671
G1 F1500 X105.148 Y20.151 E206.71286
G0 F9000 X104.582 Y20.151
G1 F1500 X96.062 Y28.671 E207.19482
G0 F9000 X95.496 Y28.671
G1 F1500 X104.016 Y20.151 E207.67679
G0 F9000 X103.451 Y20.151
G1 F1500 X94.931 Y28.671 E208.15875
G0 F9000 X94.365 Y28.671
G1 F1500 X102.885 Y20.151 E208.64072
G0 F9000 X102.319 Y20.151
G1 F1500 X93.799 Y28.671 E209.12268
G0 F9000 X93.234 Y28.671
G1 F1500 X101.754 Y20.151 E209.60464
G0 F9000 X101.188 Y20.151
G1 F1500 X92.668 Y28.671 E210.08661
G0 F9000 X92.102 Y28.671
G1 F1500 X100.622 Y20.151 E210.56857
G0 F9000 X100.057 Y20.151
G1 F1500 X91.537 Y28.671 E211.05054
G0 F9000 X90.971 Y28.671
G1 F1500 X99.491 Y20.151 E211.53250
G0 F9000 X98.925 Y20.151
G1 F1500 X90.405 Y28.671 E212.01446
G0 F9000 X89.840 Y28.671
G1 F1500 X98.359 Y20.151 E212.49640
G0 F9000 X97.794 Y20.151
G1 F1500 X89.274 Y28.671 E212.97836
G0 F9000 X88.708 Y28.671
G1 F1500 X97.228 Y20.151 E213.46033
G0 F9000 X96.662 Y20.151
G1 F1500 X88.142 Y28.671 E213.94229
G0 F9000 X87.577 Y28.671
G1 F1500 X96.097 Y20.151 E214.42426
G0 F9000 X95.531 Y20.151
G1 F1500 X87.011 Y28.671 E214.90622
G0 F9000 X86.445 Y28.671
G1 F1500 X94.965 Y20.151 E215.38818
G0 F9000 X94.400 Y20.151
G1 F1500 X85.880 Y28.671 E215.87015
G0 F9000 X85.314 Y28.671
G1 F1500 X93.834 Y20.151 E216.35211
G0 F9000 X93.268 Y20.151
G1 F1500 X84.748 Y28.671 E216.83408
G0 F9000 X84.183 Y28.671
G1 F1500 X92.703 Y20.151 E217.31604
G0 F9000 X92.137 Y20.151
G1 F1500 X83.617 Y28.671 E217.79800
G0 F9000 X83.051 Y28.671
G1 F1500 X91.571 Y20.151 E218.27997
G0 F9000 X91.006 Y20.151
G1 F1500 X82.486 Y28.671 E218.76193
G0 F9000 X81.920 Y28.671
G1 F1500 X90.440 Y20.151 E219.24390
G0 F9000 X89.874 Y20.151
G1 F1500 X81.354 Y28.671 E219.72586
G0 F9000 X80.789 Y28.671
G1 F1500 X89.309 Y20.151 E220.20782
G0 F9000 X88.743 Y20.151
G1 F1500 X80.223 Y28.671 E220.68979
G0 F9000 X79.657 Y28.671
G1 F1500 X88.177 Y20.151 E221.17175
G0 F9000 X87.611 Y20.151
G1 F1500 X79.092 Y28.671 E221.65369
G0 F9000 X78.526 Y28.671
G1 F1500 X87.046 Y20.151 E222.13565
G0 F9000 X86.480 Y20.151
G1 F1500 X77.960 Y28.671 E222.61762
G0 F9000 X77.394 Y28.671
G1 F1500 X85.914 Y20.151 E223.09958
G0 F9000 X85.349 Y20.151
G1 F1500 X76.829 Y28.671 E223.58154
G0 F9000 X76.263 Y28.671
G1 F1500 X84.783 Y20.151 E224.06351
G0 F9000 X84.217 Y20.151
G1 F1500 X76.141 Y28.227 E224.52036
G0 F9000 X76.141 Y27.662
G1 F1500 X83.652 Y20.151 E224.94524
G0 F9000 X83.086 Y20.151
G1 F1500 X76.141 Y27.096 E225.33811
G0 F9000 X76.141 Y26.530
G1 F1500 X82.520 Y20.151 E225.69896
G0 F9000 X81.955 Y20.151
G1 F1500 X76.141 Y25.964 E226.02782
G0 F9000 X76.141 Y25.399
G1 F1500 X81.389 Y20.151 E226.32469
G0 F9000 X80.823 Y20.151
G1 F1500 X76.141 Y24.833 E226.58955
G0 F9000 X76.141 Y24.267
G1 F1500 X80.258 Y20.151 E226.82241
G0 F9000 X79.692 Y20.151
G1 F1500 X76.141 Y23.702 E227.02329
G0 F9000 X76.141 Y23.136
G1 F1500 X79.126 Y20.151 E227.19214
G0 F9000 X78.560 Y20.151
G1 F1500 X76.141 Y22.570 E227.32898
G0 F9000 X76.141 Y22.005
G1 F1500 X77.995 Y20.151 E227.43386
G0 F9000 X77.429 Y20.151
G1 F1500 X76.141 Y21.439 E227.50672
G0 F9000 X76.141 Y20.873
G1 F1500 X76.863 Y20.151 E227.54756
G0 F9000 X76.298 Y20.151
G1 F1500 X76.141 Y20.308 E227.55645
G0 F9000 X119.255 Y28.671
G1 F1500 X127.159 Y20.767 E228.00356
G0 F9000 X127.159 Y21.332
G1 F1500 X119.821 Y28.671 E228.41869
G0 F9000 X120.387 Y28.671
G1 F1500 X127.159 Y21.898 E228.80180
G0 F9000 X127.159 Y22.464
G1 F1500 X120.952 Y28.671 E229.15292
G0 F9000 X121.518 Y28.671
G1 F1500 X127.159 Y23.029 E229.47205
G0 F9000 X127.159 Y23.595
G1 F1500 X122.084 Y28.671 E229.75917
G0 F9000 X122.649 Y28.671
G1 F1500 X127.159 Y24.161 E230.01429
G0 F9000 X127.159 Y24.726
G1 F1500 X123.215 Y28.671 E230.23743
G0 F9000 X123.781 Y28.671
G1 F1500 X127.159 Y25.292 E230.42854
G0 F9000 X127.159 Y25.858
G1 F1500 X124.346 Y28.671 E230.58767
G0 F9000 X124.912 Y28.671
G1 F1500 X127.159 Y26.423 E230.71481
G0 F9000 X127.159 Y26.989
G1 F1500 X125.478 Y28.671 E230.80993
G0 F9000 X126.043 Y28.671
G1 F1500 X127.159 Y27.555 E230.87306
G0 F9000 X127.159 Y28.120
G1 F1500 X126.609 Y28.671 E230.90420
;LAYER:2
M106 S10
G0 F9000 X127.301 Y28.811 Z0.500
;TYPE:WALL-INNER
G1 F1800 X76.002 Y28.811 E232.95616
G1 X76.002 Y20.011 E233.30816
G1 X127.301 Y20.011 E235.36012
G1 X127.301 Y28.811 E235.71212
G0 F9000 X127.701 Y29.211
;TYPE:WALL-OUTER
G1 F1800 X75.602 Y29.211 E237.79608
G1 X75.602 Y19.611 E238.18008
G1 X127.701 Y19.611 E240.26404
G1 X127.701 Y29.211 E240.64804
G0 F9000 X127.160 Y28.448
;TYPE:SKIN
G1 F1800 X118.863 Y20.151 E241.11739
G0 F9000 X119.428 Y20.151
G1 F1800 X127.160 Y27.882 E241.55475
G0 F9000 X127.160 Y27.316
G1 F1800 X119.994 Y20.151 E241.96009
G0 F9000 X118.297 Y20.151
G1 F1800 X126.816 Y28.670 E242.44200
G0 F9000 X126.251 Y28.670
G1 F1800 X117.731 Y20.151 E242.92393
G0 F9000 X117.166 Y20.151
G1 F1800 X125.685 Y28.670 E243.40584
G0 F9000 X125.119 Y28.670
G1 F1800 X116.600 Y20.151 E243.88775
G0 F9000 X116.034 Y20.151
G1 F1800 X124.554 Y28.670 E244.36968
G0 F9000 X123.988 Y28.670
G1 F1800 X115.469 Y20.151 E244.85159
G0 F9000 X114.903 Y20.151
G1 F1800 X123.422 Y28.670 E245.33350
G0 F9000 X122.856 Y28.670
G1 F1800 X114.337 Y20.151 E245.81541
G0 F9000 X113.772 Y20.151
G1 F1800 X122.291 Y28.670 E246.29731
G0 F9000 X121.725 Y28.670
G1 F1800 X113.206 Y20.151 E246.77922
G0 F9000 X112.640 Y20.151
G1 F1800 X121.159 Y28.670 E247.26113
G0 F9000 X120.594 Y28.670
G1 F1800 X112.075 Y20.151 E247.74304
G0 F9000 X111.509 Y20.151
G1 F1800 X120.028 Y28.670 E248.22494
G0 F9000 X127.160 Y26.751
G1 F1800 X120.560 Y20.151 E248.59830
G0 F9000 X121.125 Y20.151
G1 F1800 X127.160 Y26.185 E248.93966
G0 F9000 X127.160 Y25.619
G1 F1800 X121.691 Y20.151 E249.24900
G0 F9000 X122.257 Y20.151
G1 F1800 X127.160 Y25.054 E249.52636
G0 F9000 X127.160 Y24.488
G1 F1800 X122.823 Y20.151 E249.77170
G0 F9000 X123.388 Y20.151
G1 F1800 X127.160 Y23.922 E249.98505
G0 F9000 X127.160 Y23.357
G1 F1800 X123.954 Y20.151 E250.16640
G0 F9000 X124.520 Y20.151
G1 F1800 X127.160 Y22.791 E250.31575
G0 F9000 X127.160 Y22.225
G1 F1800 X125.085 Y20.151 E250.43310
