;FLAVOR:UltiGCode
;TIME:4299
;MATERIAL:5633
;MATERIAL2:0
;NOZZLE_DIAMETER:0.400000
;NOZZLE_DIAMETER2:0.400000

;Layer count: 61
;LAYER:0
M107
G0 F9000 X60.979 Y41.012 Z0.300
;TYPE:SKIRT
G1 F1200 X61.997 Y39.673 E0.20184
G1 X63.487 Y38.983 E0.39889
G1 X64.419 Y38.850 E0.51186
G1 X65.781 Y38.846 E0.67530
G1 X70.747 Y38.862 E1.27122
G1 X74.742 Y38.861 E1.75062
G1 X77.867 Y38.862 E2.12562
G1 X83.684 Y38.847 E2.82366
G1 X85.293 Y38.849 E3.01674
G1 X86.148 Y39.000 E3.12093
G1 X87.009 Y39.338 E3.23193
G1 X88.348 Y40.356 E3.43377
G1 X89.036 Y41.841 E3.63017
G1 X89.172 Y42.775 E3.74343
G1 X89.176 Y44.367 E3.93447
G1 X89.159 Y50.323 E4.64919
G1 X89.160 Y54.411 E5.13975
G1 X89.159 Y57.618 E5.52459
G1 X89.160 Y61.714 E6.01611
G1 X89.159 Y64.921 E6.40095
G1 X89.160 Y69.017 E6.89247
G1 X89.159 Y72.224 E7.27731
G1 X89.160 Y76.320 E7.76883
G1 X89.159 Y79.527 E8.15367
G1 X89.175 Y85.471 E8.86696
G1 X89.172 Y87.183 E9.07240
G1 X88.867 Y88.555 E9.24106
G1 X87.992 Y89.801 E9.42376
G1 X86.738 Y90.690 E9.60822
G1 X85.359 Y90.990 E9.77757
G1 X83.751 Y90.994 E9.97053
G1 X78.216 Y90.978 E10.63473
G1 X74.417 Y90.979 E11.09061
G1 X71.446 Y90.978 E11.44713
G1 X65.913 Y90.993 E12.11110
G1 X64.547 Y90.991 E12.27502
G1 X64.185 Y90.968 E12.31854
G1 X63.433 Y90.832 E12.41025
G1 X61.998 Y90.167 E12.60004
G1 X60.970 Y88.817 E12.80366
G1 X60.641 Y87.958 E12.91404
G1 X60.490 Y87.119 E13.01634
G1 X60.486 Y85.466 E13.21470
G1 X60.503 Y79.477 E13.93338
G1 X60.502 Y75.366 E14.42670
G1 X60.503 Y72.142 E14.81358
G1 X60.502 Y68.024 E15.30774
G1 X60.503 Y64.800 E15.69462
G1 X60.502 Y60.681 E16.18890
G1 X60.503 Y57.456 E16.57590
G1 X60.502 Y53.337 E17.07018
G1 X60.503 Y50.113 E17.45706
G1 X60.487 Y44.332 E18.15079
G1 X60.489 Y42.724 E18.34375
G1 X60.643 Y41.869 E18.44800
G1 X60.979 Y41.012 E18.55846
G10
G0 F9000 X64.289 Y43.067
;TYPE:WALL-INNER
G11
G1 F1200 X64.325 Y42.889 E18.58025
G1 X64.450 Y42.725 E18.60500
G1 X64.576 Y42.666 E18.62169
G1 X64.695 Y42.649 E18.63612
G1 X65.780 Y42.646 E18.76632
G1 X70.737 Y42.662 E19.36116
G1 X77.875 Y42.662 E20.21772
G1 X83.687 Y42.647 E20.91516
G1 X84.958 Y42.649 E21.06768
G1 X85.132 Y42.684 E21.08898
G1 X85.296 Y42.809 E21.11373
G1 X85.355 Y42.935 E21.13042
G1 X85.373 Y43.058 E21.14534
G1 X85.376 Y44.364 E21.30206
G1 X85.359 Y50.313 E22.01594
G1 X85.359 Y79.527 E25.52162
G1 X85.375 Y85.472 E26.23503
G1 X85.373 Y86.761 E26.38971
G1 X85.322 Y86.991 E26.41798
G1 X85.260 Y87.079 E26.43089
G1 X85.171 Y87.142 E26.44398
G1 X84.947 Y87.191 E26.47149
G1 X83.753 Y87.194 E26.61477
G1 X78.225 Y87.178 E27.27814
G1 X71.437 Y87.178 E28.09270
G1 X65.910 Y87.193 E28.75594
G1 X64.674 Y87.191 E28.90426
G1 X64.588 Y87.180 E28.91466
G1 X64.451 Y87.116 E28.93281
G1 X64.317 Y86.934 E28.95993
G1 X64.289 Y86.777 E28.97907
G1 X64.286 Y85.469 E29.13603
G1 X64.303 Y79.487 E29.85387
G1 X64.303 Y50.113 E33.37875
G1 X64.287 Y44.331 E34.07259
G1 X64.289 Y43.067 E34.22427
G0 F9000 X63.889 Y43.029
;TYPE:WALL-OUTER
G1 F1200 X63.931 Y42.796 E34.25268
G1 X63.971 Y42.694 E34.26583
G1 X64.192 Y42.403 E34.30968
G1 X64.462 Y42.278 E34.34538
G1 X64.665 Y42.249 E34.36999
G1 X65.780 Y42.246 E34.50379
G1 X77.874 Y42.262 E35.95507
G1 X84.993 Y42.249 E36.80936
G1 X85.225 Y42.290 E36.83763
G1 X85.327 Y42.330 E36.85077
G1 X85.618 Y42.551 E36.89462
G1 X85.743 Y42.821 E36.93033
G1 X85.773 Y43.027 E36.95531
G1 X85.776 Y44.365 E37.11587
G1 X85.759 Y79.526 E41.33519
G1 X85.773 Y86.809 E42.20915
G1 X85.696 Y87.154 E42.25157
G1 X85.547 Y87.367 E42.28276
G1 X85.337 Y87.516 E42.31366
G1 X84.991 Y87.591 E42.35614
G1 X83.752 Y87.594 E42.50483
G1 X71.438 Y87.578 E43.98251
G1 X64.664 Y87.591 E44.79539
G1 X64.595 Y87.587 E44.80368
G1 X64.464 Y87.563 E44.81966
G1 X64.192 Y87.437 E44.85564
G1 X63.971 Y87.146 E44.89948
G1 X63.931 Y87.042 E44.91286
G1 X63.889 Y86.809 E44.94127
G1 X63.886 Y85.468 E45.10219
G1 X63.903 Y50.114 E49.34467
G1 X63.889 Y43.029 E50.19487
G0 F9000 X64.428 Y43.215
;TYPE:SKIN
G1 F1200 X85.232 Y64.019 E53.72542
G0 F9000 X85.232 Y64.585
G1 F1200 X64.428 Y43.781 E57.25598
G0 F9000 X64.428 Y44.346
G1 F1200 X85.233 Y65.151 E60.78671
G0 F9000 X85.233 Y65.717
G1 F1200 X64.428 Y44.912 E64.31743
G0 F9000 X64.428 Y45.478
G1 F1200 X85.233 Y66.282 E67.84807
G0 F9000 X85.233 Y66.848
G1 F1200 X64.428 Y46.043 E71.37880
G0 F9000 X64.428 Y46.609
G1 F1200 X85.233 Y67.414 E74.90952
G0 F9000 X85.233 Y67.979
G1 F1200 X64.428 Y47.175 E78.44016
G0 F9000 X64.428 Y47.741
G1 F1200 X85.233 Y68.545 E81.97081
G0 F9000 X85.233 Y69.111
G1 F1200 X64.428 Y48.306 E85.50153
G0 F9000 X64.428 Y48.872
G1 F1200 X85.233 Y69.676 E89.03217
G0 F9000 X85.233 Y70.242
G1 F1200 X64.428 Y49.438 E92.56281
G0 F9000 X64.428 Y50.003
G1 F1200 X85.233 Y70.808 E96.09354
G0 F9000 X85.233 Y71.373
G1 F1200 X64.428 Y50.569 E99.62418
G0 F9000 X64.428 Y51.135
G1 F1200 X85.233 Y71.939 E103.15482
G0 F9000 X85.233 Y72.505
G1 F1200 X64.428 Y51.700 E106.68554
G0 F9000 X64.428 Y52.266
G1 F1200 X85.233 Y73.071 E110.21627
G0 F9000 X85.233 Y73.636
G1 F1200 X64.428 Y52.832 E113.74691
G0 F9000 X64.428 Y53.397
G1 F1200 X85.233 Y74.202 E117.27764
G0 F9000 X85.233 Y74.768
G1 F1200 X64.428 Y53.963 E120.80836
G0 F9000 X64.428 Y54.529
G1 F1200 X85.233 Y75.333 E124.33900
G0 F9000 X85.233 Y75.899
G1 F1200 X64.428 Y55.094 E127.86973
G0 F9000 X64.428 Y55.660
G1 F1200 X85.233 Y76.465 E131.40045
G0 F9000 X85.233 Y77.030
G1 F1200 X64.428 Y56.226 E134.93109
G0 F9000 X64.428 Y56.791
G1 F1200 X85.233 Y77.596 E138.46182
G0 F9000 X85.233 Y78.162
G1 F1200 X64.428 Y57.357 E141.99255
G0 F9000 X64.428 Y57.923
G1 F1200 X85.233 Y78.727 E145.52319
G0 F9000 X85.233 Y79.293
G1 F1200 X64.428 Y58.489 E149.05383
G0 F9000 X64.428 Y59.054
G1 F1200 X85.233 Y79.859 E152.58455
G0 F9000 X85.232 Y63.453
G1 F1200 X64.592 Y42.813 E156.08728
G0 F9000 X65.133 Y42.789
G1 F1200 X85.232 Y62.887 E159.49811
G0 F9000 X85.232 Y62.322
G1 F1200 X65.699 Y42.789 E162.81297
G0 F9000 X66.265 Y42.789
G1 F1200 X85.232 Y61.756 E166.03177
G0 F9000 X85.232 Y61.190
G1 F1200 X66.830 Y42.789 E169.15461
G0 F9000 X67.396 Y42.789
G1 F1200 X85.232 Y60.625 E172.18148
G0 F9000 X85.232 Y60.059
G1 F1200 X67.962 Y42.789 E175.11230
G0 F9000 X68.527 Y42.789
G1 F1200 X85.232 Y59.493 E177.94714
G0 F9000 X85.232 Y58.928
G1 F1200 X69.093 Y42.789 E180.68602
G0 F9000 X69.659 Y42.789
G1 F1200 X85.232 Y58.362 E183.32885
G0 F9000 X85.232 Y57.796
G1 F1200 X70.224 Y42.789 E185.87571
G0 F9000 X70.790 Y42.789
G1 F1200 X85.232 Y57.231 E188.32659
G0 F9000 X85.232 Y56.665
G1 F1200 X71.356 Y42.789 E190.68143
G0 F9000 X71.921 Y42.789
G1 F1200 X85.232 Y56.099 E192.94030
G0 F9000 X85.232 Y55.534
G1 F1200 X72.487 Y42.789 E195.10319
G0 F9000 X73.053 Y42.789
G1 F1200 X85.232 Y54.968 E197.17004
G0 F9000 X85.232 Y54.402
G1 F1200 X73.619 Y42.789 E199.14083
G0 F9000 X74.184 Y42.789
G1 F1200 X85.232 Y53.836 E201.01565
G0 F9000 X85.232 Y53.271
G1 F1200 X74.750 Y42.789 E202.79451
G0 F9000 X75.316 Y42.789
G1 F1200 X85.232 Y52.705 E204.47731
G0 F9000 X85.232 Y52.139
G1 F1200 X75.881 Y42.789 E206.06414
G0 F9000 X76.447 Y42.789
G1 F1200 X85.232 Y51.574 E207.55501
G0 F9000 X85.232 Y51.008
G1 F1200 X77.013 Y42.789 E208.94982
G0 F9000 X77.578 Y42.789
G1 F1200 X85.232 Y50.442 E210.24866
G0 F9000 X85.232 Y49.877
G1 F1200 X78.144 Y42.789 E211.45153
G0 F9000 X78.710 Y42.789
G1 F1200 X85.232 Y49.311 E212.55835
G0 F9000 X85.232 Y48.745
G1 F1200 X79.275 Y42.789 E213.56920
G0 F9000 X79.841 Y42.789
G1 F1200 X85.232 Y48.180 E214.48409
G0 F9000 X85.232 Y47.614
G1 F1200 X80.407 Y42.789 E215.30292
G0 F9000 X80.972 Y42.789
G1 F1200 X85.232 Y47.048 E216.02578
G0 F9000 X85.232 Y46.483
G1 F1200 X81.538 Y42.789 E216.65267
G0 F9000 X82.104 Y42.789
G1 F1200 X85.232 Y45.917 E217.18351
G0 F9000 X85.232 Y45.351
G1 F1200 X82.669 Y42.789 E217.61838
G0 F9000 X83.235 Y42.789
G1 F1200 X85.232 Y44.786 E217.95728
G0 F9000 X85.232 Y44.220
G1 F1200 X83.801 Y42.789 E218.20013
G0 F9000 X84.367 Y42.789
G1 F1200 X85.232 Y43.654 E218.34693
G0 F9000 X85.232 Y43.088
G1 F1200 X84.932 Y42.789 E218.39775
G0 F9000 X64.428 Y59.620
G1 F1200 X85.233 Y80.424 E221.92839
G0 F9000 X85.233 Y80.990
G1 F1200 X64.428 Y60.186 E225.45903
G0 F9000 X64.428 Y60.751
G1 F1200 X85.233 Y81.556 E228.98976
G0 F9000 X85.233 Y82.121
G1 F1200 X64.428 Y61.317 E232.52040
G0 F9000 X64.428 Y61.883
G1 F1200 X85.233 Y82.687 E236.05104
G0 F9000 X85.233 Y83.253
G1 F1200 X64.428 Y62.448 E239.58177
G0 F9000 X64.428 Y63.014
G1 F1200 X85.233 Y83.819 E243.11249
G0 F9000 X85.233 Y84.384
G1 F1200 X64.428 Y63.580 E246.64313
G0 F9000 X64.428 Y64.145
G1 F1200 X85.233 Y84.950 E250.17386
G0 F9000 X85.233 Y85.516
G1 F1200 X64.428 Y64.711 E253.70458
G0 F9000 X64.428 Y65.277
G1 F1200 X85.233 Y86.081 E257.23523
G0 F9000 X85.233 Y86.647
G1 F1200 X64.428 Y65.842 E260.76595
G0 F9000 X64.428 Y66.408
G1 F1200 X85.045 Y87.025 E264.26477
G0 F9000 X84.504 Y87.049
G1 F1200 X64.428 Y66.974 E267.67170
G0 F9000 X64.428 Y67.540
G1 F1200 X83.938 Y87.049 E270.98257
G0 F9000 X83.372 Y87.049
G1 F1200 X64.428 Y68.105 E274.19747
G0 F9000 X64.428 Y68.671
G1 F1200 X82.807 Y87.049 E277.31641
G0 F9000 X82.241 Y87.049
G1 F1200 X64.428 Y69.237 E280.33929
G0 F9000 X64.428 Y69.802
G1 F1200 X81.675 Y87.049 E283.26620
G0 F9000 X81.110 Y87.049
G1 F1200 X64.428 Y70.368 E286.09715
G0 F9000 X64.428 Y70.934
G1 F1200 X80.544 Y87.049 E288.83204
G0 F9000 X79.978 Y87.049
G1 F1200 X64.428 Y71.499 E291.47096
G0 F9000 X64.428 Y72.065
G1 F1200 X79.413 Y87.049 E294.01391
G0 F9000 X78.847 Y87.049
G1 F1200 X64.428 Y72.631 E296.46081
G0 F9000 X64.428 Y73.196
G1 F1200 X78.281 Y87.049 E298.81175
G0 F9000 X77.715 Y87.049
G1 F1200 X64.428 Y73.762 E301.06663
G0 F9000 X64.428 Y74.328
G1 F1200 X77.150 Y87.049 E303.22554
G0 F9000 X76.584 Y87.049
G1 F1200 X64.428 Y74.893 E305.28848
G0 F9000 X64.428 Y75.459
G1 F1200 X76.018 Y87.049 E307.25537
G0 F9000 X75.453 Y87.049
G1 F1200 X64.428 Y76.025 E309.12628
G0 F9000 X64.428 Y76.590
G1 F1200 X74.887 Y87.049 E310.90124
G0 F9000 X74.321 Y87.049
G1 F1200 X64.428 Y77.156 E312.58013
G0 F9000 X64.428 Y77.722
G1 F1200 X73.756 Y87.049 E314.16306
G0 F9000 X73.190 Y87.049
G1 F1200 X64.428 Y78.288 E315.64994
G0 F9000 X64.428 Y78.853
G1 F1200 X72.624 Y87.049 E317.04085
G0 F9000 X72.059 Y87.049
G1 F1200 X64.428 Y79.419 E318.33578
G0 F9000 X64.428 Y79.985
G1 F1200 X71.493 Y87.049 E319.53467
G0 F9000 X70.927 Y87.049
G1 F1200 X64.428 Y80.550 E320.63759
G0 F9000 X64.428 Y81.116
G1 F1200 X70.362 Y87.049 E321.64454
G0 F9000 X69.796 Y87.049
G1 F1200 X64.428 Y81.682 E322.55543
G0 F9000 X64.428 Y82.247
G1 F1200 X69.230 Y87.049 E323.37036
G0 F9000 X68.665 Y87.049
G1 F1200 X64.428 Y82.813 E324.08931
G0 F9000 X64.428 Y83.379
G1 F1200 X68.099 Y87.049 E324.71222
G0 F9000 X67.533 Y87.049
G1 F1200 X64.428 Y83.944 E325.23916
G0 F9000 X64.428 Y84.510
G1 F1200 X66.967 Y87.049 E325.67004
G0 F9000 X66.402 Y87.049
G1 F1200 X64.428 Y85.076 E326.00495
G0 F9000 X64.428 Y85.641
G1 F1200 X65.836 Y87.049 E326.24390
G0 F9000 X65.270 Y87.049
G1 F1200 X64.428 Y86.207 E326.38679
G0 F9000 X64.430 Y86.775
G1 F1200 X64.705 Y87.049 E326.43337
;LAYER:1
M106 S5
G0 F9000 X64.135 Y86.835 Z0.400
;TYPE:WALL-INNER
G1 F1500 X64.123 Y79.572 E326.72389
G1 X64.122 Y79.446 E326.72893
G1 X64.123 Y72.136 E327.02133
G1 X64.122 Y72.103 E327.02266
G1 X64.123 Y64.794 E327.31502
G1 X64.122 Y64.761 E327.31634
G1 X64.123 Y57.450 E327.60878
G1 X64.122 Y57.417 E327.61010
G1 X64.123 Y50.111 E327.90234
G1 X64.122 Y50.030 E327.90558
G1 X64.135 Y43.010 E328.18638
G1 X64.135 Y42.962 E328.18830
G1 X64.228 Y42.722 E328.19859
G1 X64.372 Y42.587 E328.20649
G1 X64.540 Y42.509 E328.21390
G1 X70.667 Y42.482 E328.45898
G1 X70.782 Y42.481 E328.46358
G1 X77.877 Y42.482 E328.74738
G1 X77.965 Y42.481 E328.75090
G1 X85.012 Y42.494 E329.03278
G1 X85.059 Y42.494 E329.03466
G1 X85.299 Y42.587 E329.04496
G1 X85.434 Y42.731 E329.05285
G1 X85.511 Y42.896 E329.06013
G1 X85.539 Y50.229 E329.35346
G1 X85.540 Y50.354 E329.35846
G1 X85.539 Y57.624 E329.64926
G1 X85.540 Y57.657 E329.65058
G1 X85.539 Y64.927 E329.94138
G1 X85.540 Y64.960 E329.94270
G1 X85.539 Y72.230 E330.23350
G1 X85.540 Y72.263 E330.23482
G1 X85.539 Y79.529 E330.52546
G1 X85.540 Y79.612 E330.52878
G1 X85.527 Y86.807 E330.81658
G1 X85.522 Y86.888 E330.81983
G1 X85.464 Y87.059 E330.82705
G1 X85.369 Y87.188 E330.83346
G1 X85.238 Y87.284 E330.83995
G1 X85.087 Y87.336 E330.84634
G1 X78.303 Y87.358 E331.11770
G1 X78.182 Y87.359 E331.12254
G1 X71.434 Y87.358 E331.39246
G1 X71.351 Y87.359 E331.39578
G1 X64.685 Y87.346 E331.66242
G1 X64.537 Y87.331 E331.66837
G1 X64.371 Y87.253 E331.67571
G1 X64.230 Y87.123 E331.68338
G1 X64.134 Y86.876 E331.69398
G1 X64.135 Y86.835 E331.69562
G0 F9000 X63.735 Y86.831
;TYPE:WALL-OUTER
G1 F1500 X63.723 Y79.574 E331.98590
G1 X63.722 Y79.446 E331.99102
G1 X63.723 Y72.141 E332.28322
G1 X63.722 Y72.103 E332.28474
G1 X63.723 Y64.799 E332.57690
G1 X63.722 Y64.761 E332.57842
G1 X63.723 Y57.455 E332.87066
G1 X63.722 Y57.417 E332.87218
G1 X63.723 Y50.113 E333.16434
G1 X63.722 Y50.029 E333.16770
G1 X63.735 Y43.011 E333.44842
G1 X63.734 Y42.887 E333.45339
G1 X63.887 Y42.494 E333.47025
G1 X64.146 Y42.251 E333.48446
G1 X64.430 Y42.119 E333.49699
G1 X64.664 Y42.094 E333.50640
G1 X70.665 Y42.082 E333.74644
G1 X70.779 Y42.081 E333.75100
G1 X77.875 Y42.082 E334.03484
G1 X77.961 Y42.081 E334.03828
G1 X85.011 Y42.094 E334.32028
G1 X85.134 Y42.093 E334.32520
G1 X85.527 Y42.246 E334.34207
G1 X85.770 Y42.505 E334.35628
G1 X85.902 Y42.789 E334.36880
G1 X85.927 Y43.024 E334.37826
G1 X85.939 Y50.227 E334.66638
G1 X85.940 Y50.354 E334.67146
G1 X85.939 Y57.619 E334.96206
G1 X85.940 Y57.657 E334.96358
G1 X85.939 Y64.922 E335.25418
G1 X85.940 Y64.960 E335.25570
G1 X85.939 Y72.225 E335.54630
G1 X85.940 Y72.263 E335.54782
G1 X85.939 Y79.527 E335.83838
G1 X85.940 Y79.613 E335.84182
G1 X85.927 Y86.817 E336.12998
G1 X85.918 Y86.969 E336.13607
G1 X85.823 Y87.245 E336.14775
G1 X85.656 Y87.475 E336.15912
G1 X85.426 Y87.642 E336.17049
G1 X85.155 Y87.736 E336.18196
G1 X78.305 Y87.758 E336.45596
G1 X78.185 Y87.759 E336.46076
G1 X71.437 Y87.758 E336.73068
G1 X71.355 Y87.759 E336.73396
G1 X64.663 Y87.746 E337.00164
G1 X64.428 Y87.721 E337.01109
G1 X64.147 Y87.590 E337.02350
G1 X63.890 Y87.353 E337.03748
G1 X63.733 Y86.948 E337.05485
G1 X63.735 Y86.831 E337.05953
G0 F9000 X64.328 Y86.992
;TYPE:SKIN
G1 F1500 X85.397 Y65.922 E338.25141
G0 F9000 X85.397 Y65.357
G1 F1500 X64.274 Y86.480 E339.44630
G0 F9000 X64.273 Y85.915
G1 F1500 X85.397 Y64.791 E340.64126
G0 F9000 X85.397 Y64.225
G1 F1500 X64.273 Y85.349 E341.83621
G0 F9000 X64.273 Y84.784
G1 F1500 X85.397 Y63.660 E343.03116
G0 F9000 X85.397 Y63.094
G1 F1500 X64.273 Y84.219 E344.22615
G0 F9000 X64.272 Y83.654
G1 F1500 X85.397 Y62.528 E345.42119
G0 F9000 X85.397 Y61.963
G1 F1500 X64.271 Y83.089 E346.61625
G0 F9000 X64.271 Y82.523
G1 F1500 X85.397 Y61.397 E347.81132
G0 F9000 X85.397 Y60.831
G1 F1500 X64.271 Y81.958 E349.00642
G0 F9000 X64.271 Y81.392
G1 F1500 X85.397 Y60.266 E350.20148
G0 F9000 X85.397 Y66.488
G1 F1500 X64.681 Y87.204 E351.37336
G0 F9000 X65.246 Y87.205
G1 F1500 X85.397 Y67.054 E352.51327
G0 F9000 X85.397 Y67.619
G1 F1500 X65.812 Y87.205 E353.62119
G0 F9000 X66.378 Y87.204
G1 F1500 X85.397 Y68.185 E354.69707
G0 F9000 X85.397 Y68.751
G1 F1500 X66.944 Y87.204 E355.74093
G0 F9000 X67.510 Y87.204
G1 F1500 X85.397 Y69.316 E356.75280
G0 F9000 X85.397 Y69.882
G1 F1500 X68.076 Y87.203 E357.73262
G0 F9000 X68.642 Y87.203
G1 F1500 X85.397 Y70.448 E358.68043
G0 F9000 X85.397 Y71.014
G1 F1500 X69.208 Y87.203 E359.59622
G0 F9000 X69.774 Y87.203
G1 F1500 X85.397 Y71.579 E360.48001
G0 F9000 X85.397 Y72.145
G1 F1500 X70.340 Y87.203 E361.33180
G0 F9000 X70.906 Y87.202
G1 F1500 X85.397 Y72.711 E362.15153
G0 F9000 X85.397 Y73.277
G1 F1500 X71.472 Y87.202 E362.93925
G0 F9000 X72.038 Y87.201
G1 F1500 X85.397 Y73.843 E363.69492
G0 F9000 X85.396 Y74.409
G1 F1500 X72.604 Y87.201 E364.41854
G0 F9000 X73.169 Y87.201
G1 F1500 X85.395 Y74.975 E365.11015
G0 F9000 X85.395 Y75.541
G1 F1500 X73.736 Y87.201 E365.76971
G0 F9000 X74.302 Y87.201
G1 F1500 X85.395 Y76.108 E366.39723
G0 F9000 X85.394 Y76.674
G1 F1500 X74.867 Y87.201 E366.99272
G0 F9000 X75.434 Y87.200
G1 F1500 X85.394 Y77.240 E367.55615
G0 F9000 X85.393 Y77.806
