;FLAVOR:UltiGCode
;TIME:7131
;MATERIAL:8730
;MATERIAL2:0
;NOZZLE_DIAMETER:0.400000
;NOZZLE_DIAMETER2:0.400000

;Layer count: 113
;LAYER:0
M107
G0 F9000 X159.513 Y29.701 Z0.300
;TYPE:SKIRT
G1 F1200 X159.810 Y28.725 E0.12242
G1 X160.291 Y27.826 E0.24477
G1 X160.937 Y27.036 E0.36723
G1 X161.728 Y26.386 E0.49009
G1 X162.630 Y25.904 E0.61281
G1 X163.610 Y25.606 E0.73573
G1 X164.471 Y25.522 E0.83954
G1 X171.927 Y25.522 E1.73426
G1 X171.927 Y20.562 E2.32946
G1 X172.013 Y19.701 E2.43330
G1 X172.310 Y18.725 E2.55572
G1 X172.791 Y17.826 E2.67807
G1 X173.437 Y17.036 E2.80053
G1 X174.228 Y16.386 E2.92339
G1 X175.130 Y15.904 E3.04611
G1 X176.110 Y15.606 E3.16903
G1 X176.971 Y15.522 E3.27284
G1 X193.181 Y15.522 E5.21804
G1 X193.263 Y14.701 E5.31705
G1 X193.560 Y13.725 E5.43947
G1 X194.041 Y12.826 E5.56182
G1 X194.687 Y12.036 E5.68428
G1 X195.478 Y11.386 E5.80714
G1 X196.380 Y10.904 E5.92986
G1 X197.360 Y10.606 E6.05278
G1 X198.221 Y10.522 E6.15659
G1 X208.577 Y10.522 E7.39931
G1 X208.577 Y26.922 E9.36731
G1 X182.327 Y26.922 E12.51731
G1 X182.327 Y62.922 E16.83731
G1 X208.577 Y62.922 E19.98731
G1 X208.577 Y79.322 E21.95531
G1 X198.221 Y79.322 E23.19803
G1 X197.360 Y79.238 E23.30184
G1 X196.380 Y78.940 E23.42476
G1 X195.478 Y78.458 E23.54748
G1 X194.687 Y77.808 E23.67034
G1 X194.041 Y77.018 E23.79280
G1 X193.560 Y76.119 E23.91515
G1 X193.263 Y75.143 E24.03757
G1 X193.181 Y74.322 E24.13658
G1 X176.971 Y74.322 E26.08178
G1 X176.110 Y74.238 E26.18559
G1 X175.130 Y73.940 E26.30851
G1 X174.228 Y73.458 E26.43123
G1 X173.437 Y72.808 E26.55409
G1 X172.791 Y72.018 E26.67655
G1 X172.310 Y71.119 E26.79890
G1 X172.013 Y70.143 E26.92132
G1 X171.927 Y69.282 E27.02516
G1 X171.927 Y64.322 E27.62036
G1 X164.471 Y64.322 E28.51508
G1 X163.610 Y64.238 E28.61889
G1 X162.630 Y63.940 E28.74181
G1 X161.728 Y63.458 E28.86453
G1 X160.937 Y62.808 E28.98739
G1 X160.291 Y62.018 E29.10985
G1 X159.810 Y61.119 E29.23220
G1 X159.513 Y60.143 E29.35462
G1 X159.427 Y59.282 E29.45845
G1 X159.427 Y53.522 E30.14965
G1 X171.927 Y53.522 E31.64965
G1 X171.927 Y36.322 E33.71365
G1 X159.427 Y36.322 E35.21365
G1 X159.427 Y30.562 E35.90485
G1 X159.513 Y29.701 E36.00869
G0 F9000 X151.106 Y43.600
G1 F1200 X151.106 Y105.000 E43.37669
G1 X134.706 Y105.000 E45.34469
G1 X134.706 Y43.600 E52.71269
G1 X151.106 Y43.600 E54.68069
G0 F9000 X173.597 Y86.170
G1 F1200 X189.997 Y86.170 E56.64869
G1 X189.997 Y88.170 E56.88869
G1 X207.415 Y88.170 E58.97885
G1 X208.038 Y88.216 E59.05381
G1 X208.761 Y88.371 E59.14254
G1 X209.290 Y88.569 E59.21032
G1 X209.514 Y88.662 E59.23943
G1 X210.115 Y88.990 E59.32159
G1 X210.706 Y89.433 E59.41022
G1 X211.233 Y89.957 E59.49940
G1 X211.678 Y90.554 E59.58876
G1 X212.037 Y91.208 E59.67828
G1 X212.295 Y91.907 E59.76769
G1 X212.476 Y92.735 E59.86940
G1 X212.497 Y99.173 E60.64196
G1 X212.473 Y99.834 E60.72134
G1 X212.448 Y100.132 E60.75722
G1 X212.294 Y100.836 E60.84370
G1 X212.036 Y101.533 E60.93289
G1 X211.678 Y102.186 E61.02225
G1 X211.235 Y102.780 E61.11117
G1 X210.709 Y103.306 E61.20043
G1 X210.111 Y103.754 E61.29010
G1 X209.455 Y104.109 E61.37961
G1 X209.050 Y104.261 E61.43152
G1 X208.826 Y104.354 E61.46062
G1 X207.961 Y104.543 E61.56687
G1 X206.665 Y104.570 E61.72242
G1 X189.997 Y104.570 E63.72258
G1 X189.997 Y106.570 E63.96258
G1 X173.597 Y106.570 E65.93058
G1 X173.597 Y86.170 E68.37858
G0 F9000 X179.383 Y112.697
G1 F1200 X179.608 Y112.637 E68.40653
G1 X180.513 Y112.529 E68.51590
G1 X181.248 Y112.522 E68.60410
G1 X181.489 Y112.522 E68.63302
G1 X182.372 Y112.628 E68.73974
G1 X183.118 Y112.807 E68.83180
G1 X183.348 Y112.868 E68.86036
G1 X184.156 Y113.174 E68.96404
G1 X184.974 Y113.599 E69.07466
G1 X185.744 Y114.123 E69.18642
G1 X186.448 Y114.741 E69.29883
G1 X187.069 Y115.436 E69.41068
G1 X187.601 Y116.201 E69.52249
G1 X188.040 Y117.026 E69.63464
G1 X188.343 Y117.820 E69.73662
G1 X188.423 Y118.081 E69.76938
G1 X188.612 Y118.863 E69.86592
G1 X188.709 Y119.694 E69.96632
G1 X189.055 Y126.013 E70.72573
G1 X213.725 Y126.013 E73.68613
G1 X213.725 Y142.413 E75.65413
G1 X189.055 Y142.413 E78.61453
G1 X188.746 Y148.058 E79.29295
G1 X188.709 Y148.733 E79.37407
G1 X188.618 Y149.519 E79.46902
G1 X188.408 Y150.414 E79.57933
G1 X188.150 Y151.121 E79.66965
G1 X188.065 Y151.349 E79.69885
G1 X187.656 Y152.133 E79.80496
G1 X187.242 Y152.749 E79.89402
G1 X187.104 Y152.949 E79.92318
G1 X186.521 Y153.611 E80.02904
G1 X185.836 Y154.231 E80.13991
G1 X185.075 Y154.767 E80.25160
G1 X184.251 Y155.210 E80.36387
G1 X183.379 Y155.548 E80.47609
G1 X182.668 Y155.730 E80.56416
G1 X182.443 Y155.790 E80.59211
G1 X181.538 Y155.898 E80.70148
G1 X180.803 Y155.905 E80.78968
G1 X180.562 Y155.905 E80.81860
G1 X179.679 Y155.799 E80.92532
G1 X178.933 Y155.620 E81.01738
G1 X178.703 Y155.559 E81.04594
G1 X177.895 Y155.253 E81.14962
G1 X177.077 Y154.828 E81.26024
G1 X176.461 Y154.409 E81.34964
G1 X176.260 Y154.270 E81.37896
G1 X175.595 Y153.676 E81.48596
G1 X174.982 Y152.991 E81.59627
G1 X174.450 Y152.226 E81.70809
G1 X174.011 Y151.401 E81.82023
G1 X173.708 Y150.607 E81.92221
G1 X173.628 Y150.346 E81.95497
G1 X173.439 Y149.564 E82.05151
G1 X173.342 Y148.733 E82.15191
G1 X172.762 Y138.144 E83.42449
G1 X172.425 Y137.342 E83.52888
G1 X172.160 Y136.484 E83.63664
G1 X171.982 Y135.608 E83.74391
G1 X171.888 Y134.721 E83.85095
G1 X171.883 Y133.970 E83.94107
G1 X171.883 Y133.766 E83.96555
G1 X171.965 Y132.924 E84.06707
G1 X172.132 Y132.050 E84.17384
G1 X172.388 Y131.189 E84.28164
G1 X172.724 Y130.360 E84.38898
G1 X172.761 Y130.289 E84.39858
G1 X173.298 Y120.490 E85.57623
G1 X173.342 Y119.693 E85.67201
G1 X173.433 Y118.908 E85.76684
G1 X173.643 Y118.013 E85.87716
G1 X173.901 Y117.306 E85.96747
G1 X173.986 Y117.078 E85.99667
G1 X174.395 Y116.294 E86.10279
G1 X174.809 Y115.678 E86.19185
G1 X174.947 Y115.478 E86.22101
G1 X175.528 Y114.817 E86.32661
G1 X176.212 Y114.198 E86.43731
G1 X176.976 Y113.660 E86.54944
G1 X177.801 Y113.216 E86.66187
G1 X178.672 Y112.879 E86.77394
G1 X179.383 Y112.697 E86.86201
G0 F9000 X150.589 Y130.621
G1 F1200 X150.589 Y192.021 E94.23001
G1 X134.189 Y192.021 E96.19801
G1 X134.189 Y130.621 E103.56601
G1 X150.589 Y130.621 E105.53401
G0 F9000 X195.856 Y173.091
G1 F1200 X196.479 Y172.558 E105.63240
G1 X197.177 Y172.131 E105.73059
G1 X197.933 Y171.819 E105.82873
G1 X198.844 Y171.601 E105.94114
G1 X205.326 Y171.574 E106.71898
G1 X206.270 Y171.612 E106.83236
G1 X207.141 Y171.815 E106.93968
G1 X207.907 Y172.132 E107.03916
G1 X208.604 Y172.560 E107.13731
G1 X209.222 Y173.088 E107.23485
G1 X209.755 Y173.710 E107.33314
G1 X210.184 Y174.410 E107.43166
G1 X210.496 Y175.166 E107.52981
G1 X210.704 Y176.035 E107.63703
G1 X210.741 Y177.225 E107.77990
G1 X210.741 Y191.574 E109.50178
G1 X221.443 Y191.574 E110.78602
G1 X221.443 Y195.277 E111.23038
G1 X221.446 Y200.474 E111.85402
G1 X183.631 Y200.474 E116.39182
G1 X183.638 Y196.765 E116.83690
G1 X183.635 Y191.574 E117.45982
G1 X194.341 Y191.574 E118.74454
G1 X194.341 Y177.230 E120.46582
G1 X194.373 Y176.063 E120.60591
G1 X194.583 Y175.168 E120.71623
G1 X194.901 Y174.406 E120.81531
G1 X195.325 Y173.713 E120.91280
G1 X195.856 Y173.091 E121.01094
G10
G0 F9000 X147.306 Y101.200
;TYPE:WALL-INNER
G11
G1 F1200 X138.506 Y101.200 E122.06694
G1 X138.506 Y47.400 E128.52294
G1 X147.306 Y47.400 E129.57894
G1 X147.306 Y101.200 E136.03494
G0 F9000 X147.706 Y101.600
;TYPE:WALL-OUTER
G1 F1200 X138.106 Y101.600 E137.18694
G1 X138.106 Y47.000 E143.73894
G1 X147.706 Y47.000 E144.89094
G1 X147.706 Y101.600 E151.44294
G0 F9000 X147.163 Y101.059
;TYPE:SKIN
G1 F1200 X138.645 Y92.541 E152.88850
G0 F9000 X138.645 Y91.976
G1 F1200 X147.165 Y100.496 E154.33439
G0 F9000 X146.597 Y101.059
G1 F1200 X138.645 Y93.107 E155.68389
G0 F9000 X138.645 Y93.673
G1 F1200 X146.031 Y101.059 E156.93733
G0 F9000 X145.466 Y101.059
G1 F1200 X138.645 Y94.238 E158.09490
G0 F9000 X138.645 Y94.804
G1 F1200 X144.900 Y101.059 E159.15640
G0 F9000 X144.334 Y101.059
G1 F1200 X138.645 Y95.370 E160.12186
G0 F9000 X138.645 Y95.936
G1 F1200 X143.768 Y101.059 E160.99126
G0 F9000 X143.203 Y101.059
G1 F1200 X138.645 Y96.501 E161.76478
G0 F9000 X138.645 Y97.067
G1 F1200 X142.637 Y101.059 E162.44224
G0 F9000 X142.071 Y101.059
G1 F1200 X138.645 Y97.633 E163.02366
G0 F9000 X138.645 Y98.198
G1 F1200 X141.506 Y101.059 E163.50918
G0 F9000 X140.940 Y101.059
G1 F1200 X138.645 Y98.764 E163.89866
G0 F9000 X138.645 Y99.330
G1 F1200 X140.374 Y101.059 E164.19208
G0 F9000 X139.809 Y101.059
G1 F1200 X138.645 Y99.895 E164.38962
G0 F9000 X138.645 Y91.410
G1 F1200 X147.165 Y99.930 E165.83551
G0 F9000 X147.165 Y99.364
G1 F1200 X138.645 Y90.844 E167.28140
G0 F9000 X138.645 Y90.279
G1 F1200 X147.165 Y98.799 E168.72729
G0 F9000 X147.165 Y98.233
G1 F1200 X138.645 Y89.713 E170.17318
G0 F9000 X138.645 Y89.147
G1 F1200 X147.165 Y97.667 E171.61908
G0 F9000 X147.165 Y97.102
G1 F1200 X138.645 Y88.582 E173.06497
G0 F9000 X138.645 Y88.016
G1 F1200 X147.165 Y96.536 E174.51086
G0 F9000 X147.165 Y95.970
G1 F1200 X138.645 Y87.450 E175.95675
G0 F9000 X138.645 Y86.885
G1 F1200 X147.165 Y95.404 E177.40256
G0 F9000 X147.165 Y94.839
G1 F1200 X138.645 Y86.319 E178.84845
G0 F9000 X138.645 Y85.753
G1 F1200 X147.165 Y94.273 E180.29434
G0 F9000 X147.165 Y93.707
G1 F1200 X138.645 Y85.187 E181.74024
G0 F9000 X138.645 Y84.622
G1 F1200 X147.165 Y93.142 E183.18613
G0 F9000 X147.165 Y92.576
G1 F1200 X138.645 Y84.056 E184.63202
G0 F9000 X138.645 Y83.490
G1 F1200 X147.165 Y92.010 E186.07791
G0 F9000 X147.165 Y91.445
G1 F1200 X138.645 Y82.925 E187.52380
G0 F9000 X138.645 Y82.359
G1 F1200 X147.165 Y90.879 E188.96969
G0 F9000 X147.165 Y90.313
G1 F1200 X138.645 Y81.793 E190.41559
G0 F9000 X138.645 Y81.228
G1 F1200 X147.165 Y89.748 E191.86148
G0 F9000 X147.165 Y89.182
G1 F1200 X138.645 Y80.662 E193.30737
G0 F9000 X138.645 Y80.096
G1 F1200 X147.165 Y88.616 E194.75326
G0 F9000 X147.165 Y88.051
G1 F1200 X138.645 Y79.531 E196.19915
G0 F9000 X138.645 Y78.965
G1 F1200 X147.165 Y87.485 E197.64505
G0 F9000 X147.165 Y86.919
G1 F1200 X138.645 Y78.399 E199.09094
G0 F9000 X138.645 Y77.834
G1 F1200 X147.165 Y86.354 E200.53683
G0 F9000 X147.165 Y85.788
G1 F1200 X138.645 Y77.268 E201.98272
G0 F9000 X138.645 Y76.702
G1 F1200 X147.165 Y85.222 E203.42861
G0 F9000 X147.165 Y84.656
G1 F1200 X138.645 Y76.137 E204.87442
G0 F9000 X138.645 Y75.571
G1 F1200 X147.165 Y84.091 E206.32031
G0 F9000 X147.165 Y83.525
G1 F1200 X138.645 Y75.005 E207.76621
G0 F9000 X138.645 Y74.439
G1 F1200 X147.165 Y82.959 E209.21210
G0 F9000 X147.165 Y82.394
G1 F1200 X138.645 Y73.874 E210.65799
G0 F9000 X138.645 Y73.308
G1 F1200 X147.165 Y81.828 E212.10388
G0 F9000 X147.165 Y81.262
G1 F1200 X138.645 Y72.742 E213.54977
G0 F9000 X138.645 Y72.177
G1 F1200 X147.165 Y80.697 E214.99567
G0 F9000 X147.165 Y80.131
G1 F1200 X138.645 Y71.611 E216.44156
G0 F9000 X138.645 Y71.045
G1 F1200 X147.165 Y79.565 E217.88745
G0 F9000 X147.165 Y79.000
G1 F1200 X138.645 Y70.480 E219.33334
G0 F9000 X138.645 Y69.914
G1 F1200 X147.165 Y78.434 E220.77923
G0 F9000 X147.165 Y77.868
G1 F1200 X138.645 Y69.348 E222.22512
G0 F9000 X138.645 Y68.783
G1 F1200 X147.165 Y77.303 E223.67102
G0 F9000 X147.165 Y76.737
G1 F1200 X138.645 Y68.217 E225.11691
G0 F9000 X138.645 Y67.651
G1 F1200 X147.165 Y76.171 E226.56280
G0 F9000 X147.165 Y75.605
G1 F1200 X138.645 Y67.086 E228.00861
G0 F9000 X138.645 Y66.520
G1 F1200 X147.165 Y75.040 E229.45450
G0 F9000 X147.165 Y74.474
G1 F1200 X138.645 Y65.954 E230.90039
G0 F9000 X138.645 Y65.388
G1 F1200 X147.165 Y73.908 E232.34628
G0 F9000 X147.165 Y73.343
G1 F1200 X138.645 Y64.823 E233.79218
G0 F9000 X138.645 Y64.257
G1 F1200 X147.165 Y72.777 E235.23807
G0 F9000 X147.165 Y72.211
G1 F1200 X138.645 Y63.691 E236.68396
G0 F9000 X138.645 Y63.126
G1 F1200 X147.165 Y71.646 E238.12985
G0 F9000 X147.165 Y71.080
G1 F1200 X138.645 Y62.560 E239.57574
G0 F9000 X138.645 Y61.994
G1 F1200 X147.165 Y70.514 E241.02164
G0 F9000 X147.165 Y69.949
G1 F1200 X138.645 Y61.429 E242.46753
G0 F9000 X138.645 Y60.863
G1 F1200 X147.165 Y69.383 E243.91342
G0 F9000 X147.165 Y68.817
G1 F1200 X138.645 Y60.297 E245.35931
G0 F9000 X138.645 Y59.732
G1 F1200 X147.165 Y68.252 E246.80520
G0 F9000 X147.165 Y67.686
G1 F1200 X138.645 Y59.166 E248.25110
G0 F9000 X138.645 Y58.600
G1 F1200 X147.165 Y67.120 E249.69699
G0 F9000 X147.165 Y66.555
G1 F1200 X138.645 Y58.035 E251.14288
G0 F9000 X138.645 Y57.469
G1 F1200 X147.165 Y65.989 E252.58877
G0 F9000 X147.165 Y65.423
G1 F1200 X138.645 Y56.903 E254.03466
G0 F9000 X138.645 Y56.338
G1 F1200 X147.165 Y64.857 E255.48047
G0 F9000 X147.165 Y64.292
G1 F1200 X138.645 Y55.772 E256.92636
G0 F9000 X138.645 Y55.206
G1 F1200 X147.165 Y63.726 E258.37225
G0 F9000 X147.165 Y63.160
G1 F1200 X138.645 Y54.640 E259.81815
G0 F9000 X138.645 Y54.075
G1 F1200 X147.165 Y62.595 E261.26404
G0 F9000 X147.165 Y62.029
G1 F1200 X138.645 Y53.509 E262.70993
G0 F9000 X138.645 Y52.943
G1 F1200 X147.165 Y61.463 E264.15582
G0 F9000 X147.165 Y60.898
G1 F1200 X138.645 Y52.378 E265.60171
G0 F9000 X138.645 Y51.812
G1 F1200 X147.165 Y60.332 E267.04761
G0 F9000 X147.165 Y59.766
G1 F1200 X138.645 Y51.246 E268.49350
G0 F9000 X138.645 Y50.681
G1 F1200 X147.165 Y59.201 E269.93939
G0 F9000 X147.165 Y58.635
G1 F1200 X138.645 Y50.115 E271.38528
G0 F9000 X138.645 Y49.549
G1 F1200 X147.165 Y58.069 E272.83117
G0 F9000 X147.165 Y57.504
G1 F1200 X138.645 Y48.984 E274.27707
G0 F9000 X138.645 Y48.418
G1 F1200 X147.165 Y56.938 E275.72296
G0 F9000 X147.165 Y56.372
G1 F1200 X138.645 Y47.852 E277.16885
G0 F9000 X138.898 Y47.540
G1 F1200 X147.165 Y55.806 E278.57172
G0 F9000 X147.165 Y55.241
G1 F1200 X139.464 Y47.540 E279.87862
G0 F9000 X140.029 Y47.540
G1 F1200 X147.165 Y54.675 E281.08956
G0 F9000 X147.165 Y54.109
G1 F1200 X140.595 Y47.540 E282.20444
G0 F9000 X141.161 Y47.540
G1 F1200 X147.165 Y53.544 E283.22335
G0 F9000 X147.165 Y52.978
G1 F1200 X141.726 Y47.540 E284.14630
G0 F9000 X142.292 Y47.540
G1 F1200 X147.165 Y52.412 E284.97319
G0 F9000 X147.165 Y51.847
G1 F1200 X142.858 Y47.540 E285.70411
G0 F9000 X143.423 Y47.540
G1 F1200 X147.165 Y51.281 E286.33906
G0 F9000 X147.165 Y50.715
G1 F1200 X143.989 Y47.540 E286.87796
G0 F9000 X144.555 Y47.540
G1 F1200 X147.165 Y50.150 E287.32089
G0 F9000 X147.165 Y49.584
G1 F1200 X145.120 Y47.540 E287.66786
G0 F9000 X145.686 Y47.540
G1 F1200 X147.165 Y49.018 E287.91877
G0 F9000 X147.165 Y48.453
G1 F1200 X146.252 Y47.540 E288.07371
G0 F9000 X146.817 Y47.540
G1 F1200 X147.165 Y47.887 E288.13268
G0 F9000 X138.645 Y100.461
G1 F1200 X139.243 Y101.059 E288.23417
G10
G0 F9000 X163.853 Y60.285
;TYPE:WALL-INNER
G11
G1 F1200 X163.638 Y60.108 E288.26758
G1 X163.467 Y59.899 E288.29999
G1 X163.337 Y59.657 E288.33295
G1 X163.257 Y59.393 E288.36606
G1 X163.227 Y59.092 E288.40235
G1 X163.227 Y57.322 E288.61475
G1 X175.727 Y57.322 E290.11475
G1 X175.727 Y32.522 E293.09075
G1 X163.227 Y32.522 E294.59075
G1 X163.227 Y30.752 E294.80315
G1 X163.257 Y30.451 E294.83945
G1 X163.337 Y30.187 E294.87256
G1 X163.467 Y29.945 E294.90552
G1 X163.638 Y29.736 E294.93793
G1 X163.853 Y29.559 E294.97134
G1 X164.092 Y29.431 E295.00388
G1 X164.356 Y29.351 E295.03698
G1 X164.654 Y29.322 E295.07291
G1 X167.557 Y29.322 E295.42127
G1 X167.271 Y29.694 E295.47758
G1 X167.086 Y30.142 E295.53574
G1 X167.022 Y30.622 E295.59385
G1 X167.086 Y31.103 E295.65208
G1 X167.271 Y31.550 E295.71013
G1 X167.566 Y31.933 E295.76815
G1 X167.949 Y32.229 E295.82623
G1 X168.398 Y32.414 E295.88451
G1 X168.877 Y32.477 E295.94248
G1 X169.357 Y32.414 E296.00057
G1 X169.804 Y32.229 E296.05863
G1 X170.189 Y31.934 E296.11683
G1 X170.484 Y31.550 E296.17494
G1 X170.670 Y31.102 E296.23315
G1 X170.732 Y30.622 E296.29123
G1 X170.670 Y30.143 E296.34919
G1 X170.484 Y29.694 E296.40751
G1 X170.197 Y29.322 E296.46389
G1 X173.156 Y29.322 E296.81897
G1 X173.635 Y29.275 E296.87672
G1 X174.124 Y29.127 E296.93803
G1 X174.574 Y28.886 E296.99929
G1 X174.969 Y28.562 E297.06059
G1 X175.291 Y28.168 E297.12165
G1 X175.532 Y27.718 E297.18291
G1 X175.680 Y27.229 E297.24422
G1 X175.727 Y26.751 E297.30186
G1 X175.727 Y20.752 E298.02174
G1 X175.757 Y20.451 E298.05804
G1 X175.837 Y20.187 E298.09114
G1 X175.967 Y19.945 E298.12410
G1 X176.138 Y19.736 E298.15651
G1 X176.353 Y19.559 E298.18993
G1 X176.592 Y19.431 E298.22246
